%
(1001)
(T1 D=5. CR=0. - ZMIN=-30.5 - FLAT END MILL)
N10 G90 G94 G17 G91.1
N15 G21
N20 G53 G0 Z0.
(ADAPTIVE1)
N25 T1 M6
N30 S9000 M3
N35 G17 G90 G94
N40 G54
N45 G64 P0.1 Q0.1
N50 G0 X-0.491 Y-85.759
N55 G43 Z15. H1
N60 G0 Z5.
N65 Z-8.275
N70 G1 Z-8.775 F1000.
N75 X-0.489 Y-85.752 Z-8.862
N80 X-0.483 Y-85.73 Z-8.946
N85 X-0.474 Y-85.694 Z-9.025
N90 X-0.461 Y-85.646 Z-9.096
N95 X-0.446 Y-85.586 Z-9.158
N100 X-0.428 Y-85.517 Z-9.208
N105 X-0.409 Y-85.44 Z-9.245
N110 X-0.388 Y-85.359 Z-9.267
N115 X-0.366 Y-85.275 Z-9.275
N120 G3 X0.025 Y-82.553 I-12.366 J3.167
N125 G1 Y-82.403
N130 X-0.152 Y-81.535
N135 X-0.267 Y-80.656
N140 X-0.342 Y-79.773
N145 X-0.39 Y-78.888
N150 X-0.421 Y-78.003
N155 X-0.44 Y-77.117
N160 X-0.453 Y-76.231
N165 X-0.461 Y-75.345
N170 X-0.466 Y-74.458
N175 X-0.469 Y-73.572
N180 X-0.473 Y-71.8
N185 X-0.475 Y-68.256
N190 Y-31.925
N195 Y-2.239
N200 X-0.352 Y-1.814
N205 X-0.112 Y-1.441
N210 X0.503 Y-0.803
N215 X1.273 Y-0.365
N220 X2.109 Y-0.071
N225 X2.974 Y0.122
N230 X3.851 Y0.248
N235 X4.733 Y0.329
N240 X5.618 Y0.382
N245 X6.503 Y0.415
N250 X7.389 Y0.437
N255 X8.275 Y0.451
N260 X9.161 Y0.459
N265 X10.047 Y0.465
N270 X10.933 Y0.469
N275 X12.706 Y0.472
N280 X16.25 Y0.475
N285 X18.909
N290 X69.418
N295 X77.836
N300 X78.253 Y0.326
N305 X78.616 Y0.073
N310 X79.237 Y-0.56
N315 X79.663 Y-1.337
N320 X79.947 Y-2.176
N325 X80.134 Y-3.043
N330 X80.256 Y-3.92
N335 X80.334 Y-4.803
N340 X80.385 Y-5.688
N345 X80.417 Y-6.573
N350 X80.438 Y-7.459
N355 X80.451 Y-8.345
N360 X80.46 Y-9.231
N365 X80.465 Y-10.117
N370 X80.469 Y-11.003
N375 X80.473 Y-12.776
N380 X80.475 Y-16.32
N385 Y-40.245
N390 Y-77.684
N395 X80.391 Y-78.119
N400 X80.166 Y-78.501
N405 X79.569 Y-79.156
N410 X78.807 Y-79.608
N415 X77.974 Y-79.911
N420 X77.111 Y-80.11
N425 X76.235 Y-80.24
N430 X75.352 Y-80.324
N435 X74.468 Y-80.378
N440 X73.583 Y-80.413
N445 X72.697 Y-80.436
N450 X71.811 Y-80.45
N455 X70.925 Y-80.459
N460 X70.038 Y-80.465
N465 X69.152 Y-80.468
N470 X68.266 Y-80.471
N475 X65.608 Y-80.474
N480 X56.747 Y-80.475
N485 X17.757
N490 X4.465
N495 X4.03 Y-80.394
N500 X3.64 Y-80.184
N505 X2.962 Y-79.613
N510 X2.485 Y-78.866
N515 X2.159 Y-78.042
N520 X1.941 Y-77.183
N525 X1.797 Y-76.309
N530 X1.702 Y-75.428
N535 X1.64 Y-74.544
N540 X1.6 Y-73.659
N545 X1.573 Y-72.773
N550 X1.556 Y-71.887
N555 X1.545 Y-71.001
N560 X1.538 Y-70.115
N565 X1.533 Y-69.229
N570 X1.53 Y-68.343
N575 X1.527 Y-66.571
N580 X1.525 Y-63.026
N585 Y-44.418
N590 Y-4.985
N595 X1.587 Y-4.546
N600 X1.749 Y-4.134
N605 X2.222 Y-3.385
N610 X2.905 Y-2.82
N615 X3.693 Y-2.414
N620 X4.532 Y-2.129
N625 X5.396 Y-1.932
N630 X6.272 Y-1.798
N635 X7.153 Y-1.707
N640 X8.037 Y-1.646
N645 X8.922 Y-1.606
N650 X9.808 Y-1.578
N655 X10.694 Y-1.56
N660 X11.58 Y-1.548
N665 X12.466 Y-1.54
N670 X13.352 Y-1.535
N675 X14.238 Y-1.532
N680 X16.01 Y-1.528
N685 X19.555 Y-1.526
N690 X61.203 Y-1.525
N695 X75.381
N700 X75.798 Y-1.673
N705 X76.559 Y-2.127
N710 X77.138 Y-2.798
N715 X77.556 Y-3.58
N720 X77.85 Y-4.416
N725 X78.053 Y-5.278
N730 X78.192 Y-6.153
N735 X78.286 Y-7.034
N740 X78.349 Y-7.918
N745 X78.391 Y-8.803
N750 X78.419 Y-9.689
N755 X78.438 Y-10.575
N760 X78.451 Y-11.461
N765 X78.459 Y-12.347
N770 X78.464 Y-13.233
N775 X78.468 Y-14.119
N780 X78.472 Y-15.892
N785 X78.474 Y-19.436
N790 X78.475 Y-36.272
N795 Y-75.262
N800 X78.355 Y-75.688
N805 X77.942 Y-76.472
N810 X77.292 Y-77.074
N815 X76.521 Y-77.511
N820 X75.69 Y-77.819
N825 X74.83 Y-78.032
N830 X73.956 Y-78.177
N835 X73.075 Y-78.276
N840 X72.192 Y-78.342
N845 X71.306 Y-78.387
N850 X70.421 Y-78.417
N855 X69.535 Y-78.436
N860 X68.649 Y-78.449
N865 X67.763 Y-78.458
N870 X66.877 Y-78.464
N875 X65.991 Y-78.468
N880 X64.218 Y-78.472
N885 X61.56 Y-78.474
N890 X48.268 Y-78.475
N895 X18.14
N900 X7.063
N905 X6.624 Y-78.418
N910 X6.208 Y-78.265
N915 X5.451 Y-77.805
N920 X4.874 Y-77.132
N925 X4.456 Y-76.351
N930 X4.161 Y-75.515
N935 X3.956 Y-74.653
N940 X3.816 Y-73.778
N945 X3.72 Y-72.897
N950 X3.656 Y-72.014
N955 X3.612 Y-71.129
N960 X3.583 Y-70.243
N965 X3.564 Y-69.357
N970 X3.551 Y-68.471
N975 X3.542 Y-67.585
N980 X3.536 Y-66.699
N985 X3.533 Y-65.813
N990 X3.528 Y-64.04
N995 X3.526 Y-61.382
N1000 X3.525 Y-48.976
N1005 Y-41.001
N1010 Y-7.329
N1015 X3.569 Y-6.888
N1020 X3.698 Y-6.464
N1025 X4.108 Y-5.678
N1030 X4.745 Y-5.062
N1035 X5.504 Y-4.605
N1040 X6.326 Y-4.275
N1045 X7.181 Y-4.042
N1050 X8.052 Y-3.879
N1055 X8.931 Y-3.767
N1060 X9.814 Y-3.689
N1065 X10.699 Y-3.636
N1070 X11.584 Y-3.6
N1075 X12.47 Y-3.576
N1080 X13.356 Y-3.559
N1085 X14.242 Y-3.548
N1090 X15.128 Y-3.54
N1095 X16.014 Y-3.535
N1100 X16.9 Y-3.532
N1105 X18.672 Y-3.528
N1110 X22.217 Y-3.526
N1115 X69.181 Y-3.525
N1120 X72.726
N1125 X73.166 Y-3.575
N1130 X73.587 Y-3.712
N1135 X74.365 Y-4.138
N1140 X74.972 Y-4.783
N1145 X75.421 Y-5.547
N1150 X75.744 Y-6.372
N1155 X75.972 Y-7.228
N1160 X76.131 Y-8.1
N1165 X76.241 Y-8.979
N1170 X76.316 Y-9.862
N1175 X76.367 Y-10.747
N1180 X76.402 Y-11.632
N1185 X76.426 Y-12.518
N1190 X76.442 Y-13.404
N1195 X76.453 Y-14.29
N1200 X76.46 Y-15.176
N1205 X76.465 Y-16.062
N1210 X76.468 Y-16.948
N1215 X76.472 Y-18.721
N1220 X76.474 Y-22.265
N1225 X76.475 Y-48.849
N1230 Y-72.774
N1235 X76.415 Y-73.213
N1240 X76.268 Y-73.631
N1245 X75.828 Y-74.4
N1250 X75.175 Y-74.999
N1255 X74.407 Y-75.442
N1260 X73.58 Y-75.759
N1265 X72.723 Y-75.983
N1270 X71.85 Y-76.138
N1275 X70.971 Y-76.246
N1280 X70.088 Y-76.319
N1285 X69.203 Y-76.37
N1290 X68.317 Y-76.404
N1295 X67.432 Y-76.427
N1300 X66.546 Y-76.443
N1305 X65.66 Y-76.453
N1310 X64.773 Y-76.46
N1315 X63.887 Y-76.465
N1320 X63.001 Y-76.468
N1325 X61.229 Y-76.472
N1330 X57.684 Y-76.474
N1335 X51.482 Y-76.475
N1340 X8.948
N1345 X8.523 Y-76.35
N1350 X7.731 Y-75.951
N1355 X7.107 Y-75.322
N1360 X6.641 Y-74.568
N1365 X6.303 Y-73.749
N1370 X6.064 Y-72.896
N1375 X5.895 Y-72.026
N1380 X5.779 Y-71.148
N1385 X5.698 Y-70.265
N1390 X5.643 Y-69.381
N1395 X5.605 Y-68.496
N1400 X5.579 Y-67.61
N1405 X5.562 Y-66.724
N1410 X5.55 Y-65.838
N1415 X5.542 Y-64.952
N1420 X5.536 Y-64.066
N1425 X5.533 Y-63.18
N1430 X5.528 Y-61.407
N1435 X5.526 Y-58.749
N1440 X5.525 Y-48.115
N1445 Y-19.76
N1450 Y-9.126
N1455 X5.631 Y-8.696
N1460 X5.992 Y-7.887
N1465 X6.594 Y-7.236
N1470 X7.33 Y-6.744
N1475 X8.14 Y-6.383
N1480 X8.987 Y-6.124
N1485 X9.854 Y-5.94
N1490 X10.731 Y-5.812
N1495 X11.613 Y-5.723
N1500 X12.496 Y-5.661
N1505 X13.382 Y-5.618
N1510 X14.267 Y-5.588
N1515 X15.153 Y-5.568
N1520 X16.039 Y-5.555
N1525 X16.925 Y-5.545
N1530 X17.811 Y-5.539
N1535 X18.697 Y-5.534
N1540 X20.47 Y-5.529
N1545 X23.128 Y-5.526
N1550 X31.103 Y-5.525
N1555 X43.509
N1560 X70.979
N1565 X71.404 Y-5.65
N1570 X72.197 Y-6.045
N1575 X72.829 Y-6.666
N1580 X73.305 Y-7.413
N1585 X73.653 Y-8.228
N1590 X73.902 Y-9.079
N1595 X74.078 Y-9.947
N1600 X74.201 Y-10.825
N1605 X74.287 Y-11.707
N1610 X74.346 Y-12.591
N1615 X74.387 Y-13.476
N1620 X74.415 Y-14.362
N1625 X74.434 Y-15.248
N1630 X74.447 Y-16.134
N1635 X74.456 Y-17.02
N1640 X74.462 Y-17.906
N1645 X74.466 Y-18.792
N1650 X74.471 Y-20.564
N1655 X74.474 Y-23.222
N1660 X74.475 Y-26.767
N1665 Y-70.187
N1670 X74.469 Y-71.073
N1675 X74.181 Y-71.911
N1680 X73.63 Y-72.605
N1685 X72.922 Y-73.138
N1690 X72.128 Y-73.531
N1695 X71.288 Y-73.814
N1700 X70.425 Y-74.015
N1705 X69.551 Y-74.157
N1710 X68.67 Y-74.256
N1715 X67.786 Y-74.324
N1720 X66.902 Y-74.372
N1725 X66.016 Y-74.404
N1730 X65.13 Y-74.427
N1735 X64.244 Y-74.442
N1740 X63.358 Y-74.453
N1745 X62.472 Y-74.46
N1750 X61.586 Y-74.465
N1755 X60.7 Y-74.468
N1760 X58.928 Y-74.472
N1765 X55.383 Y-74.474
N1770 X23.483 Y-74.475
N1775 X19.052
N1780 X11.077
N1785 X10.649 Y-74.359
N1790 X9.849 Y-73.98
N1795 X9.208 Y-73.368
N1800 X8.723 Y-72.626
N1805 X8.368 Y-71.814
N1810 X8.114 Y-70.965
N1815 X7.934 Y-70.097
N1820 X7.808 Y-69.22
N1825 X7.72 Y-68.339
N1830 X7.659 Y-67.454
N1835 X7.617 Y-66.569
N1840 X7.588 Y-65.684
N1845 X7.568 Y-64.798
N1850 X7.554 Y-63.912
N1855 X7.545 Y-63.026
N1860 X7.539 Y-62.14
N1865 X7.534 Y-61.254
N1870 X7.529 Y-59.481
N1875 X7.526 Y-56.823
N1880 X7.525 Y-48.848
N1885 Y-33.784
N1890 Y-11.631
N1895 X7.551 Y-11.188
N1900 X7.652 Y-10.757
N1905 X8.004 Y-9.944
N1910 X8.598 Y-9.286
N1915 X9.329 Y-8.785
N1920 X10.135 Y-8.416
N1925 X10.98 Y-8.15
N1930 X11.846 Y-7.961
N1935 X12.722 Y-7.828
N1940 X13.603 Y-7.735
N1945 X14.487 Y-7.67
N1950 X15.372 Y-7.625
N1955 X16.257 Y-7.594
N1960 X17.143 Y-7.572
N1965 X18.029 Y-7.557
N1970 X18.915 Y-7.547
N1975 X19.801 Y-7.54
N1980 X20.687 Y-7.535
N1985 X21.574 Y-7.532
N1990 X23.346 Y-7.528
N1995 X26.89 Y-7.526
N2000 X33.979 Y-7.525
N2005 X68.538
N2010 X68.978 Y-7.577
N2015 X69.825 Y-7.839
N2020 X70.532 Y-8.372
N2025 X71.078 Y-9.071
N2030 X71.483 Y-9.859
N2035 X71.777 Y-10.695
N2040 X71.986 Y-11.556
N2045 X72.135 Y-12.429
N2050 X72.239 Y-13.309
N2055 X72.312 Y-14.193
N2060 X72.362 Y-15.077
N2065 X72.397 Y-15.963
N2070 X72.422 Y-16.848
N2075 X72.438 Y-17.734
N2080 X72.45 Y-18.62
N2085 X72.458 Y-19.507
N2090 X72.463 Y-20.393
N2095 X72.467 Y-21.279
N2100 X72.471 Y-23.051
N2105 X72.474 Y-25.709
N2110 X72.475 Y-34.571
N2115 Y-68.243
N2120 X72.472 Y-68.686
N2125 X72.398 Y-69.123
N2130 X72.09 Y-69.954
N2135 X71.523 Y-70.635
N2140 X70.806 Y-71.157
N2145 X70.008 Y-71.542
N2150 X69.167 Y-71.819
N2155 X68.303 Y-72.017
N2160 X67.428 Y-72.157
N2165 X66.547 Y-72.254
N2170 X65.664 Y-72.322
N2175 X64.779 Y-72.37
N2180 X63.893 Y-72.402
N2185 X63.008 Y-72.425
N2190 X62.122 Y-72.441
N2195 X61.236 Y-72.451
N2200 X60.349 Y-72.459
N2205 X59.463 Y-72.464
N2210 X58.577 Y-72.467
N2215 X56.805 Y-72.471
N2220 X54.147 Y-72.474
N2225 X44.399 Y-72.475
N2230 X20.474
N2235 X13.385
N2240 X12.947 Y-72.407
N2245 X12.11 Y-72.116
N2250 X11.418 Y-71.563
N2255 X10.885 Y-70.855
N2260 X10.491 Y-70.061
N2265 X10.205 Y-69.222
N2270 X10.001 Y-68.36
N2275 X9.856 Y-67.486
N2280 X9.755 Y-66.606
N2285 X9.684 Y-65.722
N2290 X9.635 Y-64.837
N2295 X9.601 Y-63.952
N2300 X9.577 Y-63.066
N2305 X9.561 Y-62.18
N2310 X9.55 Y-61.294
N2315 X9.542 Y-60.408
N2320 X9.537 Y-59.522
N2325 X9.533 Y-58.636
N2330 X9.529 Y-56.864
N2335 X9.526 Y-54.205
N2340 X9.525 Y-45.344
N2345 Y-31.166
N2350 Y-13.444
N2355 X9.59 Y-13.005
N2360 X9.872 Y-12.165
N2365 X10.415 Y-11.465
N2370 X11.117 Y-10.924
N2375 X11.907 Y-10.522
N2380 X12.743 Y-10.229
N2385 X13.604 Y-10.019
N2390 X14.478 Y-9.87
N2395 X15.357 Y-9.766
N2400 X16.24 Y-9.692
N2405 X17.125 Y-9.641
N2410 X18.011 Y-9.605
N2415 X18.896 Y-9.581
N2420 X19.782 Y-9.563
N2425 X20.668 Y-9.551
N2430 X21.554 Y-9.543
N2435 X22.44 Y-9.538
N2440 X23.327 Y-9.534
N2445 X25.099 Y-9.529
N2450 X27.757 Y-9.526
N2455 X35.732 Y-9.525
N2460 X40.163
N2465 X66.747
N2470 X67.179 Y-9.622
N2475 X67.996 Y-9.965
N2480 X68.663 Y-10.548
N2485 X69.174 Y-11.272
N2490 X69.55 Y-12.074
N2495 X69.823 Y-12.918
N2500 X70.018 Y-13.782
N2505 X70.156 Y-14.657
N2510 X70.253 Y-15.538
N2515 X70.321 Y-16.422
N2520 X70.368 Y-17.307
N2525 X70.401 Y-18.192
N2530 X70.424 Y-19.078
N2535 X70.44 Y-19.964
N2540 X70.451 Y-20.85
N2545 X70.458 Y-21.736
N2550 X70.463 Y-22.622
N2555 X70.467 Y-23.508
N2560 X70.471 Y-25.28
N2565 X70.474 Y-27.939
N2570 X70.475 Y-31.483
N2575 Y-66.042
N2580 X70.472 Y-66.928
N2585 X70.211 Y-67.775
N2590 X69.682 Y-68.486
N2595 X68.989 Y-69.038
N2600 X68.204 Y-69.45
N2605 X67.37 Y-69.75
N2610 X66.511 Y-69.966
N2615 X65.638 Y-70.119
N2620 X64.759 Y-70.227
N2625 X63.876 Y-70.302
N2630 X62.991 Y-70.355
N2635 X62.106 Y-70.392
N2640 X61.22 Y-70.418
N2645 X60.334 Y-70.435
N2650 X59.448 Y-70.448
N2655 X58.562 Y-70.456
N2660 X57.676 Y-70.462
N2665 X56.79 Y-70.466
N2670 X55.017 Y-70.471
N2675 X52.359 Y-70.474
N2680 X44.384 Y-70.475
N2685 X15.142
N2690 X14.289 Y-70.235
N2695 X13.566 Y-69.722
N2700 X13.003 Y-69.038
N2705 X12.581 Y-68.259
N2710 X12.273 Y-67.428
N2715 X12.051 Y-66.57
N2720 X11.893 Y-65.698
N2725 X11.782 Y-64.819
N2730 X11.704 Y-63.936
N2735 X11.649 Y-63.052
N2740 X11.611 Y-62.167
N2745 X11.585 Y-61.281
N2750 X11.566 Y-60.395
N2755 X11.554 Y-59.509
N2760 X11.545 Y-58.623
N2765 X11.539 Y-57.737
N2770 X11.534 Y-56.851
N2775 X11.529 Y-55.078
N2780 X11.526 Y-52.42
N2785 X11.525 Y-45.331
N2790 Y-15.203
N2795 X11.749 Y-14.346
N2800 X12.25 Y-13.614
N2805 X12.926 Y-13.042
N2810 X13.7 Y-12.611
N2815 X14.529 Y-12.296
N2820 X15.385 Y-12.069
N2825 X16.256 Y-11.907
N2830 X17.135 Y-11.792
N2835 X18.017 Y-11.711
N2840 X18.902 Y-11.655
N2845 X19.787 Y-11.615
N2850 X20.673 Y-11.588
N2855 X21.559 Y-11.569
N2860 X22.445 Y-11.555
N2865 X23.331 Y-11.546
N2870 X24.217 Y-11.539
N2875 X25.103 Y-11.535
N2880 X26.875 Y-11.53
N2885 X29.533 Y-11.527
N2890 X36.622 Y-11.525
N2895 X63.206
N2900 X64.092
N2905 X64.978 Y-11.539
N2910 X65.816 Y-11.826
N2915 X66.516 Y-12.371
N2920 X67.058 Y-13.072
N2925 X67.462 Y-13.86
N2930 X67.757 Y-14.696
N2935 X67.969 Y-15.556
N2940 X68.12 Y-16.429
N2945 X68.227 Y-17.309
N2950 X68.302 Y-18.192
N2955 X68.355 Y-19.076
N2960 X68.391 Y-19.962
N2965 X68.417 Y-20.847
N2970 X68.435 Y-21.733
N2975 X68.447 Y-22.619
N2980 X68.456 Y-23.506
N2985 X68.462 Y-24.392
N2990 X68.466 Y-25.278
N2995 X68.471 Y-27.05
N3000 X68.474 Y-29.708
N3005 X68.475 Y-36.797
N3010 Y-58.95
N3015 Y-64.267
N3020 X68.461 Y-64.71
N3025 X68.371 Y-65.144
N3030 X68.04 Y-65.966
N3035 X67.463 Y-66.639
N3040 X66.743 Y-67.154
N3045 X65.942 Y-67.535
N3050 X65.1 Y-67.811
N3055 X64.237 Y-68.008
N3060 X63.362 Y-68.148
N3065 X62.481 Y-68.247
N3070 X61.598 Y-68.316
N3075 X60.713 Y-68.364
N3080 X59.827 Y-68.398
N3085 X58.941 Y-68.422
N3090 X58.055 Y-68.438
N3095 X57.169 Y-68.449
N3100 X56.283 Y-68.457
N3105 X55.397 Y-68.463
N3110 X54.511 Y-68.467
N3115 X52.739 Y-68.471
N3120 X50.08 Y-68.474
N3125 X42.105 Y-68.475
N3130 X25.269
N3135 X17.294
N3140 X16.86 Y-68.383
N3145 X16.04 Y-68.05
N3150 X15.367 Y-67.473
N3155 X14.851 Y-66.752
N3160 X14.47 Y-65.952
N3165 X14.193 Y-65.11
N3170 X13.995 Y-64.247
N3175 X13.854 Y-63.372
N3180 X13.755 Y-62.491
N3185 X13.686 Y-61.608
N3190 X13.637 Y-60.723
N3195 X13.603 Y-59.838
N3200 X13.579 Y-58.952
N3205 X13.562 Y-58.066
N3210 X13.551 Y-57.18
N3215 X13.543 Y-56.294
N3220 X13.537 Y-55.408
N3225 X13.534 Y-54.521
N3230 X13.529 Y-52.749
N3235 X13.526 Y-50.091
N3240 X13.525 Y-42.116
N3245 Y-40.144
N3250 X13.524 Y-40.127
N3255 X13.523 Y-40.101
N3260 Y-39.899
N3265 X13.532 Y-39.698
N3270 X13.526 Y-38.812
N3275 X13.525 Y-26.406
N3280 Y-17.545
N3285 X13.573 Y-17.105
N3290 X13.697 Y-16.68
N3295 X14.089 Y-15.885
N3300 X14.705 Y-15.247
N3305 X15.447 Y-14.763
N3310 X16.258 Y-14.406
N3315 X17.105 Y-14.147
N3320 X17.972 Y-13.963
N3325 X18.848 Y-13.832
N3330 X19.73 Y-13.739
N3335 X20.613 Y-13.675
N3340 X21.498 Y-13.629
N3345 X22.384 Y-13.598
N3350 X23.27 Y-13.576
N3355 X24.156 Y-13.56
N3360 X25.042 Y-13.549
N3365 X25.928 Y-13.542
N3370 X26.814 Y-13.537
N3375 X27.7 Y-13.533
N3380 X29.472 Y-13.529
N3385 X32.131 Y-13.526
N3390 X40.106 Y-13.525
N3395 X62.259
N3400 X62.702 Y-13.542
N3405 X63.135 Y-13.632
N3410 X63.957 Y-13.965
N3415 X64.629 Y-14.542
N3420 X65.145 Y-15.262
N3425 X65.527 Y-16.062
N3430 X65.805 Y-16.903
N3435 X66.003 Y-17.767
N3440 X66.144 Y-18.642
N3445 X66.243 Y-19.522
N3450 X66.313 Y-20.406
N3455 X66.362 Y-21.29
N3460 X66.396 Y-22.176
N3465 X66.42 Y-23.062
N3470 X66.437 Y-23.948
N3475 X66.449 Y-24.834
N3480 X66.457 Y-25.72
N3485 X66.462 Y-26.606
N3490 X66.466 Y-27.492
N3495 X66.471 Y-29.264
N3500 X66.474 Y-31.923
N3505 X66.475 Y-39.898
N3510 Y-62.051
N3515 X66.462 Y-62.937
N3520 X66.186 Y-63.779
N3525 X65.65 Y-64.485
N3530 X64.954 Y-65.033
N3535 X64.168 Y-65.443
N3540 X63.334 Y-65.743
N3545 X62.475 Y-65.958
N3550 X61.602 Y-66.112
N3555 X60.723 Y-66.221
N3560 X59.84 Y-66.297
N3565 X58.956 Y-66.351
N3570 X58.07 Y-66.389
N3575 X57.184 Y-66.415
N3580 X56.299 Y-66.433
N3585 X55.413 Y-66.446
N3590 X54.526 Y-66.455
N3595 X53.64 Y-66.461
N3600 X52.754 Y-66.465
N3605 X50.982 Y-66.47
N3610 X48.324 Y-66.473
N3615 X41.235 Y-66.475
N3620 X40.348
N3625 X19.968
N3630 X19.082 Y-66.467
N3635 X18.238 Y-66.197
N3640 X17.529 Y-65.665
N3645 X16.978 Y-64.971
N3650 X16.565 Y-64.187
N3655 X16.264 Y-63.354
N3660 X16.046 Y-62.495
N3665 X15.892 Y-61.622
N3670 X15.782 Y-60.743
N3675 X15.705 Y-59.86
N3680 X15.65 Y-58.976
N3685 X15.612 Y-58.09
N3690 X15.586 Y-57.204
N3695 X15.567 Y-56.319
N3700 X15.554 Y-55.433
N3705 X15.546 Y-54.546
N3710 X15.539 Y-53.66
N3715 X15.535 Y-52.774
N3720 X15.53 Y-51.002
N3725 X15.529 Y-50.276
N3730 X15.518 Y-50.125
N3735 X15.489 Y-49.977
N3740 X15.44 Y-49.833
N3745 X15.408 Y-49.755
N3750 X15.25 Y-49.352
N3755 X15.171 Y-49.151
N3760 X14.94 Y-48.515
N3765 X14.739 Y-47.924
N3770 X14.689 Y-47.743
N3775 X14.382 Y-46.537
N3780 X14.085 Y-45.33
N3785 X14.039 Y-45.129
N3790 X13.934 Y-44.619
N3795 X13.919 Y-44.525
N3800 X13.738 Y-43.319
N3805 X13.733 Y-43.282
N3810 X13.669 Y-42.514
N3815 X13.621 Y-41.911
N3820 X13.58 Y-41.307
N3825 X13.549 Y-40.704
N3830 X13.524 Y-40.127
N3835 G3 X13.003 Y-39.649 Z-9.075 I-0.5 J-0.022
N3840 X12.75 Y-39.731 I0.021 J-0.5
N3845 X13.097 Y-40.259 I0.173 J-0.264
N3850 X13.033 Y-39.699 I-0.173 J0.264
N3855 X12.686 Y-40.636 I-0.174 J-0.469
N3860 X13.278 Y-40.442 I0.174 J0.469
N3865 G1 X13.282 Y-40.434
N3870 G3 X13.532 Y-39.698 Z-9.275 I-1.328 J0.86
N3875 G1 X13.549 Y-39.296
N3880 X13.58 Y-38.693
N3885 X13.621 Y-38.089
N3890 X13.669 Y-37.486
N3895 X13.733 Y-36.718
N3900 X13.738 Y-36.681
N3905 X13.919 Y-35.475
N3910 X13.934 Y-35.381
N3915 X14.039 Y-34.871
N3920 X14.085 Y-34.67
N3925 X14.382 Y-33.463
N3930 X14.689 Y-32.257
N3935 X14.739 Y-32.076
N3940 X14.814 Y-31.854
N3945 X15.055 Y-31.01
N3950 X15.228 Y-30.141
N3955 X15.337 Y-29.262
N3960 X15.406 Y-28.379
N3965 X15.449 Y-27.494
N3970 X15.477 Y-26.608
N3975 X15.494 Y-25.722
N3980 X15.505 Y-24.836
N3985 X15.512 Y-23.95
N3990 X15.517 Y-23.064
N3995 X15.52 Y-22.178
N4000 X15.523 Y-20.405
N4005 X15.524 Y-19.519
N4010 X15.583 Y-19.08
N4015 X15.852 Y-18.236
N4020 X16.383 Y-17.526
N4025 X17.077 Y-16.975
N4030 X17.861 Y-16.563
N4035 X18.695 Y-16.262
N4040 X19.554 Y-16.046
N4045 X20.427 Y-15.891
N4050 X21.306 Y-15.782
N4055 X22.189 Y-15.705
N4060 X23.073 Y-15.651
N4065 X23.959 Y-15.613
N4070 X24.844 Y-15.586
N4075 X25.73 Y-15.568
N4080 X26.616 Y-15.555
N4085 X27.502 Y-15.546
N4090 X28.388 Y-15.539
N4095 X29.717 Y-15.533
N4100 X29.86 Y-15.524
N4105 X30.001 Y-15.498
N4110 X30.137 Y-15.454
N4115 X30.222 Y-15.421
N4120 X31.027 Y-15.116
N4125 X31.228 Y-15.041
N4130 X31.461 Y-14.959
N4135 X32.06 Y-14.758
N4140 X32.67 Y-14.557
N4145 X32.837 Y-14.509
N4150 X33.239 Y-14.414
N4155 X34.043 Y-14.231
N4160 X34.646 Y-14.103
N4165 X35.373 Y-13.954
N4170 X35.853 Y-13.861
N4175 X36.054 Y-13.823
N4180 X37.26 Y-13.671
N4185 X37.462 Y-13.653
N4190 X37.864 Y-13.626
N4195 X38.065 Y-13.614
N4200 X39.271 Y-13.567
N4205 X39.875 Y-13.551
N4210 X40.478 Y-13.536
N4215 X40.679 Y-13.534
N4220 X41.282 Y-13.563
N4225 X41.885 Y-13.608
N4230 X42.288 Y-13.643
N4235 X42.489 Y-13.661
N4240 X42.69 Y-13.682
N4245 X43.896 Y-13.829
N4250 X44.5 Y-13.925
N4255 X44.701 Y-13.959
N4260 X45.103 Y-14.03
N4265 X45.304 Y-14.068
N4270 X45.72 Y-14.155
N4275 X45.907 Y-14.197
N4280 X47.187 Y-14.557
N4285 X48.32 Y-14.885
N4290 X49.183 Y-15.089
N4295 X50.054 Y-15.25
N4300 X50.934 Y-15.351
N4305 X51.818 Y-15.414
N4310 X52.703 Y-15.454
N4315 X53.589 Y-15.48
N4320 X54.475 Y-15.496
N4325 X55.361 Y-15.507
N4330 X56.247 Y-15.513
N4335 X57.133 Y-15.518
N4340 X58.906 Y-15.522
N4345 X60.678 Y-15.524
N4350 X61.111 Y-15.616
N4355 X61.934 Y-15.945
N4360 X62.608 Y-16.52
N4365 X63.127 Y-17.239
N4370 X63.513 Y-18.036
N4375 X63.793 Y-18.877
N4380 X63.995 Y-19.74
N4385 X64.138 Y-20.614
N4390 X64.239 Y-21.495
N4395 X64.31 Y-22.378
N4400 X64.36 Y-23.263
N4405 X64.395 Y-24.148
N4410 X64.419 Y-25.034
N4415 X64.436 Y-25.92
N4420 X64.448 Y-26.806
N4425 X64.456 Y-27.692
N4430 X64.462 Y-28.578
N4435 X64.467 Y-29.682
N4440 X64.476 Y-29.827
N4445 X64.504 Y-29.971
N4450 X64.549 Y-30.11
N4455 X64.608 Y-30.258
N4460 X64.809 Y-30.802
N4465 X65.093 Y-31.653
N4470 X65.226 Y-32.055
N4475 X65.29 Y-32.257
N4480 X65.614 Y-33.307
N4485 X65.66 Y-33.463
N4490 X65.792 Y-34.067
N4495 X65.914 Y-34.67
N4500 X65.952 Y-34.871
N4505 X66.026 Y-35.273
N4510 X66.061 Y-35.475
N4515 X66.257 Y-36.681
N4520 X66.28 Y-36.883
N4525 X66.344 Y-37.486
N4530 X66.384 Y-37.888
N4535 X66.401 Y-38.089
N4540 X66.423 Y-38.492
N4545 X66.433 Y-38.693
N4550 Y-41.307
N4555 X66.412 Y-41.71
N4560 X66.401 Y-41.911
N4565 X66.384 Y-42.112
N4570 X66.323 Y-42.715
N4575 X66.28 Y-43.117
N4580 X66.257 Y-43.319
N4585 X66.061 Y-44.525
N4590 X66.016 Y-44.78
N4595 X65.952 Y-45.129
N4600 X65.914 Y-45.33
N4605 X65.792 Y-45.933
N4610 X65.66 Y-46.537
N4615 X65.6 Y-46.738
N4620 X65.29 Y-47.743
N4625 X65.211 Y-47.989
N4630 X64.975 Y-48.843
N4635 X64.79 Y-49.709
N4640 X64.675 Y-50.588
N4645 X64.602 Y-51.471
N4650 X64.556 Y-52.356
N4655 X64.526 Y-53.242
N4660 X64.508 Y-54.128
N4665 X64.496 Y-55.014
N4670 X64.488 Y-55.9
N4675 X64.484 Y-56.786
N4680 X64.48 Y-57.672
N4685 X64.477 Y-59.444
N4690 X64.476 Y-60.33
N4695 X64.448 Y-60.773
N4700 X64.343 Y-61.203
N4705 X63.986 Y-62.014
N4710 X63.395 Y-62.674
N4715 X62.666 Y-63.178
N4720 X61.862 Y-63.55
N4725 X61.018 Y-63.821
N4730 X60.153 Y-64.014
N4735 X59.278 Y-64.151
N4740 X58.397 Y-64.248
N4745 X57.513 Y-64.317
N4750 X56.629 Y-64.364
N4755 X55.743 Y-64.398
N4760 X54.857 Y-64.421
N4765 X53.971 Y-64.438
N4770 X53.085 Y-64.449
N4775 X52.199 Y-64.457
N4780 X51.313 Y-64.462
N4785 X50.31 Y-64.467
N4790 X50.162 Y-64.476
N4795 X50.016 Y-64.505
N4800 X49.876 Y-64.552
N4805 X49.728 Y-64.612
N4810 X48.923 Y-64.927
N4815 X48.521 Y-65.056
N4820 X47.187 Y-65.443
N4825 X45.907 Y-65.803
N4830 X45.706 Y-65.848
N4835 X45.304 Y-65.932
N4840 X45.103 Y-65.97
N4845 X44.67 Y-66.046
N4850 X44.5 Y-66.075
N4855 X43.896 Y-66.171
N4860 X42.69 Y-66.318
N4865 X42.489 Y-66.339
N4870 X42.087 Y-66.375
N4875 X41.885 Y-66.392
N4880 X41.282 Y-66.437
N4885 X40.679 Y-66.466
N4890 X40.478 Y-66.464
N4895 X39.472 Y-66.439
N4900 X39.271 Y-66.433
N4905 X38.065 Y-66.386
N4910 X37.864 Y-66.374
N4915 X37.462 Y-66.347
N4920 X37.26 Y-66.329
N4925 X36.054 Y-66.177
N4930 X35.451 Y-66.061
N4935 X35.049 Y-65.98
N4940 X34.646 Y-65.897
N4945 X34.043 Y-65.769
N4950 X33.239 Y-65.586
N4955 X32.837 Y-65.491
N4960 X32.67 Y-65.443
N4965 X32.032 Y-65.232
N4970 X31.831 Y-65.165
N4975 X31.022 Y-64.937
N4980 X30.152 Y-64.767
N4985 X29.272 Y-64.66
N4990 X28.389 Y-64.592
N4995 X27.504 Y-64.55
N5000 X26.618 Y-64.523
N5005 X25.732 Y-64.505
N5010 X24.846 Y-64.494
N5015 X23.96 Y-64.487
N5020 X23.074 Y-64.483
N5025 X21.302 Y-64.477
N5030 X20.869 Y-64.384
N5035 X20.049 Y-64.048
N5040 X19.377 Y-63.47
N5045 X18.861 Y-62.749
N5050 X18.478 Y-61.95
N5055 X18.201 Y-61.109
N5060 X18.001 Y-60.245
N5065 X17.86 Y-59.371
N5070 X17.76 Y-58.49
N5075 X17.689 Y-57.607
N5080 X17.64 Y-56.722
N5085 X17.605 Y-55.837
N5090 X17.581 Y-54.951
N5095 X17.569 Y-54.313
N5100 X17.547 Y-54.108
N5105 X17.489 Y-53.911
N5110 X17.398 Y-53.727
N5115 X17.06 Y-53.174
N5120 X16.939 Y-52.973
N5125 X16.7 Y-52.571
N5130 X16.59 Y-52.369
N5135 X16.105 Y-51.364
N5140 X16.008 Y-51.163
N5145 X15.662 Y-50.358
N5150 X15.491 Y-49.956
N5155 X15.44 Y-49.833
N5160 X15.432 Y-49.824 Z-9.272
N5165 G2 X14.775 Y-49.418 Z-9.075 I5.205 J9.172
N5170 X11.543 Y-45.993 I5.862 J8.767
N5175 G1 X11.507 Y-45.918
N5180 X11.484 Y-45.839
N5185 X11.475 Y-45.757
N5190 X11.142 Y-36.196
N5195 X11.146 Y-36.114
N5200 X11.163 Y-36.033
N5205 X11.194 Y-35.956
N5210 G2 X14.179 Y-32.314 I9.443 J-4.696
N5215 G1 X14.198 Y-32.3 Z-9.081
N5220 G2 X14.807 Y-31.864 Z-9.272 I6.439 J-8.352
N5225 G1 X14.814 Y-31.854 Z-9.275
N5230 X14.952 Y-31.452
N5235 X15.171 Y-30.849
N5240 X15.342 Y-30.413
N5245 X15.408 Y-30.245
N5250 X15.491 Y-30.044
N5255 X15.748 Y-29.441
N5260 X16.008 Y-28.837
N5265 X16.493 Y-27.832
N5270 X16.757 Y-27.208
N5275 X16.941 Y-26.653
N5280 X17.132 Y-25.874
N5285 X17.273 Y-25.
N5290 X17.362 Y-24.118
N5295 X17.42 Y-23.234
N5300 X17.457 Y-22.348
N5305 X17.481 Y-21.463
N5310 X17.555 Y-21.026
N5315 X17.846 Y-20.189
N5320 X18.395 Y-19.493
N5325 X19.096 Y-18.951
N5330 X19.884 Y-18.546
N5335 X20.72 Y-18.25
N5340 X21.58 Y-18.037
N5345 X22.453 Y-17.885
N5350 X23.332 Y-17.778
N5355 X24.215 Y-17.702
N5360 X25.1 Y-17.649
N5365 X25.62 Y-17.627
N5370 X25.805 Y-17.604
N5375 X25.985 Y-17.552
N5380 X26.154 Y-17.472
N5385 X28.067 Y-16.367
N5390 X28.212 Y-16.292
N5395 X28.815 Y-16.015
N5400 X29.418 Y-15.742
N5405 X29.619 Y-15.659
N5410 X30.085 Y-15.474
N5415 X30.137 Y-15.454
N5420 X30.146 Y-15.446 Z-9.272
N5425 G2 X30.564 Y-14.796 Z-9.075 I9.263 J-5.502
N5430 X34.138 Y-11.551 I8.845 J-6.151
N5435 G1 X34.211 Y-11.518
N5440 X34.288 Y-11.497
N5445 X34.367 Y-11.488
N5450 X43.85 Y-11.191
N5455 X43.93 Y-11.195
N5460 X44.008 Y-11.212
N5465 X44.083 Y-11.24
N5470 G2 X47.852 Y-14.256 I-4.673 J-9.707
N5475 X48.31 Y-14.878 Z-9.272 I-8.443 J-6.692
N5480 G1 X48.32 Y-14.885 Z-9.275
N5485 X48.521 Y-14.944
N5490 X48.923 Y-15.073
N5495 X49.728 Y-15.388
N5500 X49.929 Y-15.47
N5505 X50.331 Y-15.636
N5510 X50.532 Y-15.723
N5515 X51.739 Y-16.296
N5520 X51.885 Y-16.367
N5525 X52.141 Y-16.498
N5530 X52.598 Y-16.704
N5535 X53.11 Y-16.887
N5540 X53.811 Y-17.076
N5545 X54.683 Y-17.237
N5550 X55.563 Y-17.339
N5555 X56.446 Y-17.405
N5560 X57.331 Y-17.448
N5565 X58.217 Y-17.475
N5570 X59.102 Y-17.528
N5575 X59.919 Y-17.869
N5580 X60.592 Y-18.447
N5585 X61.111 Y-19.165
N5590 X61.499 Y-19.961
N5595 X61.782 Y-20.801
N5600 X61.985 Y-21.664
N5605 X62.131 Y-22.538
N5610 X62.233 Y-23.418
N5615 X62.306 Y-24.301
N5620 X62.357 Y-25.186
N5625 X62.372 Y-25.556
N5630 X62.398 Y-25.76
N5635 X62.46 Y-25.956
N5640 X62.555 Y-26.138
N5645 X62.608 Y-26.223
N5650 X63.046 Y-27.027
N5655 X63.263 Y-27.429
N5660 X63.402 Y-27.69
N5665 X64.005 Y-28.84
N5670 X64.182 Y-29.24
N5675 X64.269 Y-29.441
N5680 X64.523 Y-30.044
N5685 X64.549 Y-30.11
N5690 X64.558 Y-30.119 Z-9.272
N5695 G2 X65.21 Y-30.532 Z-9.075 I-5.336 J-9.14
N5700 X68.413 Y-34.011 I-5.988 J-8.726
N5705 G1 X68.447 Y-34.084
N5710 X68.469 Y-34.161
N5715 X68.478 Y-34.241
N5720 X68.824 Y-43.579
N5725 X68.82 Y-43.659
N5730 X68.804 Y-43.738
N5735 X68.776 Y-43.812
N5740 G2 X65.839 Y-47.518 I-9.554 J4.554
N5745 G1 X65.821 Y-47.533 Z-9.081
N5750 G2 X65.219 Y-47.979 Z-9.272 I-6.599 J8.275
N5755 G1 X65.211 Y-47.989 Z-9.275
N5760 X64.959 Y-48.749
N5765 X64.809 Y-49.198
N5770 X64.603 Y-49.755
N5775 X64.523 Y-49.956
N5780 X64.269 Y-50.559
N5785 X64.182 Y-50.76
N5790 X64.005 Y-51.16
N5795 X63.582 Y-51.967
N5800 X63.316 Y-52.541
N5805 X63.135 Y-53.034
N5810 X62.947 Y-53.707
N5815 X62.777 Y-54.577
N5820 X62.669 Y-55.456
N5825 X62.6 Y-56.34
N5830 X62.556 Y-57.225
N5835 X62.527 Y-58.11
N5840 X62.483 Y-58.996
N5845 X62.176 Y-59.826
N5850 X61.623 Y-60.519
N5855 X60.918 Y-61.056
N5860 X60.128 Y-61.458
N5865 X59.292 Y-61.752
N5870 X58.432 Y-61.964
N5875 X57.559 Y-62.115
N5880 X56.679 Y-62.222
N5885 X55.796 Y-62.298
N5890 X54.912 Y-62.351
N5895 X54.415 Y-62.372
N5900 X54.21 Y-62.399
N5905 X54.013 Y-62.461
N5910 X53.831 Y-62.557
N5915 X53.723 Y-62.627
N5920 X53.347 Y-62.863
N5925 X53.146 Y-62.986
N5930 X52.671 Y-63.23
N5935 X51.885 Y-63.633
N5940 X51.739 Y-63.704
N5945 X50.532 Y-64.277
N5950 X50.331 Y-64.364
N5955 X49.876 Y-64.552
N5960 X49.866 Y-64.56 Z-9.272
N5965 G2 X49.457 Y-65.215 Z-9.075 I-9.204 J5.306
N5970 X45.98 Y-68.451 I-8.794 J5.961
N5975 G1 X45.907 Y-68.486
N5980 X45.828 Y-68.508
N5985 X45.747 Y-68.518
N5990 X36.219 Y-68.842
N5995 X36.138 Y-68.838
N6000 X36.058 Y-68.821
N6005 X35.982 Y-68.791
N6010 G2 X32.294 Y-65.798 I4.681 J9.537
N6015 G1 X32.279 Y-65.779 Z-9.081
N6020 G2 X31.841 Y-65.173 Z-9.272 I8.383 J6.525
N6025 G1 X31.831 Y-65.165 Z-9.275
N6030 X31.429 Y-65.03
N6035 X31.228 Y-64.959
N6040 X31.027 Y-64.884
N6045 X30.222 Y-64.579
N6050 X30.021 Y-64.501
N6055 X29.619 Y-64.341
N6060 X29.418 Y-64.258
N6065 X28.815 Y-63.985
N6070 X28.212 Y-63.708
N6075 X28.067 Y-63.633
N6080 X28.011 Y-63.6
N6085 X27.627 Y-63.403
N6090 X27.199 Y-63.226
N6095 X26.628 Y-63.041
N6100 X25.822 Y-62.85
N6105 X24.946 Y-62.716
N6110 X24.064 Y-62.63
N6115 X23.18 Y-62.575
N6120 X22.332 Y-62.318
N6125 X21.61 Y-61.803
N6130 X21.044 Y-61.122
N6135 X20.618 Y-60.345
N6140 X20.304 Y-59.516
N6145 X20.077 Y-58.66
N6150 X19.915 Y-57.789
N6155 X19.871 Y-57.457
N6160 X19.82 Y-57.237
N6165 X19.728 Y-57.031
N6170 X19.597 Y-56.846
N6175 X19.553 Y-56.794
N6180 X19.216 Y-56.392
N6185 X18.759 Y-55.789
N6190 X18.358 Y-55.244
N6195 X18.317 Y-55.185
N6200 X17.681 Y-54.18
N6205 X17.411 Y-53.749
N6210 X17.398 Y-53.727
N6215 G3 X16.705 Y-53.585 I-0.417 J-0.276
N6220 G1 X16.632 Y-53.633 Z-9.267
N6225 X16.562 Y-53.679 Z-9.245
N6230 X16.496 Y-53.723 Z-9.208
N6235 X16.437 Y-53.762 Z-9.158
N6240 X16.385 Y-53.796 Z-9.096
N6245 X16.343 Y-53.824 Z-9.025
N6250 X16.313 Y-53.844 Z-8.946
N6255 X16.294 Y-53.856 Z-8.862
N6260 X16.288 Y-53.861 Z-8.775
N6265 G0 Z5.
N6270 X28.797 Y-64.605
N6275 Z-8.275
N6280 G1 Z-8.775 F1000.
N6285 X28.793 Y-64.598 Z-8.862
N6290 X28.782 Y-64.578 Z-8.946
N6295 X28.764 Y-64.546 Z-9.025
N6300 X28.74 Y-64.503 Z-9.096
N6305 X28.71 Y-64.449 Z-9.158
N6310 X28.675 Y-64.387 Z-9.208
N6315 X28.636 Y-64.318 Z-9.245
N6320 X28.595 Y-64.244 Z-9.267
N6325 X28.552 Y-64.169 Z-9.275
N6330 G3 X28.011 Y-63.6 I-1.381 J-0.774
N6335 G1 X25.597 Y-62.207
N6340 X25.396 Y-62.076
N6345 X24.994 Y-61.801
N6350 X24.793 Y-61.66
N6355 X24.391 Y-61.37
N6360 X24.184 Y-61.219
N6365 X23.923 Y-61.018
N6370 X23.587 Y-60.744
N6375 X22.936 Y-60.213
N6380 X22.38 Y-59.734
N6385 X22.179 Y-59.558
N6390 X21.777 Y-59.202
N6395 X21.576 Y-59.021
N6400 X21.371 Y-58.806
N6405 X21.174 Y-58.595
N6410 X20.623 Y-58.001
N6415 X20.369 Y-57.721
N6420 X19.726 Y-56.995
N6425 X19.597 Y-56.846
N6430 G3 X18.89 Y-56.819 I-0.367 J-0.34
N6435 G1 X18.827 Y-56.878 Z-9.267
N6440 X18.765 Y-56.936 Z-9.245
N6445 X18.707 Y-56.989 Z-9.208
N6450 X18.655 Y-57.038 Z-9.158
N6455 X18.61 Y-57.08 Z-9.096
N6460 X18.573 Y-57.114 Z-9.025
N6465 X18.546 Y-57.139 Z-8.946
N6470 X18.529 Y-57.154 Z-8.862
N6475 X18.524 Y-57.159 Z-8.775
N6480 G0 Z5.
N6485 X15.549 Y-28.689
N6490 Z-8.275
N6495 G1 Z-8.775 F1000.
N6500 X15.555 Y-28.685 Z-8.862
N6505 X15.574 Y-28.673 Z-8.946
N6510 X15.604 Y-28.652 Z-9.025
N6515 X15.646 Y-28.625 Z-9.096
N6520 X15.698 Y-28.591 Z-9.158
N6525 X15.757 Y-28.551 Z-9.208
N6530 X15.823 Y-28.508 Z-9.245
N6535 X15.893 Y-28.462 Z-9.267
N6540 X15.966 Y-28.414 Z-9.275
N6545 G3 X16.493 Y-27.832 I-0.872 J1.32
N6550 G1 X16.59 Y-27.631
N6555 X16.7 Y-27.429
N6560 X16.951 Y-27.007
N6565 X17.06 Y-26.826
N6570 X17.428 Y-26.223
N6575 X17.809 Y-25.619
N6580 X18.317 Y-24.815
N6585 X18.397 Y-24.688
N6590 X18.576 Y-24.33
N6595 X18.769 Y-23.856
N6600 X19.035 Y-23.011
N6605 X19.418 Y-22.212
N6610 X19.991 Y-21.536
N6615 X20.698 Y-21.002
N6620 X21.486 Y-20.596
N6625 X22.164 Y-20.351
N6630 X22.294 Y-20.295
N6635 X22.416 Y-20.223
N6640 X22.529 Y-20.137
N6645 G3 X22.556 Y-19.431 Z-9.075 I-0.34 J0.367
N6650 X21.818 Y-19.436 I-0.367 J-0.339
N6655 G1 X17.546 Y-24.181
N6660 G3 X17.618 Y-24.916 I0.372 J-0.335
N6665 X18.317 Y-24.815 Z-9.275 I0.299 J0.4
N6670 G1 X18.358 Y-24.756
N6675 X18.759 Y-24.211
N6680 X19.216 Y-23.608
N6685 X19.565 Y-23.191
N6690 X19.726 Y-23.005
N6695 X20.369 Y-22.279
N6700 X20.623 Y-21.999
N6705 X21.182 Y-21.396
N6710 X21.375 Y-21.191
N6715 X21.576 Y-20.979
N6720 X21.783 Y-20.792
N6725 X22.238 Y-20.39
N6730 X22.469 Y-20.189
N6735 X22.936 Y-19.787
N6740 X23.788 Y-19.091
N6745 X23.923 Y-18.982
N6750 X24.19 Y-18.776
N6755 X24.46 Y-18.58
N6760 X24.793 Y-18.34
N6765 X25.026 Y-18.178
N6770 X25.396 Y-17.924
N6775 X25.597 Y-17.793
N6780 X26.154 Y-17.472
N6785 G3 X26.313 Y-16.783 I-0.265 J0.424
N6790 G1 X26.267 Y-16.709 Z-9.267
N6795 X26.222 Y-16.638 Z-9.245
N6800 X26.181 Y-16.571 Z-9.208
N6805 X26.143 Y-16.51 Z-9.158
N6810 X26.11 Y-16.458 Z-9.096
N6815 X26.084 Y-16.415 Z-9.025
N6820 X26.064 Y-16.384 Z-8.946
N6825 X26.052 Y-16.365 Z-8.862
N6830 X26.048 Y-16.359 Z-8.775
N6835 G0 Z5.
N6840 X51.305 Y-15.534
N6845 Z-8.275
N6850 G1 Z-8.775 F1000.
N6855 X51.309 Y-15.54 Z-8.862
N6860 X51.321 Y-15.559 Z-8.946
N6865 X51.341 Y-15.59 Z-9.025
N6870 X51.368 Y-15.633 Z-9.096
N6875 X51.4 Y-15.685 Z-9.158
N6880 X51.438 Y-15.745 Z-9.208
N6885 X51.48 Y-15.812 Z-9.245
N6890 X51.525 Y-15.884 Z-9.267
N6895 X51.571 Y-15.957 Z-9.275
N6900 G3 X52.141 Y-16.498 I1.34 J0.842
N6905 G1 X53.063 Y-16.971
N6910 X53.146 Y-17.014
N6915 X53.347 Y-17.137
N6920 X53.75 Y-17.39
N6925 X54.353 Y-17.78
N6930 X54.645 Y-17.976
N6935 X54.94 Y-18.178
N6940 X55.302 Y-18.398
N6945 X55.653 Y-18.575
N6950 X56.134 Y-18.771
N6955 X56.979 Y-19.038
N6960 X57.783 Y-19.41
N6965 X58.461 Y-19.981
N6970 X58.997 Y-20.686
N6975 X59.404 Y-21.473
N6980 X59.643 Y-22.133
N6985 X59.697 Y-22.258
N6990 X59.765 Y-22.376
N6995 X59.846 Y-22.485
N7000 G3 X60.552 Y-22.523 Z-9.075 I0.372 J0.335
N7005 X60.548 Y-21.775 I-0.334 J0.372
N7010 G1 X55.566 Y-17.398
N7015 G3 X54.832 Y-17.479 I-0.33 J-0.376
N7020 X54.94 Y-18.178 Z-9.275 I0.404 J-0.295
N7025 G1 X55.234 Y-18.379
N7030 X55.559 Y-18.603
N7035 X55.76 Y-18.744
N7040 X56.087 Y-18.982
N7045 X56.163 Y-19.04
N7050 X56.967 Y-19.682
N7055 X57.094 Y-19.787
N7060 X57.329 Y-19.988
N7065 X57.369 Y-20.025
N7070 X58.377 Y-20.993
N7075 X58.997 Y-21.597
N7080 X59.38 Y-21.971
N7085 X59.6 Y-22.2
N7090 X59.782 Y-22.409
N7095 X60.282 Y-23.005
N7100 X60.445 Y-23.206
N7105 X60.768 Y-23.608
N7110 X61.592 Y-24.706
N7115 X61.67 Y-24.815
N7120 X62.219 Y-25.619
N7125 X62.352 Y-25.82
N7130 X62.555 Y-26.138
N7135 G3 X63.25 Y-26.265 I0.412 J0.284
N7140 G1 X63.322 Y-26.216 Z-9.267
N7145 X63.391 Y-26.168 Z-9.245
N7150 X63.456 Y-26.123 Z-9.208
N7155 X63.515 Y-26.083 Z-9.158
N7160 X63.565 Y-26.048 Z-9.096
N7165 X63.606 Y-26.019 Z-9.025
N7170 X63.637 Y-25.998 Z-8.946
N7175 X63.655 Y-25.986 Z-8.862
N7180 X63.662 Y-25.981 Z-8.775
N7185 G0 Z5.
N7190 X64.554 Y-51.141
N7195 Z-8.275
N7200 G1 Z-8.775 F1000.
N7205 X64.547 Y-51.145 Z-8.862
N7210 X64.528 Y-51.157 Z-8.946
N7215 X64.497 Y-51.176 Z-9.025
N7220 X64.454 Y-51.202 Z-9.096
N7225 X64.402 Y-51.234 Z-9.158
N7230 X64.341 Y-51.272 Z-9.208
N7235 X64.274 Y-51.313 Z-9.245
N7240 X64.202 Y-51.357 Z-9.267
N7245 X64.128 Y-51.403 Z-9.275
N7250 G3 X63.582 Y-51.967 I0.829 J-1.348
N7255 G1 X63.371 Y-52.369
N7260 X63.263 Y-52.571
N7265 X62.827 Y-53.375
N7270 X62.608 Y-53.777
N7275 X62.597 Y-53.795
N7280 X62.352 Y-54.18
N7285 X62.219 Y-54.381
N7290 X61.808 Y-54.984
N7295 X61.604 Y-55.317
N7300 X61.427 Y-55.668
N7305 X61.231 Y-56.148
N7310 X60.963 Y-56.992
N7315 X60.583 Y-57.793
N7320 X60.011 Y-58.469
N7325 X59.303 Y-59.002
N7330 X58.515 Y-59.407
N7335 X57.86 Y-59.643
N7340 X57.711 Y-59.709
N7345 X57.573 Y-59.795
N7350 X57.448 Y-59.899
N7355 G3 X57.458 Y-60.606 Z-9.075 I0.359 J-0.348
N7360 X58.181 Y-60.579 I0.349 J0.358
N7365 G1 X62.585 Y-55.612
N7370 G3 X62.506 Y-54.877 I-0.374 J0.332
N7375 G1 X62.487 Y-54.863 Z-9.081
N7380 G3 X61.808 Y-54.984 Z-9.275 I-0.276 J-0.417
N7385 G1 X61.67 Y-55.185
N7390 X61.592 Y-55.294
N7395 X60.768 Y-56.392
N7400 X60.385 Y-56.868
N7405 X60.282 Y-56.995
N7410 X59.776 Y-57.599
N7415 X59.6 Y-57.8
N7420 X59.38 Y-58.029
N7425 X58.978 Y-58.422
N7430 X58.375 Y-59.009
N7435 X57.369 Y-59.975
N7440 X57.329 Y-60.012
N7445 X57.094 Y-60.213
N7450 X56.967 Y-60.318
N7455 X56.163 Y-60.96
N7460 X56.087 Y-61.018
N7465 X55.76 Y-61.256
N7470 X55.525 Y-61.42
N7475 X55.157 Y-61.674
N7480 X54.645 Y-62.024
N7485 X54.346 Y-62.225
N7490 X53.831 Y-62.557
N7495 G3 X53.654 Y-62.777 I0.286 J-0.41
N7500 G1 X53.641 Y-62.842 Z-9.27
N7505 X53.629 Y-62.906 Z-9.257
N7510 X53.617 Y-62.968 Z-9.235
N7515 X53.631 Y-63.041 Z-9.195
N7520 X53.644 Y-63.106 Z-9.144
N7525 X53.656 Y-63.162 Z-9.082
N7530 X53.677 Y-63.201 Z-9.013
N7535 X53.693 Y-63.23 Z-8.937
N7540 X53.703 Y-63.248 Z-8.857
N7545 X53.706 Y-63.254 Z-8.775
N7550 G0 Z5.
N7555 X38.512 Y-39.179
N7560 Z2.5
N7565 G3 X39.951 Y-41.699 Z2.379 I1.488 J-0.821 F333.33
N7570 X41.531 Y-39.27 Z2.257 I0.049 J1.697
N7575 X38.653 Y-38.975 Z2.136 I-1.529 J-0.731
N7580 X39.705 Y-41.667 Z2.014 I1.348 J-1.025
N7585 X41.616 Y-39.503 Z1.893 I0.295 J1.665
N7590 X38.821 Y-38.794 Z1.772 I-1.614 J-0.498
N7595 X39.467 Y-41.6 Z1.65 I1.179 J-1.206
N7600 X41.665 Y-39.745 Z1.529 I0.533 J1.598
N7605 X39.014 Y-38.64 Z1.407 I-1.663 J-0.256
N7610 X39.242 Y-41.499 Z1.286 I0.987 J-1.36
N7615 X41.678 Y-39.99 Z1.165 I0.757 J1.498
N7620 X39.226 Y-38.516 Z1.043 I-1.676 J-0.011
N7625 X39.036 Y-41.367 Z0.922 I0.775 J-1.484
N7630 X41.655 Y-40.234 Z0.801 I0.964 J1.366
N7635 X39.453 Y-38.425 Z0.679 I-1.653 J0.232
N7640 X38.851 Y-41.208 Z0.558 I0.548 J-1.575
N7645 X41.597 Y-40.471 Z0.436 I1.148 J1.206
N7650 X39.689 Y-38.368 Z0.315 I-1.596 J0.469
N7655 X38.693 Y-41.023 Z0.194 I0.312 J-1.632
N7660 X41.506 Y-40.696 Z0.072 I1.307 J1.022
N7665 X39.931 Y-38.347 Z-0.049 I-1.504 J0.694
N7670 X38.563 Y-40.818 Z-0.171 I0.07 J-1.653
N7675 X41.383 Y-40.905 Z-0.292 I1.437 J0.817
N7680 X40.173 Y-38.36 Z-0.413 I-1.382 J0.903
N7685 X38.465 Y-40.598 Z-0.535 I-0.171 J-1.64
N7690 X41.232 Y-41.093 Z-0.656 I1.534 J0.597
N7695 X40.408 Y-38.409 Z-0.778 I-1.231 J1.09
N7700 X38.401 Y-40.366 Z-0.899 I-0.407 J-1.591
N7705 X41.055 Y-41.256 Z-1.02 I1.599 J0.365
N7710 X40.634 Y-38.491 Z-1.142 I-1.054 J1.253
N7715 X38.371 Y-40.128 Z-1.263 I-0.632 J-1.509
N7720 X40.858 Y-41.391 Z-1.385 I1.629 J0.128
N7725 X40.844 Y-38.605 Z-1.506 I-0.857 J1.388
N7730 X38.376 Y-39.889 Z-1.627 I-0.842 J-1.395
N7735 X40.643 Y-41.495 Z-1.749 I1.624 J-0.111
N7740 X41.034 Y-38.748 Z-1.87 I-0.643 J1.493
N7745 X38.416 Y-39.655 Z-1.991 I-1.032 J-1.252
N7750 X40.417 Y-41.567 Z-2.113 I1.584 J-0.345
N7755 X41.201 Y-38.917 Z-2.234 I-0.417 J1.564
N7760 X38.489 Y-39.43 Z-2.356 I-1.199 J-1.084
N7765 X40.184 Y-41.604 Z-2.477 I1.511 J-0.57
N7770 X41.341 Y-39.107 Z-2.598 I-0.183 J1.602
N7775 X38.594 Y-39.219 Z-2.72 I-1.339 J-0.894
N7780 X39.948 Y-41.607 Z-2.841 I1.406 J-0.781
N7785 X41.452 Y-39.314 Z-2.963 I0.052 J1.605
N7790 X38.729 Y-39.026 Z-3.084 I-1.45 J-0.687
N7795 X39.715 Y-41.576 Z-3.205 I1.272 J-0.974
N7800 X41.53 Y-39.535 Z-3.327 I0.284 J1.574
N7805 X38.889 Y-38.855 Z-3.448 I-1.528 J-0.466
N7810 X39.491 Y-41.512 Z-3.57 I1.112 J-1.144
N7815 X41.575 Y-39.764 Z-3.691 I0.509 J1.51
N7820 X39.071 Y-38.711 Z-3.812 I-1.574 J-0.237
N7825 X39.279 Y-41.416 Z-3.934 I0.929 J-1.289
N7830 X41.587 Y-39.996 Z-4.055 I0.721 J1.414
N7835 X39.273 Y-38.594 Z-4.177 I-1.585 J-0.005
N7840 X39.084 Y-41.29 Z-4.298 I0.728 J-1.405
N7845 X41.564 Y-40.227 Z-4.419 I0.916 J1.289
N7850 X39.487 Y-38.509 Z-4.541 I-1.562 J0.225
N7855 X38.91 Y-41.138 Z-4.662 I0.514 J-1.49
N7860 X41.508 Y-40.451 Z-4.784 I1.089 J1.137
N7865 X39.712 Y-38.457 Z-4.905 I-1.507 J0.449
N7870 X38.761 Y-40.963 Z-5.026 I0.29 J-1.543
N7875 X41.421 Y-40.663 Z-5.148 I1.238 J0.962
N7880 X39.94 Y-38.437 Z-5.269 I-1.42 J0.661
N7885 X38.64 Y-40.769 Z-5.39 I0.061 J-1.563
N7890 X41.304 Y-40.86 Z-5.512 I1.36 J0.768
N7895 X40.168 Y-38.452 Z-5.633 I-1.303 J0.857
N7900 X38.548 Y-40.56 Z-5.755 I-0.167 J-1.548
N7905 X41.16 Y-41.036 Z-5.876 I1.451 J0.559
N7910 X40.391 Y-38.499 Z-5.997 I-1.159 J1.034
N7915 X38.488 Y-40.34 Z-6.119 I-0.389 J-1.501
N7920 X40.993 Y-41.189 Z-6.24 I1.511 J0.34
N7925 X40.603 Y-38.578 Z-6.362 I-0.992 J1.187
N7930 X38.461 Y-40.116 Z-6.483 I-0.601 J-1.423
N7935 X40.805 Y-41.316 Z-6.604 I1.538 J0.115
N7940 X40.801 Y-38.686 Z-6.726 I-0.805 J1.314
N7945 X38.467 Y-39.891 Z-6.847 I-0.799 J-1.314
N7950 X40.603 Y-41.413 Z-6.969 I1.532 J-0.11
N7955 X40.98 Y-38.822 Z-7.09 I-0.602 J1.411
N7960 X38.506 Y-39.669 Z-7.211 I-0.978 J-1.179
N7965 X40.389 Y-41.48 Z-7.333 I1.494 J-0.331
N7970 X41.137 Y-38.981 Z-7.454 I-0.388 J1.478
N7975 X38.576 Y-39.457 Z-7.576 I-1.135 J-1.019
N7980 X40.168 Y-41.514 Z-7.697 I1.424 J-0.543
N7985 X41.268 Y-39.162 Z-7.818 I-0.168 J1.512
N7990 X38.676 Y-39.259 Z-7.94 I-1.266 J-0.839
N7995 X39.946 Y-41.516 Z-8.061 I1.324 J-0.741
N8000 X41.371 Y-39.358 Z-8.182 I0.054 J1.514
N8005 X38.804 Y-39.077 Z-8.304 I-1.369 J-0.643
N8010 X39.727 Y-41.486 Z-8.425 I1.196 J-0.923
N8015 X41.444 Y-39.567 Z-8.547 I0.273 J1.484
N8020 X38.956 Y-38.917 Z-8.668 I-1.442 J-0.435
N8025 X39.515 Y-41.424 Z-8.789 I1.045 J-1.083
N8030 X41.486 Y-39.783 Z-8.911 I0.485 J1.422
N8035 X39.129 Y-38.782 Z-9.032 I-1.484 J-0.219
N8040 X39.316 Y-41.332 Z-9.154 I0.872 J-1.218
N8045 X41.496 Y-40.002 Z-9.275 I0.684 J1.33
N8050 X38.504 I-1.496 J0.
N8055 X41.496 I1.496 J0.
N8060 G1 X41.519 Y-39.116 F1000.
N8065 Y-39.11
N8070 X41.514 Y-38.908
N8075 X41.45 Y-38.717
N8080 X41.332 Y-38.553
N8085 X41.282 Y-38.514
N8090 X40.965 Y-38.29
N8095 X40.88 Y-38.241
N8100 X40.679 Y-38.168
N8105 X40.478 Y-38.097
N8110 X40.455 Y-38.089
N8115 X40.366 Y-38.068
N8120 X40.277 Y-38.061
N8125 X40.076 Y-38.047
N8130 X39.875 Y-38.038
N8135 X39.674 Y-38.073
N8140 X39.472 Y-38.114
N8145 X39.372 Y-38.137
N8150 X39.322 Y-38.154
N8155 X39.271 Y-38.177
N8160 X39.053 Y-38.29
N8165 X38.869 Y-38.391
N8170 X38.753 Y-38.492
N8175 X38.538 Y-38.693
N8180 X38.467 Y-38.77
N8185 X38.386 Y-38.894
N8190 X38.264 Y-39.095
N8195 X38.206 Y-39.195
N8200 X38.184 Y-39.246
N8205 X38.169 Y-39.296
N8210 X38.065 Y-39.667
N8215 X38.057 Y-39.698
N8220 X38.049 Y-39.749
N8225 X38.047 Y-39.799
N8230 Y-40.201
N8235 X38.049 Y-40.251
N8240 X38.057 Y-40.302
N8245 X38.065 Y-40.333
N8250 X38.169 Y-40.704
N8255 X38.184 Y-40.754
N8260 X38.206 Y-40.805
N8265 X38.266 Y-40.908
N8270 X38.386 Y-41.106
N8275 X38.467 Y-41.23
N8280 X38.538 Y-41.307
N8285 X38.753 Y-41.508
N8290 X38.869 Y-41.609
N8295 X39.07 Y-41.718
N8300 X39.271 Y-41.823
N8305 X39.322 Y-41.846
N8310 X39.372 Y-41.863
N8315 X39.472 Y-41.886
N8320 X39.674 Y-41.927
N8325 X39.875 Y-41.962
N8330 X40.076 Y-41.953
N8335 X40.277 Y-41.939
N8340 X40.366 Y-41.932
N8345 X40.455 Y-41.911
N8350 X40.478 Y-41.903
N8355 X40.679 Y-41.832
N8360 X40.88 Y-41.759
N8365 X40.965 Y-41.71
N8370 X41.282 Y-41.486
N8375 X41.332 Y-41.447
N8380 X41.381 Y-41.397
N8385 X41.483 Y-41.272
N8390 X41.618 Y-41.106
N8395 X41.684 Y-41.016
N8400 X41.737 Y-40.905
N8405 X41.824 Y-40.704
N8410 X41.885 Y-40.557
N8415 X41.901 Y-40.503
N8420 X41.93 Y-40.302
N8425 X41.958 Y-40.101
N8430 X41.967 Y-40.
N8435 X41.958 Y-39.899
N8440 X41.93 Y-39.698
N8445 X41.901 Y-39.497
N8450 X41.885 Y-39.443
N8455 X41.824 Y-39.296
N8460 X41.737 Y-39.095
N8465 X41.684 Y-38.984
N8470 X41.618 Y-38.894
N8475 X41.455 Y-38.693
N8480 X41.381 Y-38.603
N8485 X41.332 Y-38.553
N8490 G3 X41.067 Y-38.457 I-0.296 J-0.403
N8495 G1 X41.035 Y-38.456 Z-9.274
N8500 X40.968 Y-38.469 Z-9.265
N8505 X40.903 Y-38.482 Z-9.246
N8510 X40.842 Y-38.495 Z-9.219
N8515 X40.793 Y-38.528 Z-9.182
N8520 X40.749 Y-38.558 Z-9.138
N8525 X40.71 Y-38.584 Z-9.088
N8530 X40.678 Y-38.606 Z-9.031
N8535 X40.653 Y-38.635 Z-8.95
N8540 X40.638 Y-38.653 Z-8.864
N8545 X40.632 Y-38.66 Z-8.775
N8550 G0 Z5.
N8555 X18.864 Y-60.867
N8560 Z-7.3
N8565 G1 Z-7.8 F1000.
N8570 X18.87 Y-60.863 Z-7.887
N8575 X18.89 Y-60.852 Z-7.971
N8580 X18.921 Y-60.833 Z-8.05
N8585 X18.964 Y-60.807 Z-8.121
N8590 X19.017 Y-60.775 Z-8.183
N8595 X19.078 Y-60.738 Z-8.233
N8600 X19.146 Y-60.698 Z-8.27
N8605 X19.218 Y-60.654 Z-8.292
N8610 X19.292 Y-60.61 Z-8.3
N8615 G3 X21.482 Y-58.947 I-6.579 J10.939
N8620 G1 X21.588 Y-58.84
N8625 X21.63 Y-58.696
N8630 X21.654 Y-58.548
N8635 X21.664 Y-58.385
N8640 X21.66 Y-58.185
N8645 X21.637 Y-57.945
N8650 X21.633 Y-57.922
N8655 X21.574 Y-57.713
N8660 X21.478 Y-57.518
N8665 X21.347 Y-57.344
N8670 X21.174 Y-57.154
N8675 X21.03 Y-56.995
N8680 X20.318 Y-56.191
N8685 X19.967 Y-55.768
N8690 X19.828 Y-55.587
N8695 X19.523 Y-55.185
N8700 X19.364 Y-54.965
N8705 X19.099 Y-54.582
N8710 X18.962 Y-54.378
N8715 X18.328 Y-53.375
N8720 X18.157 Y-53.101
N8725 X17.71 Y-52.369
N8730 X17.597 Y-52.168
N8735 X17.487 Y-51.967
N8740 X17.379 Y-51.766
N8745 X17.089 Y-51.163
N8750 X16.994 Y-50.962
N8755 X16.812 Y-50.559
N8760 X16.724 Y-50.358
N8765 X16.296 Y-49.352
N8770 X16.211 Y-49.151
N8775 X15.945 Y-48.433
N8780 X15.744 Y-47.88
N8785 X15.703 Y-47.743
N8790 X15.594 Y-47.341
N8795 X15.541 Y-47.14
N8800 X15.388 Y-46.537
N8805 X15.089 Y-45.33
N8810 X15.041 Y-45.129
N8815 X14.94 Y-44.699
N8820 X14.904 Y-44.525
N8825 X14.752 Y-43.52
N8830 X14.721 Y-43.319
N8835 X14.701 Y-43.117
N8840 X14.666 Y-42.715
N8845 X14.617 Y-42.112
N8850 X14.57 Y-41.508
N8855 X14.555 Y-41.307
N8860 X14.524 Y-40.704
N8865 X14.498 Y-40.101
N8870 Y-39.899
N8875 X14.524 Y-39.296
N8880 X14.555 Y-38.693
N8885 X14.601 Y-38.089
N8890 X14.649 Y-37.486
N8895 X14.684 Y-37.084
N8900 X14.701 Y-36.883
N8905 X14.721 Y-36.681
N8910 X14.873 Y-35.676
N8915 X14.904 Y-35.475
N8920 X14.94 Y-35.301
N8925 X15.041 Y-34.871
N8930 X15.089 Y-34.67
N8935 X15.388 Y-33.463
N8940 X15.543 Y-32.853
N8945 X15.594 Y-32.659
N8950 X15.703 Y-32.257
N8955 X15.744 Y-32.12
N8960 X15.988 Y-31.452
N8965 X16.211 Y-30.849
N8970 X16.347 Y-30.526
N8975 X16.75 Y-29.582
N8980 X16.812 Y-29.441
N8985 X16.994 Y-29.038
N8990 X17.089 Y-28.837
N8995 X17.379 Y-28.234
N9000 X17.487 Y-28.033
N9005 X17.597 Y-27.832
N9010 X17.71 Y-27.631
N9015 X18.157 Y-26.899
N9020 X18.358 Y-26.576
N9025 X18.963 Y-25.619
N9030 X19.099 Y-25.418
N9035 X19.377 Y-25.016
N9040 X19.523 Y-24.815
N9045 X19.828 Y-24.413
N9050 X19.967 Y-24.232
N9055 X20.318 Y-23.809
N9060 X21.03 Y-23.005
N9065 X21.212 Y-22.803
N9070 X21.579 Y-22.401
N9075 X21.978 Y-21.97
N9080 X22.179 Y-21.759
N9085 X22.344 Y-21.597
N9090 X23.026 Y-20.993
N9095 X23.587 Y-20.517
N9100 X24.592 Y-19.696
N9105 X24.793 Y-19.542
N9110 X25.008 Y-19.384
N9115 X25.396 Y-19.105
N9120 X25.569 Y-18.982
N9125 X26.201 Y-18.57
N9130 X28.011 Y-17.526
N9135 X28.212 Y-17.41
N9140 X28.815 Y-17.084
N9145 X29.062 Y-16.971
N9150 X29.509 Y-16.77
N9155 X30.021 Y-16.548
N9160 X30.222 Y-16.465
N9165 X31.429 Y-16.008
N9170 X31.63 Y-15.936
N9175 X32.123 Y-15.764
N9180 X32.722 Y-15.563
N9185 X32.837 Y-15.529
N9190 X33.239 Y-15.421
N9195 X33.44 Y-15.368
N9200 X34.043 Y-15.23
N9205 X34.646 Y-15.099
N9210 X35.25 Y-14.976
N9215 X36.054 Y-14.812
N9220 X36.657 Y-14.728
N9225 X37.26 Y-14.652
N9230 X37.462 Y-14.633
N9235 X37.864 Y-14.604
N9240 X38.065 Y-14.591
N9245 X39.271 Y-14.543
N9250 X39.875 Y-14.526
N9255 X40.478 Y-14.51
N9260 X40.679 Y-14.509
N9265 X41.282 Y-14.539
N9270 X41.885 Y-14.584
N9275 X42.087 Y-14.603
N9280 X42.489 Y-14.644
N9285 X42.69 Y-14.666
N9290 X43.896 Y-14.813
N9295 X44.298 Y-14.879
N9300 X44.5 Y-14.913
N9305 X45.103 Y-15.018
N9310 X45.304 Y-15.055
N9315 X45.505 Y-15.099
N9320 X45.907 Y-15.209
N9325 X46.51 Y-15.379
N9330 X47.315 Y-15.61
N9335 X47.918 Y-15.785
N9340 X48.32 Y-15.903
N9345 X48.524 Y-15.965
N9350 X49.125 Y-16.197
N9355 X49.728 Y-16.434
N9360 X49.929 Y-16.522
N9365 X50.532 Y-16.804
N9370 X51.135 Y-17.091
N9375 X51.739 Y-17.387
N9380 X52.141 Y-17.592
N9385 X52.342 Y-17.695
N9390 X52.491 Y-17.775
N9395 X52.945 Y-18.039
N9400 X53.146 Y-18.16
N9405 X53.75 Y-18.55
N9410 X54.388 Y-18.982
N9415 X55.358 Y-19.652
N9420 X55.559 Y-19.806
N9425 X55.79 Y-19.988
N9430 X56.364 Y-20.445
N9435 X56.969 Y-20.993
N9440 X57.806 Y-21.798
N9445 X58.014 Y-21.999
N9450 X58.632 Y-22.602
N9455 X58.777 Y-22.751
N9460 X58.978 Y-22.964
N9465 X59.581 Y-23.683
N9470 X59.683 Y-23.809
N9475 X59.998 Y-24.211
N9480 X60.184 Y-24.457
N9485 X60.453 Y-24.815
N9490 X60.603 Y-25.016
N9495 X60.899 Y-25.418
N9500 X60.989 Y-25.543
N9505 X61.592 Y-26.428
N9510 X61.709 Y-26.625
N9515 X61.826 Y-26.826
N9520 X61.937 Y-27.027
N9525 X62.265 Y-27.631
N9530 X62.597 Y-28.257
N9535 X62.902 Y-28.837
N9540 X63.106 Y-29.24
N9545 X63.207 Y-29.441
N9550 X63.298 Y-29.642
N9555 X63.552 Y-30.245
N9560 X63.635 Y-30.446
N9565 X63.716 Y-30.648
N9570 X63.795 Y-30.849
N9575 X64.206 Y-32.078
N9580 X64.329 Y-32.458
N9585 X64.457 Y-32.86
N9590 X64.608 Y-33.351
N9595 X64.642 Y-33.463
N9600 X64.797 Y-34.067
N9605 X64.809 Y-34.119
N9610 X64.921 Y-34.67
N9615 X64.96 Y-34.871
N9620 X65.035 Y-35.273
N9625 X65.071 Y-35.475
N9630 X65.267 Y-36.681
N9635 X65.294 Y-36.883
N9640 X65.343 Y-37.285
N9645 X65.366 Y-37.486
N9650 X65.413 Y-37.954
N9655 X65.424 Y-38.089
N9660 X65.447 Y-38.492
N9665 X65.458 Y-38.693
N9670 Y-41.307
N9675 X65.436 Y-41.71
N9680 X65.424 Y-41.911
N9685 X65.413 Y-42.046
N9690 X65.366 Y-42.514
N9695 X65.343 Y-42.715
N9700 X65.294 Y-43.117
N9705 X65.267 Y-43.319
N9710 X65.071 Y-44.525
N9715 X65.035 Y-44.727
N9720 X64.96 Y-45.129
N9725 X64.921 Y-45.33
N9730 X64.809 Y-45.881
N9735 X64.797 Y-45.933
N9740 X64.642 Y-46.537
N9745 X64.519 Y-46.939
N9750 X64.457 Y-47.14
N9755 X64.329 Y-47.542
N9760 X64.206 Y-47.922
N9765 X63.795 Y-49.151
N9770 X63.716 Y-49.352
N9775 X63.603 Y-49.632
N9780 X63.552 Y-49.755
N9785 X63.298 Y-50.358
N9790 X63.207 Y-50.559
N9795 X63. Y-50.971
N9800 X62.902 Y-51.163
N9805 X62.585 Y-51.766
N9810 X62.265 Y-52.369
N9815 X61.937 Y-52.973
N9820 X61.826 Y-53.174
N9825 X61.709 Y-53.375
N9830 X61.589 Y-53.576
N9835 X60.989 Y-54.457
N9840 X60.899 Y-54.582
N9845 X60.586 Y-55.006
N9850 X60.302 Y-55.386
N9855 X60.151 Y-55.587
N9860 X59.983 Y-55.807
N9865 X59.683 Y-56.191
N9870 X59.581 Y-56.317
N9875 X58.978 Y-57.036
N9880 X58.777 Y-57.249
N9885 X58.632 Y-57.398
N9890 X57.972 Y-58.041
N9895 X57.369 Y-58.622
N9900 X56.967 Y-59.009
N9905 X56.364 Y-59.555
N9910 X55.76 Y-60.036
N9915 X55.535 Y-60.213
N9920 X55.358 Y-60.348
N9925 X54.388 Y-61.018
N9930 X53.75 Y-61.45
N9935 X53.146 Y-61.84
N9940 X52.945 Y-61.961
N9945 X52.491 Y-62.225
N9950 X52.342 Y-62.305
N9955 X51.94 Y-62.511
N9960 X51.71 Y-62.627
N9965 X51.135 Y-62.909
N9970 X50.459 Y-63.23
N9975 X49.929 Y-63.478
N9980 X49.728 Y-63.566
N9985 X49.045 Y-63.834
N9990 X48.521 Y-64.036
N9995 X48.32 Y-64.097
N10000 X47.717 Y-64.274
N10005 X46.913 Y-64.506
N10010 X46.45 Y-64.638
N10015 X45.907 Y-64.791
N10020 X45.505 Y-64.901
N10025 X45.304 Y-64.945
N10030 X45.103 Y-64.982
N10035 X44.5 Y-65.087
N10040 X44.097 Y-65.154
N10045 X43.896 Y-65.187
N10050 X42.69 Y-65.334
N10055 X42.489 Y-65.356
N10060 X42.087 Y-65.397
N10065 X41.885 Y-65.416
N10070 X41.282 Y-65.461
N10075 X40.679 Y-65.491
N10080 X40.478 Y-65.49
N10085 X39.472 Y-65.463
N10090 X39.271 Y-65.457
N10095 X38.065 Y-65.409
N10100 X37.864 Y-65.396
N10105 X37.462 Y-65.367
N10110 X37.26 Y-65.348
N10115 X36.657 Y-65.272
N10120 X36.054 Y-65.188
N10125 X34.847 Y-64.942
N10130 X34.646 Y-64.901
N10135 X34.043 Y-64.77
N10140 X33.44 Y-64.632
N10145 X33.239 Y-64.579
N10150 X32.837 Y-64.471
N10155 X32.722 Y-64.437
N10160 X32.123 Y-64.236
N10165 X31.548 Y-64.035
N10170 X31.429 Y-63.992
N10175 X30.222 Y-63.535
N10180 X30.021 Y-63.452
N10185 X29.509 Y-63.23
N10190 X29.016 Y-63.008
N10195 X28.815 Y-62.916
N10200 X28.212 Y-62.59
N10205 X27.608 Y-62.242
N10210 X26.201 Y-61.43
N10215 X25.569 Y-61.018
N10220 X25.195 Y-60.75
N10225 X24.994 Y-60.606
N10230 X24.793 Y-60.458
N10235 X24.592 Y-60.304
N10240 X23.587 Y-59.483
N10245 X23.026 Y-59.007
N10250 X22.344 Y-58.403
N10255 X22.179 Y-58.241
N10260 X21.951 Y-58.001
N10265 X21.576 Y-57.596
N10270 X21.347 Y-57.344
N10275 G3 X21.102 Y-57.207 I-0.358 J-0.349
N10280 G1 X21.045 Y-57.2 Z-8.297
N10285 X20.989 Y-57.194 Z-8.287
N10290 X20.92 Y-57.208 Z-8.265
N10295 X20.855 Y-57.221 Z-8.232
N10300 X20.796 Y-57.233 Z-8.191
N10305 X20.742 Y-57.268 Z-8.129
N10310 X20.698 Y-57.297 Z-8.056
N10315 X20.666 Y-57.319 Z-7.976
N10320 X20.647 Y-57.332 Z-7.89
N10325 X20.64 Y-57.336 Z-7.801
N10330 G0 Z5.
N10335 X19.571 Y-60.192
N10340 Z-6.325
N10345 G1 Z-6.825 F1000.
N10350 X19.578 Y-60.188 Z-6.912
N10355 X19.597 Y-60.176 Z-6.996
N10360 X19.629 Y-60.158 Z-7.075
N10365 X19.672 Y-60.132 Z-7.146
N10370 X19.725 Y-60.101 Z-7.208
N10375 X19.787 Y-60.065 Z-7.258
N10380 X19.855 Y-60.025 Z-7.295
N10385 X19.928 Y-59.982 Z-7.317
N10390 X20.002 Y-59.938 Z-7.325
N10395 G3 X22.209 Y-58.298 I-6.468 J11.005
N10400 G1 X22.316 Y-58.192
N10405 X22.359 Y-58.048
N10410 X22.382 Y-57.9
N10415 X22.392 Y-57.739
N10420 X22.389 Y-57.54
N10425 X22.366 Y-57.3
N10430 X22.362 Y-57.277
N10435 X22.304 Y-57.068
N10440 X22.209 Y-56.874
N10445 X22.079 Y-56.701
N10450 X21.777 Y-56.366
N10455 X20.972 Y-55.458
N10460 X20.75 Y-55.185
N10465 X20.591 Y-54.984
N10470 X20.168 Y-54.425
N10475 X19.967 Y-54.124
N10480 X19.737 Y-53.777
N10485 X19.101 Y-52.772
N10490 X18.962 Y-52.549
N10495 X18.483 Y-51.766
N10500 X18.358 Y-51.55
N10505 X18.157 Y-51.138
N10510 X17.879 Y-50.559
N10515 X17.788 Y-50.358
N10520 X17.7 Y-50.157
N10525 X17.272 Y-49.151
N10530 X17.104 Y-48.749
N10535 X17.023 Y-48.548
N10540 X16.803 Y-47.945
N10545 X16.75 Y-47.788
N10550 X16.606 Y-47.341
N10555 X16.547 Y-47.14
N10560 X16.393 Y-46.537
N10565 X16.193 Y-45.732
N10570 X15.945 Y-44.727
N10575 X15.9 Y-44.525
N10580 X15.796 Y-43.922
N10585 X15.705 Y-43.319
N10590 X15.684 Y-43.117
N10595 X15.646 Y-42.715
N10600 X15.629 Y-42.514
N10605 X15.531 Y-41.307
N10610 X15.5 Y-40.704
N10615 X15.473 Y-40.101
N10620 Y-39.899
N10625 X15.5 Y-39.296
N10630 X15.531 Y-38.693
N10635 X15.629 Y-37.486
N10640 X15.646 Y-37.285
N10645 X15.684 Y-36.883
N10650 X15.705 Y-36.681
N10655 X15.796 Y-36.078
N10660 X15.9 Y-35.475
N10665 X15.945 Y-35.273
N10670 X16.243 Y-34.067
N10675 X16.393 Y-33.463
N10680 X16.549 Y-32.854
N10685 X16.606 Y-32.659
N10690 X16.75 Y-32.212
N10695 X16.803 Y-32.055
N10700 X17.023 Y-31.452
N10705 X17.104 Y-31.251
N10710 X17.272 Y-30.849
N10715 X17.7 Y-29.843
N10720 X17.788 Y-29.642
N10725 X17.879 Y-29.441
N10730 X18.169 Y-28.837
N10735 X18.358 Y-28.45
N10740 X18.483 Y-28.234
N10745 X18.975 Y-27.429
N10750 X19.163 Y-27.13
N10755 X19.737 Y-26.223
N10760 X20.138 Y-25.619
N10765 X20.168 Y-25.575
N10770 X20.591 Y-25.016
N10775 X20.771 Y-24.789
N10780 X20.972 Y-24.542
N10785 X21.8 Y-23.608
N10790 X22.179 Y-23.189
N10795 X22.38 Y-22.969
N10800 X22.913 Y-22.401
N10805 X22.983 Y-22.33
N10810 X23.587 Y-21.797
N10815 X23.788 Y-21.621
N10820 X24.19 Y-21.286
N10825 X24.391 Y-21.121
N10830 X25.288 Y-20.39
N10835 X25.396 Y-20.306
N10840 X25.597 Y-20.159
N10845 X26.201 Y-19.726
N10850 X26.421 Y-19.585
N10855 X26.804 Y-19.35
N10860 X27.005 Y-19.232
N10865 X28.831 Y-18.178
N10870 X29.016 Y-18.083
N10875 X29.418 Y-17.882
N10880 X29.645 Y-17.775
N10885 X30.091 Y-17.574
N10890 X30.222 Y-17.519
N10895 X30.826 Y-17.281
N10900 X31.646 Y-16.971
N10905 X32.032 Y-16.825
N10910 X32.187 Y-16.77
N10915 X32.837 Y-16.552
N10920 X33.239 Y-16.419
N10925 X33.44 Y-16.367
N10930 X34.043 Y-16.229
N10935 X34.646 Y-16.096
N10940 X34.847 Y-16.054
N10945 X36.255 Y-15.767
N10950 X36.272 Y-15.764
N10955 X36.456 Y-15.737
N10960 X36.657 Y-15.709
N10965 X37.26 Y-15.633
N10970 X37.462 Y-15.613
N10975 X37.864 Y-15.581
N10980 X38.065 Y-15.568
N10985 X39.271 Y-15.519
N10990 X39.875 Y-15.501
N10995 X40.478 Y-15.485
N11000 X40.679 Y-15.483
N11005 X41.282 Y-15.515
N11010 X41.92 Y-15.563
N11015 X42.489 Y-15.627
N11020 X42.891 Y-15.675
N11025 X43.896 Y-15.797
N11030 X44.298 Y-15.866
N11035 X44.5 Y-15.901
N11040 X45.103 Y-16.01
N11045 X45.304 Y-16.055
N11050 X45.907 Y-16.222
N11055 X46.51 Y-16.392
N11060 X47.813 Y-16.77
N11065 X47.918 Y-16.803
N11070 X48.422 Y-16.971
N11075 X48.521 Y-17.006
N11080 X49.125 Y-17.242
N11085 X49.728 Y-17.506
N11090 X49.876 Y-17.574
N11095 X51.135 Y-18.172
N11100 X51.739 Y-18.48
N11105 X51.94 Y-18.589
N11110 X52.342 Y-18.807
N11115 X52.543 Y-18.929
N11120 X52.945 Y-19.189
N11125 X53.146 Y-19.321
N11130 X53.548 Y-19.591
N11135 X53.75 Y-19.728
N11140 X54.554 Y-20.283
N11145 X54.706 Y-20.39
N11150 X54.981 Y-20.591
N11155 X55.157 Y-20.728
N11160 X55.559 Y-21.048
N11165 X55.737 Y-21.194
N11170 X56.185 Y-21.597
N11175 X56.398 Y-21.798
N11180 X57.026 Y-22.401
N11185 X57.649 Y-23.005
N11190 X58.245 Y-23.608
N11195 X58.416 Y-23.809
N11200 X58.922 Y-24.413
N11205 X58.978 Y-24.481
N11210 X59.382 Y-25.016
N11215 X59.782 Y-25.548
N11220 X59.835 Y-25.619
N11225 X60.273 Y-26.223
N11230 X60.685 Y-26.826
N11235 X60.788 Y-26.984
N11240 X60.937 Y-27.228
N11245 X61.483 Y-28.234
N11250 X62.222 Y-29.642
N11255 X62.317 Y-29.843
N11260 X62.408 Y-30.044
N11265 X62.496 Y-30.245
N11270 X62.666 Y-30.648
N11275 X62.749 Y-30.849
N11280 X62.901 Y-31.251
N11285 X63.402 Y-32.752
N11290 X63.436 Y-32.86
N11295 X63.623 Y-33.463
N11300 X63.804 Y-34.077
N11305 X63.845 Y-34.268
N11310 X63.927 Y-34.67
N11315 X64.006 Y-35.072
N11320 X64.045 Y-35.273
N11325 X64.082 Y-35.475
N11330 X64.278 Y-36.681
N11335 X64.307 Y-36.883
N11340 X64.364 Y-37.285
N11345 X64.388 Y-37.486
N11350 X64.428 Y-37.888
N11355 X64.446 Y-38.089
N11360 X64.471 Y-38.492
N11365 X64.483 Y-38.693
N11370 Y-41.307
N11375 X64.459 Y-41.71
N11380 X64.446 Y-41.911
N11385 X64.428 Y-42.112
N11390 X64.388 Y-42.514
N11395 X64.364 Y-42.715
N11400 X64.307 Y-43.117
N11405 X64.278 Y-43.319
N11410 X64.082 Y-44.525
N11415 X64.045 Y-44.727
N11420 X63.967 Y-45.129
N11425 X63.927 Y-45.33
N11430 X63.845 Y-45.732
N11435 X63.804 Y-45.923
N11440 X63.623 Y-46.537
N11445 X63.436 Y-47.14
N11450 X63.402 Y-47.248
N11455 X62.901 Y-48.749
N11460 X62.749 Y-49.151
N11465 X62.581 Y-49.554
N11470 X62.496 Y-49.755
N11475 X62.396 Y-49.981
N11480 X62.317 Y-50.157
N11485 X62.222 Y-50.358
N11490 X61.483 Y-51.766
N11495 X60.937 Y-52.772
N11500 X60.788 Y-53.016
N11505 X60.685 Y-53.174
N11510 X60.273 Y-53.777
N11515 X59.835 Y-54.381
N11520 X59.533 Y-54.783
N11525 X59.078 Y-55.386
N11530 X58.978 Y-55.519
N11535 X58.922 Y-55.587
N11540 X58.375 Y-56.24
N11545 X58.245 Y-56.392
N11550 X57.649 Y-56.995
N11555 X56.967 Y-57.656
N11560 X56.364 Y-58.235
N11565 X56.185 Y-58.403
N11570 X55.737 Y-58.806
N11575 X55.559 Y-58.952
N11580 X55.157 Y-59.272
N11585 X54.981 Y-59.409
N11590 X54.706 Y-59.61
N11595 X54.554 Y-59.717
N11600 X53.75 Y-60.272
N11605 X53.347 Y-60.544
N11610 X53.146 Y-60.679
N11615 X52.936 Y-60.817
N11620 X52.543 Y-61.071
N11625 X52.342 Y-61.193
N11630 X51.924 Y-61.42
N11635 X51.739 Y-61.52
N11640 X51.135 Y-61.828
N11645 X49.876 Y-62.426
N11650 X49.728 Y-62.494
N11655 X49.125 Y-62.758
N11660 X48.521 Y-62.994
N11665 X48.422 Y-63.029
N11670 X47.918 Y-63.197
N11675 X47.813 Y-63.23
N11680 X46.51 Y-63.608
N11685 X45.907 Y-63.778
N11690 X45.304 Y-63.945
N11695 X45.103 Y-63.99
N11700 X44.5 Y-64.099
N11705 X44.097 Y-64.169
N11710 X43.896 Y-64.203
N11715 X42.69 Y-64.35
N11720 X42.288 Y-64.396
N11725 X41.92 Y-64.437
N11730 X41.282 Y-64.485
N11735 X40.679 Y-64.517
N11740 X40.478 Y-64.515
N11745 X39.875 Y-64.499
N11750 X39.271 Y-64.481
N11755 X38.065 Y-64.432
N11760 X37.864 Y-64.419
N11765 X37.462 Y-64.387
N11770 X37.26 Y-64.367
N11775 X36.657 Y-64.291
N11780 X36.456 Y-64.263
N11785 X36.272 Y-64.236
N11790 X35.25 Y-64.028
N11795 X34.847 Y-63.946
N11800 X34.646 Y-63.904
N11805 X34.043 Y-63.771
N11810 X33.437 Y-63.633
N11815 X33.239 Y-63.581
N11820 X32.786 Y-63.432
N11825 X32.187 Y-63.23
N11830 X32.032 Y-63.175
N11835 X31.228 Y-62.871
N11840 X30.826 Y-62.719
N11845 X30.222 Y-62.481
N11850 X30.091 Y-62.426
N11855 X29.619 Y-62.213
N11860 X29.418 Y-62.118
N11865 X29.016 Y-61.917
N11870 X28.831 Y-61.822
N11875 X27.005 Y-60.768
N11880 X26.804 Y-60.65
N11885 X26.402 Y-60.403
N11890 X26.201 Y-60.274
N11895 X25.557 Y-59.811
N11900 X25.396 Y-59.694
N11905 X25.288 Y-59.61
N11910 X24.391 Y-58.879
N11915 X24.19 Y-58.714
N11920 X23.788 Y-58.379
N11925 X23.585 Y-58.202
N11930 X22.983 Y-57.67
N11935 X22.913 Y-57.599
N11940 X22.347 Y-56.995
N11945 X22.079 Y-56.701
N11950 G3 X21.834 Y-56.562 I-0.359 J-0.348
N11955 G1 X21.777 Y-56.555 Z-7.322
N11960 X21.721 Y-56.549 Z-7.312
N11965 X21.72
N11970 X21.651 Y-56.562 Z-7.289
N11975 X21.586 Y-56.576 Z-7.256
N11980 X21.526 Y-56.588 Z-7.214
N11985 X21.473 Y-56.623 Z-7.152
N11990 X21.43 Y-56.651 Z-7.08
N11995 X21.398 Y-56.672 Z-7.
N12000 X21.379 Y-56.685 Z-6.914
N12005 X21.372 Y-56.689 Z-6.826
N12010 G0 Z5.
N12015 X20.286 Y-59.539
N12020 Z-5.35
N12025 G1 Z-5.85 F1000.
N12030 X20.292 Y-59.535 Z-5.937
N12035 X20.311 Y-59.523 Z-6.021
N12040 X20.343 Y-59.504 Z-6.1
N12045 X20.386 Y-59.478 Z-6.171
N12050 X20.438 Y-59.446 Z-6.233
N12055 X20.499 Y-59.409 Z-6.283
N12060 X20.567 Y-59.368 Z-6.32
N12065 X20.639 Y-59.324 Z-6.342
N12070 X20.713 Y-59.279 Z-6.35
N12075 G3 X22.894 Y-57.604 I-6.638 J10.903
N12080 G1 X22.999 Y-57.497
N12085 X23.041 Y-57.353
N12090 X23.065 Y-57.205
N12095 X23.076 Y-57.043
N12100 X23.073 Y-56.845
N12105 X23.05 Y-56.606
N12110 X23.046 Y-56.583
N12115 X22.989 Y-56.375
N12120 X22.895 Y-56.182
N12125 X22.767 Y-56.009
N12130 X22.38 Y-55.574
N12135 X21.679 Y-54.783
N12140 X21.576 Y-54.658
N12145 X21.375 Y-54.406
N12150 X20.972 Y-53.875
N12155 X20.899 Y-53.777
N12160 X20.768 Y-53.576
N12165 X20.51 Y-53.174
N12170 X20.001 Y-52.369
N12175 X19.749 Y-51.967
N12180 X19.625 Y-51.766
N12185 X19.26 Y-51.163
N12190 X19.156 Y-50.962
N12195 X19.056 Y-50.76
N12200 X18.959 Y-50.559
N12205 X18.865 Y-50.358
N12210 X18.681 Y-49.956
N12215 X18.591 Y-49.755
N12220 X18.077 Y-48.548
N12225 X17.997 Y-48.347
N12230 X17.841 Y-47.945
N12235 X17.755 Y-47.714
N12240 X17.622 Y-47.341
N12245 X17.557 Y-47.14
N12250 X17.399 Y-46.537
N12255 X17.248 Y-45.933
N12260 X16.95 Y-44.727
N12265 X16.902 Y-44.525
N12270 X16.78 Y-43.922
N12275 X16.689 Y-43.319
N12280 X16.667 Y-43.117
N12285 X16.627 Y-42.715
N12290 X16.609 Y-42.514
N12295 X16.511 Y-41.307
N12300 X16.475 Y-40.704
N12305 X16.457 Y-40.302
N12310 X16.448 Y-40.101
N12315 Y-39.899
N12320 X16.465 Y-39.497
N12325 X16.475 Y-39.296
N12330 X16.511 Y-38.693
N12335 X16.609 Y-37.486
N12340 X16.627 Y-37.285
N12345 X16.667 Y-36.883
N12350 X16.689 Y-36.681
N12355 X16.78 Y-36.078
N12360 X16.902 Y-35.475
N12365 X16.951 Y-35.27
N12370 X17.248 Y-34.067
N12375 X17.399 Y-33.463
N12380 X17.557 Y-32.86
N12385 X17.622 Y-32.659
N12390 X17.755 Y-32.286
N12395 X17.841 Y-32.055
N12400 X17.997 Y-31.653
N12405 X18.077 Y-31.452
N12410 X18.591 Y-30.245
N12415 X18.681 Y-30.044
N12420 X18.865 Y-29.642
N12425 X18.962 Y-29.435
N12430 X19.056 Y-29.24
N12435 X19.163 Y-29.025
N12440 X19.26 Y-28.837
N12445 X19.625 Y-28.234
N12450 X19.766 Y-28.006
N12455 X20.128 Y-27.429
N12460 X20.51 Y-26.826
N12465 X20.771 Y-26.419
N12470 X20.899 Y-26.223
N12475 X21.05 Y-26.022
N12480 X21.375 Y-25.594
N12485 X21.576 Y-25.342
N12490 X21.679 Y-25.217
N12495 X22.581 Y-24.2
N12500 X22.983 Y-23.75
N12505 X23.184 Y-23.535
N12510 X23.587 Y-23.106
N12515 X23.69 Y-23.005
N12520 X23.989 Y-22.74
N12525 X24.391 Y-22.386
N12530 X24.614 Y-22.2
N12535 X25.599 Y-21.396
N12540 X26. Y-21.075
N12545 X26.105 Y-20.993
N12550 X26.804 Y-20.492
N12555 X26.954 Y-20.39
N12560 X27.005 Y-20.359
N12565 X28.212 Y-19.661
N12570 X29.217 Y-19.081
N12575 X29.418 Y-18.965
N12580 X29.619 Y-18.862
N12585 X30.021 Y-18.675
N12590 X30.229 Y-18.58
N12595 X30.625 Y-18.403
N12600 X30.826 Y-18.326
N12605 X32.277 Y-17.775
N12610 X32.434 Y-17.718
N12615 X32.85 Y-17.574
N12620 X33.239 Y-17.444
N12625 X33.44 Y-17.377
N12630 X34.043 Y-17.229
N12635 X34.646 Y-17.092
N12640 X36.054 Y-16.804
N12645 X36.657 Y-16.692
N12650 X36.858 Y-16.664
N12655 X37.26 Y-16.613
N12660 X37.462 Y-16.593
N12665 X37.864 Y-16.559
N12670 X38.065 Y-16.545
N12675 X39.271 Y-16.496
N12680 X39.875 Y-16.476
N12685 X40.076 Y-16.47
N12690 X40.478 Y-16.46
N12695 X40.679 Y-16.458
N12700 X41.282 Y-16.491
N12705 X41.885 Y-16.539
N12710 X42.147 Y-16.568
N12715 X43.293 Y-16.708
N12720 X43.896 Y-16.783
N12725 X44.5 Y-16.889
N12730 X44.701 Y-16.929
N12735 X45.103 Y-17.015
N12740 X45.304 Y-17.064
N12745 X45.907 Y-17.234
N12750 X46.913 Y-17.524
N12755 X47.778 Y-17.775
N12760 X47.918 Y-17.823
N12765 X48.325 Y-17.976
N12770 X48.521 Y-18.052
N12775 X49.125 Y-18.299
N12780 X50.733 Y-19.062
N12785 X51.135 Y-19.265
N12790 X51.754 Y-19.585
N12795 X51.94 Y-19.699
N12800 X52.387 Y-19.988
N12805 X52.945 Y-20.359
N12810 X53.951 Y-21.053
N12815 X54.353 Y-21.335
N12820 X54.433 Y-21.396
N12825 X54.956 Y-21.812
N12830 X55.173 Y-21.999
N12835 X55.399 Y-22.2
N12840 X55.559 Y-22.345
N12845 X56.455 Y-23.206
N12850 X56.967 Y-23.701
N12855 X57.168 Y-23.904
N12860 X57.471 Y-24.211
N12865 X57.57 Y-24.315
N12870 X57.989 Y-24.815
N12875 X58.154 Y-25.016
N12880 X58.311 Y-25.217
N12885 X59.067 Y-26.223
N12890 X59.213 Y-26.424
N12895 X59.581 Y-26.934
N12900 X59.983 Y-27.53
N12905 X60.042 Y-27.631
N12910 X60.266 Y-28.033
N12915 X60.385 Y-28.254
N12920 X60.697 Y-28.837
N12925 X61.391 Y-30.159
N12930 X61.432 Y-30.245
N12935 X61.522 Y-30.446
N12940 X61.592 Y-30.605
N12945 X61.694 Y-30.849
N12950 X61.936 Y-31.452
N12955 X62.006 Y-31.653
N12960 X62.408 Y-32.86
N12965 X62.604 Y-33.463
N12970 X62.798 Y-34.093
N12975 X62.845 Y-34.268
N12980 X62.893 Y-34.469
N12985 X63.054 Y-35.273
N12990 X63.092 Y-35.475
N12995 X63.288 Y-36.681
N13000 X63.383 Y-37.285
N13005 X63.402 Y-37.41
N13010 X63.45 Y-37.888
N13015 X63.468 Y-38.089
N13020 X63.495 Y-38.492
N13025 X63.508 Y-38.693
N13030 Y-41.307
N13035 X63.482 Y-41.71
N13040 X63.468 Y-41.911
N13045 X63.45 Y-42.112
N13050 X63.402 Y-42.59
N13055 X63.383 Y-42.715
N13060 X63.288 Y-43.319
N13065 X63.092 Y-44.525
N13070 X63.054 Y-44.727
N13075 X62.893 Y-45.531
N13080 X62.845 Y-45.732
N13085 X62.798 Y-45.907
N13090 X62.597 Y-46.557
N13095 X62.396 Y-47.176
N13100 X61.994 Y-48.381
N13105 X61.936 Y-48.548
N13110 X61.694 Y-49.151
N13115 X61.592 Y-49.395
N13120 X61.522 Y-49.554
N13125 X61.432 Y-49.755
N13130 X61.391 Y-49.841
N13135 X60.697 Y-51.163
N13140 X60.375 Y-51.766
N13145 X60.266 Y-51.967
N13150 X60.042 Y-52.369
N13155 X59.983 Y-52.47
N13160 X59.581 Y-53.066
N13165 X59.179 Y-53.624
N13170 X59.067 Y-53.777
N13175 X58.311 Y-54.783
N13180 X58.154 Y-54.984
N13185 X57.972 Y-55.206
N13190 X57.57 Y-55.685
N13195 X57.471 Y-55.789
N13200 X57.075 Y-56.191
N13205 X56.967 Y-56.299
N13210 X56.246 Y-56.995
N13215 X55.559 Y-57.655
N13220 X55.358 Y-57.836
N13225 X55.157 Y-58.016
N13230 X54.956 Y-58.188
N13235 X54.433 Y-58.604
N13240 X54.353 Y-58.665
N13245 X53.864 Y-59.007
N13250 X52.945 Y-59.641
N13255 X52.387 Y-60.012
N13260 X51.94 Y-60.301
N13265 X51.754 Y-60.415
N13270 X51.135 Y-60.735
N13275 X50.733 Y-60.938
N13280 X49.125 Y-61.701
N13285 X48.521 Y-61.948
N13290 X48.32 Y-62.025
N13295 X47.918 Y-62.177
N13300 X47.778 Y-62.225
N13305 X46.309 Y-62.65
N13310 X45.907 Y-62.766
N13315 X45.304 Y-62.936
N13320 X45.103 Y-62.985
N13325 X44.701 Y-63.071
N13330 X44.5 Y-63.111
N13335 X43.896 Y-63.217
N13340 X43.092 Y-63.317
N13345 X42.087 Y-63.439
N13350 X41.885 Y-63.461
N13355 X41.282 Y-63.509
N13360 X40.679 Y-63.542
N13365 X40.478 Y-63.54
N13370 X40.076 Y-63.53
N13375 X39.472 Y-63.511
N13380 X39.271 Y-63.504
N13385 X38.065 Y-63.455
N13390 X37.864 Y-63.441
N13395 X37.462 Y-63.407
N13400 X37.26 Y-63.387
N13405 X36.858 Y-63.336
N13410 X36.657 Y-63.308
N13415 X36.054 Y-63.196
N13420 X34.646 Y-62.908
N13425 X34.043 Y-62.771
N13430 X33.44 Y-62.623
N13435 X33.038 Y-62.489
N13440 X32.837 Y-62.422
N13445 X32.434 Y-62.282
N13450 X32.233 Y-62.208
N13455 X30.826 Y-61.674
N13460 X30.625 Y-61.597
N13465 X30.222 Y-61.417
N13470 X30.021 Y-61.325
N13475 X29.619 Y-61.138
N13480 X29.418 Y-61.035
N13485 X29.016 Y-60.803
N13490 X27.206 Y-59.758
N13495 X27.005 Y-59.641
N13500 X26.954 Y-59.61
N13505 X26.804 Y-59.508
N13510 X26.105 Y-59.007
N13515 X26. Y-58.925
N13520 X25.597 Y-58.603
N13525 X24.592 Y-57.782
N13530 X24.374 Y-57.599
N13535 X23.788 Y-57.082
N13540 X23.69 Y-56.995
N13545 X23.587 Y-56.894
N13550 X23.116 Y-56.392
N13555 X22.983 Y-56.25
N13560 X22.767 Y-56.009
N13565 G3 X22.523 Y-55.868 I-0.361 J-0.346
N13570 G1 X22.464 Y-55.861 Z-6.346
N13575 X22.406 Y-55.855 Z-6.336
N13580 X22.337 Y-55.868 Z-6.313
N13585 X22.272 Y-55.882 Z-6.28
N13590 X22.213 Y-55.894 Z-6.237
N13595 X22.16 Y-55.928 Z-6.175
N13600 X22.117 Y-55.956 Z-6.103
N13605 X22.086 Y-55.977 Z-6.023
N13610 X22.067 Y-55.989 Z-5.938
N13615 X22.06 Y-55.994 Z-5.851
N13620 G0 Z5.
N13625 X20.986 Y-58.867
N13630 Z-4.375
N13635 G1 Z-4.875 F1000.
N13640 X20.992 Y-58.863 Z-4.962
N13645 X21.011 Y-58.851 Z-5.046
N13650 X21.043 Y-58.831 Z-5.125
N13655 X21.085 Y-58.805 Z-5.196
N13660 X21.137 Y-58.772 Z-5.258
N13665 X21.198 Y-58.735 Z-5.308
N13670 X21.265 Y-58.693 Z-5.345
N13675 X21.337 Y-58.649 Z-5.367
N13680 X21.41 Y-58.603 Z-5.375
N13685 G3 X23.576 Y-56.907 I-6.741 J10.84
N13690 G1 X23.679 Y-56.799
N13695 X23.722 Y-56.655
N13700 X23.746 Y-56.507
N13705 X23.757 Y-56.345
N13710 X23.755 Y-56.148
N13715 X23.733 Y-55.911
N13720 X23.729 Y-55.886
N13725 X23.672 Y-55.678
N13730 X23.579 Y-55.485
N13735 X23.452 Y-55.312
N13740 X22.38 Y-54.101
N13745 X22.277 Y-53.978
N13750 X22.12 Y-53.777
N13755 X21.968 Y-53.576
N13760 X21.667 Y-53.174
N13765 X21.576 Y-53.034
N13770 X20.771 Y-51.762
N13775 X20.369 Y-51.115
N13780 X20.28 Y-50.962
N13785 X20.048 Y-50.559
N13790 X19.967 Y-50.409
N13795 X19.749 Y-49.956
N13800 X19.655 Y-49.755
N13805 X19.364 Y-49.077
N13810 X18.962 Y-48.131
N13815 X18.882 Y-47.945
N13820 X18.803 Y-47.743
N13825 X18.656 Y-47.341
N13830 X18.586 Y-47.14
N13835 X18.405 Y-46.537
N13840 X18.252 Y-45.933
N13845 X17.906 Y-44.525
N13850 X17.765 Y-43.922
N13855 X17.734 Y-43.721
N13860 X17.673 Y-43.319
N13865 X17.65 Y-43.117
N13870 X17.607 Y-42.715
N13875 X17.588 Y-42.514
N13880 X17.491 Y-41.307
N13885 X17.451 Y-40.704
N13890 X17.44 Y-40.503
N13895 X17.423 Y-40.101
N13900 Y-39.899
N13905 X17.44 Y-39.497
N13910 X17.451 Y-39.296
N13915 X17.491 Y-38.693
N13920 X17.588 Y-37.486
N13925 X17.607 Y-37.285
N13930 X17.65 Y-36.883
N13935 X17.673 Y-36.681
N13940 X17.755 Y-36.141
N13945 X17.765 Y-36.078
N13950 X17.906 Y-35.475
N13955 X18.252 Y-34.067
N13960 X18.405 Y-33.463
N13965 X18.586 Y-32.86
N13970 X18.656 Y-32.659
N13975 X18.803 Y-32.257
N13980 X18.882 Y-32.055
N13985 X19.224 Y-31.251
N13990 X19.396 Y-30.849
N13995 X19.655 Y-30.245
N14000 X19.766 Y-30.008
N14005 X19.967 Y-29.591
N14010 X20.048 Y-29.441
N14015 X20.28 Y-29.038
N14020 X20.369 Y-28.885
N14025 X20.774 Y-28.234
N14030 X21.576 Y-26.966
N14035 X21.667 Y-26.826
N14040 X21.978 Y-26.41
N14045 X22.12 Y-26.223
N14050 X22.277 Y-26.022
N14055 X22.38 Y-25.899
N14060 X23.587 Y-24.536
N14065 X23.699 Y-24.413
N14070 X23.885 Y-24.211
N14075 X24.262 Y-23.809
N14080 X24.391 Y-23.685
N14085 X24.477 Y-23.608
N14090 X24.933 Y-23.206
N14095 X25.195 Y-22.986
N14100 X26.201 Y-22.165
N14105 X26.41 Y-21.999
N14110 X26.804 Y-21.69
N14115 X26.934 Y-21.597
N14120 X27.512 Y-21.194
N14125 X27.608 Y-21.135
N14130 X29.418 Y-20.09
N14135 X29.619 Y-19.975
N14140 X30.021 Y-19.749
N14145 X30.222 Y-19.65
N14150 X30.811 Y-19.384
N14155 X31.429 Y-19.142
N14160 X32.635 Y-18.684
N14165 X32.837 Y-18.609
N14170 X33.44 Y-18.403
N14175 X34.043 Y-18.23
N14180 X34.261 Y-18.178
N14185 X34.646 Y-18.09
N14190 X34.847 Y-18.047
N14195 X36.456 Y-17.719
N14200 X36.657 Y-17.679
N14205 X36.858 Y-17.648
N14210 X37.26 Y-17.595
N14215 X37.462 Y-17.573
N14220 X37.864 Y-17.537
N14225 X38.065 Y-17.522
N14230 X39.472 Y-17.465
N14235 X39.875 Y-17.451
N14240 X40.076 Y-17.444
N14245 X40.478 Y-17.434
N14250 X40.679 Y-17.433
N14255 X41.282 Y-17.468
N14260 X41.885 Y-17.522
N14265 X42.087 Y-17.545
N14270 X43.293 Y-17.692
N14275 X43.695 Y-17.743
N14280 X43.896 Y-17.771
N14285 X44.5 Y-17.877
N14290 X44.701 Y-17.923
N14295 X45.103 Y-18.023
N14300 X45.304 Y-18.077
N14305 X45.907 Y-18.249
N14310 X47.114 Y-18.598
N14315 X47.315 Y-18.66
N14320 X47.717 Y-18.789
N14325 X47.918 Y-18.86
N14330 X48.32 Y-19.017
N14335 X48.521 Y-19.1
N14340 X49.135 Y-19.384
N14345 X50.406 Y-19.988
N14350 X50.532 Y-20.051
N14355 X51.135 Y-20.36
N14360 X51.191 Y-20.39
N14365 X51.739 Y-20.728
N14370 X52.142 Y-20.993
N14375 X52.436 Y-21.194
N14380 X53.602 Y-21.999
N14385 X53.75 Y-22.104
N14390 X53.951 Y-22.258
N14395 X54.152 Y-22.415
N14400 X54.353 Y-22.575
N14405 X54.755 Y-22.93
N14410 X54.838 Y-23.005
N14415 X55.961 Y-24.084
N14420 X56.163 Y-24.278
N14425 X56.301 Y-24.413
N14430 X56.364 Y-24.475
N14435 X56.766 Y-24.884
N14440 X56.888 Y-25.016
N14445 X57.369 Y-25.592
N14450 X57.391 Y-25.619
N14455 X58.173 Y-26.66
N14460 X58.375 Y-26.928
N14465 X58.777 Y-27.488
N14470 X58.878 Y-27.631
N14475 X58.978 Y-27.781
N14480 X59.179 Y-28.096
N14485 X59.266 Y-28.234
N14490 X59.594 Y-28.837
N14495 X60.228 Y-30.044
N14500 X60.333 Y-30.245
N14505 X60.638 Y-30.849
N14510 X60.893 Y-31.452
N14515 X60.967 Y-31.653
N14520 X61.109 Y-32.055
N14525 X61.19 Y-32.293
N14530 X61.581 Y-33.463
N14535 X61.771 Y-34.067
N14540 X61.793 Y-34.141
N14545 X61.935 Y-34.67
N14550 X61.981 Y-34.871
N14555 X62.063 Y-35.273
N14560 X62.101 Y-35.475
N14565 X62.233 Y-36.279
N14570 X62.397 Y-37.285
N14575 X62.425 Y-37.486
N14580 X62.47 Y-37.888
N14585 X62.491 Y-38.089
N14590 X62.52 Y-38.492
N14595 X62.533 Y-38.693
N14600 Y-41.307
N14605 X62.505 Y-41.71
N14610 X62.491 Y-41.911
N14615 X62.47 Y-42.112
N14620 X62.425 Y-42.514
N14625 X62.396 Y-42.718
N14630 X62.167 Y-44.123
N14635 X62.101 Y-44.525
N14640 X62.063 Y-44.727
N14645 X61.981 Y-45.129
N14650 X61.935 Y-45.33
N14655 X61.793 Y-45.859
N14660 X61.771 Y-45.933
N14665 X61.581 Y-46.537
N14670 X61.178 Y-47.743
N14675 X61.109 Y-47.945
N14680 X60.967 Y-48.347
N14685 X60.893 Y-48.548
N14690 X60.638 Y-49.151
N14695 X60.333 Y-49.755
N14700 X60.017 Y-50.358
N14705 X59.594 Y-51.163
N14710 X59.266 Y-51.766
N14715 X59.139 Y-51.967
N14720 X58.978 Y-52.219
N14725 X58.878 Y-52.369
N14730 X58.735 Y-52.571
N14735 X58.375 Y-53.072
N14740 X57.542 Y-54.18
N14745 X57.391 Y-54.381
N14750 X57.369 Y-54.408
N14755 X56.888 Y-54.984
N14760 X56.766 Y-55.116
N14765 X56.364 Y-55.525
N14770 X56.301 Y-55.587
N14775 X56.093 Y-55.789
N14780 X55.157 Y-56.689
N14785 X54.838 Y-56.995
N14790 X54.755 Y-57.07
N14795 X54.353 Y-57.425
N14800 X54.134 Y-57.599
N14805 X53.875 Y-57.8
N14810 X53.75 Y-57.896
N14815 X53.602 Y-58.001
N14820 X52.342 Y-58.871
N14825 X52.141 Y-59.008
N14830 X51.739 Y-59.272
N14835 X51.191 Y-59.61
N14840 X51.135 Y-59.64
N14845 X50.532 Y-59.949
N14850 X50.406 Y-60.012
N14855 X49.125 Y-60.621
N14860 X48.521 Y-60.9
N14865 X48.32 Y-60.983
N14870 X47.918 Y-61.14
N14875 X47.717 Y-61.211
N14880 X47.315 Y-61.34
N14885 X47.114 Y-61.402
N14890 X45.907 Y-61.751
N14895 X45.304 Y-61.923
N14900 X45.103 Y-61.977
N14905 X44.701 Y-62.077
N14910 X44.5 Y-62.123
N14915 X43.896 Y-62.229
N14920 X43.695 Y-62.257
N14925 X43.293 Y-62.308
N14930 X42.087 Y-62.455
N14935 X41.885 Y-62.478
N14940 X41.282 Y-62.532
N14945 X40.679 Y-62.567
N14950 X40.478 Y-62.566
N14955 X40.076 Y-62.556
N14960 X39.875 Y-62.549
N14965 X39.271 Y-62.527
N14970 X38.065 Y-62.478
N14975 X37.864 Y-62.463
N14980 X37.446 Y-62.426
N14985 X37.26 Y-62.405
N14990 X36.858 Y-62.352
N14995 X36.657 Y-62.321
N15000 X35.853 Y-62.158
N15005 X34.847 Y-61.953
N15010 X34.646 Y-61.91
N15015 X34.244 Y-61.819
N15020 X34.043 Y-61.77
N15025 X33.44 Y-61.597
N15030 X32.837 Y-61.391
N15035 X32.635 Y-61.316
N15040 X31.429 Y-60.858
N15045 X30.811 Y-60.616
N15050 X30.222 Y-60.35
N15055 X30.021 Y-60.251
N15060 X29.597 Y-60.012
N15065 X29.217 Y-59.794
N15070 X27.608 Y-58.865
N15075 X27.512 Y-58.806
N15080 X26.934 Y-58.403
N15085 X26.804 Y-58.31
N15090 X26.402 Y-57.994
N15095 X26.201 Y-57.835
N15100 X25.173 Y-56.995
N15105 X24.933 Y-56.794
N15110 X24.477 Y-56.392
N15115 X24.391 Y-56.315
N15120 X24.262 Y-56.191
N15125 X23.788 Y-55.684
N15130 X23.699 Y-55.587
N15135 X23.587 Y-55.464
N15140 X23.452 Y-55.312
N15145 G3 X23.209 Y-55.171 I-0.362 J-0.344
N15150 G1 X23.149 Y-55.164 Z-5.371
N15155 X23.09 Y-55.157 Z-5.36
N15160 X23.021 Y-55.171 Z-5.337
N15165 X22.956 Y-55.184 Z-5.303
N15170 X22.896 Y-55.196 Z-5.26
N15175 X22.844 Y-55.23 Z-5.198
N15180 X22.802 Y-55.257 Z-5.127
N15185 X22.771 Y-55.278 Z-5.047
N15190 X22.752 Y-55.29 Z-4.963
N15195 X22.746 Y-55.294 Z-4.876
N15200 G0 Z5.
N15205 X21.761 Y-58.27
N15210 Z-3.4
N15215 G1 Z-3.9 F1000.
N15220 X21.767 Y-58.266 Z-3.987
N15225 X21.786 Y-58.254 Z-4.071
N15230 X21.817 Y-58.234 Z-4.15
N15235 X21.859 Y-58.207 Z-4.221
N15240 X21.911 Y-58.174 Z-4.283
N15245 X21.971 Y-58.135 Z-4.333
N15250 X22.037 Y-58.092 Z-4.37
N15255 X22.108 Y-58.047 Z-4.392
N15260 X22.181 Y-58. Z-4.4
N15265 G3 X24.32 Y-56.271 I-6.909 J10.733
N15270 G1 X24.422 Y-56.161
N15275 X24.464 Y-56.017
N15280 X24.487 Y-55.869
N15285 X24.498 Y-55.706
N15290 X24.496 Y-55.508
N15295 X24.473 Y-55.27
N15300 X24.469 Y-55.248
N15305 X24.413 Y-55.041
N15310 X24.32 Y-54.849
N15315 X24.194 Y-54.676
N15320 X23.386 Y-53.764
N15325 X22.983 Y-53.305
N15330 X22.883 Y-53.174
N15335 X22.782 Y-53.04
N15340 X22.38 Y-52.474
N15345 X22.31 Y-52.369
N15350 X21.547 Y-51.163
N15355 X21.172 Y-50.559
N15360 X21.048 Y-50.358
N15365 X20.972 Y-50.219
N15370 X20.771 Y-49.833
N15375 X20.734 Y-49.755
N15380 X20.458 Y-49.151
N15385 X19.858 Y-47.743
N15390 X19.766 Y-47.526
N15395 X19.692 Y-47.341
N15400 X19.619 Y-47.14
N15405 X19.411 Y-46.537
N15410 X19.257 Y-45.933
N15415 X18.761 Y-43.92
N15420 X18.692 Y-43.52
N15425 X18.658 Y-43.319
N15430 X18.633 Y-43.117
N15435 X18.587 Y-42.715
N15440 X18.568 Y-42.514
N15445 X18.471 Y-41.307
N15450 X18.426 Y-40.704
N15455 X18.415 Y-40.503
N15460 X18.398 Y-40.101
N15465 Y-39.899
N15470 X18.415 Y-39.497
N15475 X18.426 Y-39.296
N15480 X18.471 Y-38.693
N15485 X18.568 Y-37.486
N15490 X18.587 Y-37.285
N15495 X18.633 Y-36.883
N15500 X18.658 Y-36.681
N15505 X18.726 Y-36.279
N15510 X18.761 Y-36.078
N15515 X19.257 Y-34.067
N15520 X19.411 Y-33.463
N15525 X19.619 Y-32.86
N15530 X19.692 Y-32.659
N15535 X19.773 Y-32.458
N15540 X20.2 Y-31.452
N15545 X20.458 Y-30.849
N15550 X20.734 Y-30.245
N15555 X20.771 Y-30.167
N15560 X20.972 Y-29.781
N15565 X21.048 Y-29.642
N15570 X21.422 Y-29.038
N15575 X21.576 Y-28.792
N15580 X22.31 Y-27.631
N15585 X22.38 Y-27.526
N15590 X22.782 Y-26.96
N15595 X22.883 Y-26.826
N15600 X22.983 Y-26.695
N15605 X23.397 Y-26.223
N15610 X24.288 Y-25.217
N15615 X24.468 Y-25.016
N15620 X24.654 Y-24.815
N15625 X24.842 Y-24.614
N15630 X24.994 Y-24.456
N15635 X25.041 Y-24.413
N15640 X25.195 Y-24.273
N15645 X25.597 Y-23.919
N15650 X26.804 Y-22.934
N15655 X26.966 Y-22.803
N15660 X27.486 Y-22.401
N15665 X27.608 Y-22.312
N15670 X28.212 Y-21.913
N15675 X30.152 Y-20.792
N15680 X30.222 Y-20.754
N15685 X30.826 Y-20.446
N15690 X30.951 Y-20.39
N15695 X31.429 Y-20.188
N15700 X31.63 Y-20.11
N15705 X32.837 Y-19.653
N15710 X33.44 Y-19.43
N15715 X34.043 Y-19.233
N15720 X34.244 Y-19.182
N15725 X34.646 Y-19.088
N15730 X34.847 Y-19.045
N15735 X35.652 Y-18.879
N15740 X36.657 Y-18.674
N15745 X36.858 Y-18.64
N15750 X37.26 Y-18.578
N15755 X37.462 Y-18.553
N15760 X37.864 Y-18.514
N15765 X38.065 Y-18.498
N15770 X39.875 Y-18.426
N15775 X40.076 Y-18.419
N15780 X40.478 Y-18.409
N15785 X40.679 Y-18.408
N15790 X41.081 Y-18.431
N15795 X41.282 Y-18.444
N15800 X41.885 Y-18.506
N15805 X42.489 Y-18.578
N15810 X43.293 Y-18.676
N15815 X43.896 Y-18.759
N15820 X44.5 Y-18.87
N15825 X44.701 Y-18.922
N15830 X45.103 Y-19.033
N15835 X45.304 Y-19.09
N15840 X47.114 Y-19.614
N15845 X47.315 Y-19.679
N15850 X47.516 Y-19.747
N15855 X47.717 Y-19.826
N15860 X47.918 Y-19.91
N15865 X48.32 Y-20.084
N15870 X48.521 Y-20.174
N15875 X49.728 Y-20.747
N15880 X49.929 Y-20.845
N15885 X50.331 Y-21.042
N15890 X50.532 Y-21.15
N15895 X50.963 Y-21.396
N15900 X51.135 Y-21.498
N15905 X51.337 Y-21.628
N15910 X51.538 Y-21.761
N15915 X53.048 Y-22.803
N15920 X53.347 Y-23.018
N15925 X53.582 Y-23.206
N15930 X53.75 Y-23.343
N15935 X54.053 Y-23.608
N15940 X54.152 Y-23.698
N15945 X55.524 Y-25.016
N15950 X55.727 Y-25.217
N15955 X56.122 Y-25.619
N15960 X56.163 Y-25.666
N15965 X56.292 Y-25.82
N15970 X56.62 Y-26.223
N15975 X56.774 Y-26.424
N15980 X57.57 Y-27.483
N15985 X57.68 Y-27.631
N15990 X58.11 Y-28.234
N15995 X58.248 Y-28.435
N16000 X58.375 Y-28.649
N16005 X58.484 Y-28.837
N16010 X58.593 Y-29.038
N16015 X58.809 Y-29.441
N16020 X59.021 Y-29.843
N16025 X59.581 Y-30.911
N16030 X59.834 Y-31.452
N16035 X59.917 Y-31.653
N16040 X60.076 Y-32.055
N16045 X60.148 Y-32.257
N16050 X60.586 Y-33.57
N16055 X60.75 Y-34.067
N16060 X60.788 Y-34.183
N16065 X60.876 Y-34.469
N16070 X60.935 Y-34.67
N16075 X60.985 Y-34.871
N16080 X61.069 Y-35.273
N16085 X61.108 Y-35.475
N16090 X61.211 Y-36.078
N16095 X61.407 Y-37.285
N16100 X61.437 Y-37.486
N16105 X61.489 Y-37.888
N16110 X61.514 Y-38.089
N16115 X61.534 Y-38.29
N16120 X61.558 Y-38.693
N16125 Y-41.307
N16130 X61.534 Y-41.71
N16135 X61.514 Y-41.911
N16140 X61.489 Y-42.112
N16145 X61.437 Y-42.514
N16150 X61.407 Y-42.715
N16155 X61.211 Y-43.922
N16160 X61.108 Y-44.525
N16165 X61.069 Y-44.727
N16170 X60.985 Y-45.129
N16175 X60.935 Y-45.33
N16180 X60.876 Y-45.531
N16185 X60.788 Y-45.817
N16190 X60.75 Y-45.933
N16195 X60.551 Y-46.537
N16200 X60.148 Y-47.743
N16205 X60.076 Y-47.945
N16210 X59.917 Y-48.347
N16215 X59.834 Y-48.548
N16220 X59.581 Y-49.089
N16225 X58.915 Y-50.358
N16230 X58.701 Y-50.76
N16235 X58.576 Y-50.994
N16240 X58.484 Y-51.163
N16245 X58.367 Y-51.364
N16250 X58.248 Y-51.565
N16255 X58.11 Y-51.766
N16260 X57.68 Y-52.369
N16265 X57.53 Y-52.571
N16270 X56.766 Y-53.587
N16275 X56.62 Y-53.777
N16280 X56.292 Y-54.18
N16285 X56.163 Y-54.334
N16290 X56.122 Y-54.381
N16295 X55.727 Y-54.783
N16300 X55.524 Y-54.984
N16305 X54.152 Y-56.302
N16310 X54.053 Y-56.392
N16315 X53.75 Y-56.657
N16320 X53.582 Y-56.794
N16325 X53.347 Y-56.982
N16330 X53.048 Y-57.197
N16335 X51.538 Y-58.239
N16340 X51.337 Y-58.372
N16345 X51.135 Y-58.502
N16350 X50.963 Y-58.604
N16355 X50.532 Y-58.85
N16360 X50.331 Y-58.958
N16365 X49.822 Y-59.208
N16370 X49.326 Y-59.444
N16375 X48.521 Y-59.826
N16380 X48.32 Y-59.916
N16385 X47.918 Y-60.09
N16390 X47.717 Y-60.174
N16395 X47.516 Y-60.253
N16400 X47.315 Y-60.321
N16405 X47.114 Y-60.386
N16410 X45.304 Y-60.91
N16415 X44.919 Y-61.018
N16420 X44.701 Y-61.078
N16425 X44.5 Y-61.13
N16430 X43.896 Y-61.241
N16435 X43.293 Y-61.324
N16440 X42.489 Y-61.422
N16445 X41.885 Y-61.494
N16450 X41.282 Y-61.556
N16455 X41.081 Y-61.569
N16460 X40.679 Y-61.592
N16465 X40.478 Y-61.591
N16470 X40.076 Y-61.581
N16475 X39.875 Y-61.574
N16480 X38.065 Y-61.502
N16485 X37.864 Y-61.486
N16490 X37.462 Y-61.447
N16495 X37.249 Y-61.42
N16500 X36.858 Y-61.36
N16505 X36.657 Y-61.326
N16510 X35.25 Y-61.038
N16515 X34.847 Y-60.955
N16520 X34.646 Y-60.912
N16525 X34.239 Y-60.817
N16530 X34.043 Y-60.767
N16535 X33.44 Y-60.57
N16540 X32.837 Y-60.347
N16545 X31.63 Y-59.89
N16550 X31.428 Y-59.811
N16555 X30.951 Y-59.61
N16560 X30.826 Y-59.554
N16565 X30.222 Y-59.246
N16570 X30.152 Y-59.208
N16575 X28.212 Y-58.087
N16580 X27.608 Y-57.688
N16585 X27.486 Y-57.599
N16590 X26.966 Y-57.197
N16595 X26.804 Y-57.066
N16600 X25.597 Y-56.081
N16605 X25.195 Y-55.727
N16610 X25.041 Y-55.587
N16615 X24.994 Y-55.544
N16620 X24.842 Y-55.386
N16625 X24.592 Y-55.119
N16630 X24.468 Y-54.984
N16635 X24.213 Y-54.698
N16640 X24.194 Y-54.676
N16645 G3 X23.95 Y-54.535 I-0.362 J-0.344
N16650 G1 X23.89 Y-54.528 Z-4.396
N16655 X23.831 Y-54.521 Z-4.385
N16660 X23.762 Y-54.535 Z-4.362
N16665 X23.697 Y-54.548 Z-4.328
N16670 X23.637 Y-54.56 Z-4.285
N16675 X23.585 Y-54.594 Z-4.223
N16680 X23.543 Y-54.621 Z-4.152
N16685 X23.512 Y-54.642 Z-4.072
N16690 X23.493 Y-54.654 Z-3.988
N16695 X23.487 Y-54.658 Z-3.901
N16700 G0 Z5.
N16705 X22.362 Y-57.492
N16710 Z-2.425
N16715 G1 Z-2.925 F1000.
N16720 X22.369 Y-57.488 Z-3.012
N16725 X22.388 Y-57.476 Z-3.096
N16730 X22.419 Y-57.456 Z-3.175
N16735 X22.461 Y-57.429 Z-3.246
N16740 X22.513 Y-57.396 Z-3.308
N16745 X22.573 Y-57.358 Z-3.358
N16750 X22.64 Y-57.315 Z-3.395
N16755 X22.711 Y-57.27 Z-3.417
N16760 X22.784 Y-57.224 Z-3.425
N16765 G3 X24.932 Y-55.506 I-6.851 J10.771
N16770 G1 X25.035 Y-55.397
N16775 X25.078 Y-55.253
N16780 X25.103 Y-55.105
N16785 X25.115 Y-54.945
N16790 X25.114 Y-54.751
N16795 X25.093 Y-54.515
N16800 X25.087 Y-54.479
N16805 X25.031 Y-54.27
N16810 X24.938 Y-54.075
N16815 X24.81 Y-53.9
N16820 X24.167 Y-53.174
N16825 X23.989 Y-52.971
N16830 X23.788 Y-52.737
N16835 X23.646 Y-52.571
N16840 X23.587 Y-52.492
N16845 X23.497 Y-52.369
N16850 X23.084 Y-51.766
N16855 X22.32 Y-50.559
N16860 X22.179 Y-50.333
N16865 X21.946 Y-49.956
N16870 X21.824 Y-49.755
N16875 X21.717 Y-49.554
N16880 X21.522 Y-49.151
N16885 X21.174 Y-48.34
N16890 X20.748 Y-47.341
N16895 X20.664 Y-47.14
N16900 X20.434 Y-46.537
N16905 X20.369 Y-46.325
N16910 X20.263 Y-45.933
N16915 X20.163 Y-45.531
N16920 X19.766 Y-43.922
N16925 X19.722 Y-43.721
N16930 X19.644 Y-43.319
N16935 X19.616 Y-43.117
N16940 X19.565 Y-42.691
N16945 X19.548 Y-42.514
N16950 X19.402 Y-40.704
N16955 X19.391 Y-40.503
N16960 X19.373 Y-40.101
N16965 Y-39.899
N16970 X19.391 Y-39.497
N16975 X19.402 Y-39.296
N16980 X19.548 Y-37.486
N16985 X19.565 Y-37.309
N16990 X19.616 Y-36.883
N16995 X19.644 Y-36.681
N17000 X19.722 Y-36.279
N17005 X19.766 Y-36.077
N17010 X20.212 Y-34.268
N17015 X20.263 Y-34.067
N17020 X20.372 Y-33.664
N17025 X20.434 Y-33.463
N17030 X20.664 Y-32.86
N17035 X20.771 Y-32.604
N17040 X21.263 Y-31.452
N17045 X21.522 Y-30.849
N17050 X21.717 Y-30.446
N17055 X21.824 Y-30.245
N17060 X21.978 Y-29.992
N17065 X22.194 Y-29.642
N17070 X22.448 Y-29.24
N17075 X23.084 Y-28.234
N17080 X23.497 Y-27.631
N17085 X23.587 Y-27.508
N17090 X23.646 Y-27.429
N17095 X23.818 Y-27.228
N17100 X23.99 Y-27.027
N17105 X24.19 Y-26.8
N17110 X25.236 Y-25.619
N17115 X25.611 Y-25.217
N17120 X25.825 Y-25.016
N17125 X26.057 Y-24.815
N17130 X26.201 Y-24.69
N17135 X26.291 Y-24.614
N17140 X27.523 Y-23.608
N17145 X27.608 Y-23.539
N17150 X28.212 Y-23.076
N17155 X28.315 Y-23.005
N17160 X28.815 Y-22.693
N17165 X28.967 Y-22.602
N17170 X30.826 Y-21.529
N17175 X31.027 Y-21.432
N17180 X31.429 Y-21.242
N17185 X31.539 Y-21.194
N17190 X31.831 Y-21.079
N17195 X33.44 Y-20.468
N17200 X33.653 Y-20.39
N17205 X34.043 Y-20.255
N17210 X34.244 Y-20.197
N17215 X34.646 Y-20.091
N17220 X34.847 Y-20.044
N17225 X35.451 Y-19.917
N17230 X36.657 Y-19.671
N17235 X36.858 Y-19.633
N17240 X37.26 Y-19.562
N17245 X37.462 Y-19.533
N17250 X37.864 Y-19.492
N17255 X38.065 Y-19.475
N17260 X39.875 Y-19.402
N17265 X40.076 Y-19.395
N17270 X40.49 Y-19.384
N17275 X40.679 Y-19.383
N17280 X41.282 Y-19.42
N17285 X41.885 Y-19.489
N17290 X43.092 Y-19.635
N17295 X43.293 Y-19.661
N17300 X43.896 Y-19.747
N17305 X44.097 Y-19.787
N17310 X44.5 Y-19.877
N17315 X44.701 Y-19.933
N17320 X45.304 Y-20.105
N17325 X46.51 Y-20.455
N17330 X47.114 Y-20.639
N17335 X47.315 Y-20.716
N17340 X47.717 Y-20.879
N17345 X47.918 Y-20.969
N17350 X49.664 Y-21.798
N17355 X49.728 Y-21.828
N17360 X49.929 Y-21.933
N17365 X50.331 Y-22.147
N17370 X50.427 Y-22.2
N17375 X50.737 Y-22.401
N17380 X51.037 Y-22.602
N17385 X52.543 Y-23.641
N17390 X52.769 Y-23.809
N17395 X53.03 Y-24.01
N17400 X53.347 Y-24.283
N17405 X53.488 Y-24.413
N17410 X54.755 Y-25.63
N17415 X54.956 Y-25.824
N17420 X55.157 Y-26.027
N17425 X55.358 Y-26.232
N17430 X55.528 Y-26.424
N17435 X55.559 Y-26.461
N17440 X55.692 Y-26.625
N17445 X55.851 Y-26.826
N17450 X55.961 Y-26.969
N17455 X56.912 Y-28.234
N17460 X56.967 Y-28.308
N17465 X57.369 Y-28.876
N17470 X57.472 Y-29.038
N17475 X57.57 Y-29.198
N17480 X57.595 Y-29.24
N17485 X57.771 Y-29.565
N17490 X58.446 Y-30.849
N17495 X58.777 Y-31.478
N17500 X58.862 Y-31.653
N17505 X58.95 Y-31.854
N17510 X59.035 Y-32.055
N17515 X59.112 Y-32.257
N17520 X59.321 Y-32.86
N17525 X59.723 Y-34.067
N17530 X59.789 Y-34.268
N17535 X59.917 Y-34.67
N17540 X59.974 Y-34.871
N17545 X60.071 Y-35.273
N17550 X60.115 Y-35.475
N17555 X60.187 Y-35.877
N17560 X60.221 Y-36.078
N17565 X60.417 Y-37.285
N17570 X60.449 Y-37.486
N17575 X60.508 Y-37.888
N17580 X60.535 Y-38.089
N17585 X60.568 Y-38.492
N17590 X60.583 Y-38.693
N17595 Y-41.307
N17600 X60.551 Y-41.71
N17605 X60.535 Y-41.911
N17610 X60.508 Y-42.112
N17615 X60.449 Y-42.514
N17620 X60.417 Y-42.715
N17625 X60.221 Y-43.922
N17630 X60.184 Y-44.14
N17635 X60.115 Y-44.525
N17640 X60.071 Y-44.727
N17645 X59.974 Y-45.129
N17650 X59.917 Y-45.33
N17655 X59.782 Y-45.753
N17660 X59.723 Y-45.933
N17665 X59.321 Y-47.14
N17670 X59.112 Y-47.743
N17675 X59.035 Y-47.945
N17680 X58.95 Y-48.146
N17685 X58.862 Y-48.347
N17690 X58.777 Y-48.522
N17695 X57.918 Y-50.157
N17700 X57.771 Y-50.435
N17705 X57.595 Y-50.76
N17710 X57.57 Y-50.802
N17715 X57.472 Y-50.962
N17720 X57.369 Y-51.124
N17725 X56.967 Y-51.692
N17730 X56.912 Y-51.766
N17735 X55.961 Y-53.031
N17740 X55.76 Y-53.289
N17745 X55.692 Y-53.375
N17750 X55.559 Y-53.539
N17755 X55.528 Y-53.576
N17760 X55.358 Y-53.768
N17765 X55.152 Y-53.978
N17770 X54.952 Y-54.18
N17775 X54.535 Y-54.582
N17780 X53.488 Y-55.587
N17785 X53.347 Y-55.717
N17790 X53.03 Y-55.99
N17795 X52.744 Y-56.21
N17800 X52.543 Y-56.359
N17805 X51.037 Y-57.398
N17810 X50.733 Y-57.602
N17815 X50.427 Y-57.8
N17820 X50.331 Y-57.853
N17825 X49.929 Y-58.067
N17830 X49.728 Y-58.172
N17835 X49.125 Y-58.459
N17840 X47.918 Y-59.031
N17845 X47.717 Y-59.121
N17850 X47.315 Y-59.284
N17855 X47.114 Y-59.361
N17860 X46.51 Y-59.545
N17865 X45.103 Y-59.953
N17870 X44.701 Y-60.067
N17875 X44.5 Y-60.123
N17880 X44.095 Y-60.213
N17885 X43.896 Y-60.253
N17890 X43.293 Y-60.339
N17895 X42.891 Y-60.389
N17900 X41.885 Y-60.511
N17905 X41.282 Y-60.58
N17910 X40.679 Y-60.617
N17915 X40.478 Y-60.615
N17920 X40.076 Y-60.605
N17925 X39.875 Y-60.598
N17930 X38.065 Y-60.525
N17935 X37.864 Y-60.508
N17940 X37.462 Y-60.467
N17945 X37.26 Y-60.438
N17950 X36.858 Y-60.367
N17955 X36.657 Y-60.329
N17960 X35.451 Y-60.083
N17965 X34.847 Y-59.956
N17970 X34.646 Y-59.909
N17975 X34.244 Y-59.803
N17980 X34.043 Y-59.745
N17985 X33.641 Y-59.606
N17990 X33.44 Y-59.532
N17995 X31.831 Y-58.921
N18000 X31.539 Y-58.806
N18005 X31.429 Y-58.758
N18010 X31.027 Y-58.568
N18015 X30.826 Y-58.471
N18020 X28.967 Y-57.398
N18025 X28.815 Y-57.307
N18030 X28.315 Y-56.995
N18035 X28.212 Y-56.924
N18040 X27.608 Y-56.461
N18045 X27.407 Y-56.298
N18050 X26.291 Y-55.386
N18055 X26.201 Y-55.31
N18060 X26. Y-55.136
N18065 X25.825 Y-54.984
N18070 X25.611 Y-54.783
N18075 X25.236 Y-54.381
N18080 X24.81 Y-53.9
N18085 G3 X24.566 Y-53.759 I-0.362 J-0.344
N18090 G1 X24.507 Y-53.751 Z-3.421
N18095 X24.448 Y-53.744 Z-3.41
N18100 X24.378 Y-53.758 Z-3.387
N18105 X24.313 Y-53.771 Z-3.353
N18110 X24.254 Y-53.783 Z-3.31
N18115 X24.202 Y-53.817 Z-3.248
N18120 X24.16 Y-53.845 Z-3.177
N18125 X24.129 Y-53.865 Z-3.097
N18130 X24.11 Y-53.878 Z-3.013
N18135 X24.103 Y-53.882 Z-2.926
N18140 G0 Z5.
N18145 X22.861 Y-56.582
N18150 Z-1.45
N18155 G1 Z-1.95 F1000.
N18160 X22.868 Y-56.578 Z-2.037
N18165 X22.887 Y-56.567 Z-2.121
N18170 X22.919 Y-56.548 Z-2.2
N18175 X22.962 Y-56.523 Z-2.271
N18180 X23.015 Y-56.492 Z-2.333
N18185 X23.076 Y-56.455 Z-2.383
N18190 X23.144 Y-56.415 Z-2.42
N18195 X23.217 Y-56.373 Z-2.442
N18200 X23.292 Y-56.329 Z-2.45
N18205 G3 X25.498 Y-54.686 I-6.476 J11.
N18210 G1 X25.604 Y-54.58
N18215 X25.649 Y-54.437
N18220 X25.675 Y-54.29
N18225 X25.687 Y-54.131
N18230 Y-53.939
N18235 X25.668 Y-53.702
N18240 X25.661 Y-53.66
N18245 X25.606 Y-53.448
N18250 X25.512 Y-53.251
N18255 X25.383 Y-53.074
N18260 X24.759 Y-52.369
N18265 X24.391 Y-51.934
N18270 X24.257 Y-51.766
N18275 X24.19 Y-51.667
N18280 X23.858 Y-51.163
N18285 X23.788 Y-51.054
N18290 X22.967 Y-49.755
N18295 X22.607 Y-49.151
N18300 X22.581 Y-49.105
N18305 X22.38 Y-48.679
N18310 X21.724 Y-47.14
N18315 X21.472 Y-46.537
N18320 X21.404 Y-46.336
N18325 X21.272 Y-45.933
N18330 X21.218 Y-45.732
N18335 X21.018 Y-44.928
N18340 X20.77 Y-43.922
N18345 X20.631 Y-43.319
N18350 X20.599 Y-43.117
N18355 X20.548 Y-42.715
N18360 X20.528 Y-42.514
N18365 X20.382 Y-40.704
N18370 X20.369 Y-40.502
N18375 X20.349 Y-40.101
N18380 Y-39.899
N18385 X20.369 Y-39.497
N18390 X20.382 Y-39.296
N18395 X20.528 Y-37.486
N18400 X20.548 Y-37.285
N18405 X20.599 Y-36.883
N18410 X20.631 Y-36.681
N18415 X20.771 Y-36.074
N18420 X21.118 Y-34.67
N18425 X21.218 Y-34.268
N18430 X21.272 Y-34.067
N18435 X21.404 Y-33.664
N18440 X21.472 Y-33.463
N18445 X21.724 Y-32.86
N18450 X22.38 Y-31.321
N18455 X22.581 Y-30.895
N18460 X22.607 Y-30.849
N18465 X22.983 Y-30.218
N18470 X23.788 Y-28.946
N18475 X23.858 Y-28.837
N18480 X24.19 Y-28.333
N18485 X24.257 Y-28.234
N18490 X24.391 Y-28.066
N18495 X24.759 Y-27.631
N18500 X25.828 Y-26.424
N18505 X26.008 Y-26.223
N18510 X26.201 Y-26.013
N18515 X26.402 Y-25.812
N18520 X26.603 Y-25.629
N18525 X26.853 Y-25.418
N18530 X27.005 Y-25.292
N18535 X28.212 Y-24.307
N18540 X28.333 Y-24.211
N18545 X28.86 Y-23.809
N18550 X29.016 Y-23.703
N18555 X29.619 Y-23.352
N18560 X31.265 Y-22.401
N18565 X31.429 Y-22.315
N18570 X31.63 Y-22.222
N18575 X32.032 Y-22.052
N18580 X32.159 Y-21.999
N18585 X33.842 Y-21.361
N18590 X34.043 Y-21.285
N18595 X34.244 Y-21.216
N18600 X34.445 Y-21.151
N18605 X34.646 Y-21.088
N18610 X34.847 Y-21.042
N18615 X35.451 Y-20.913
N18620 X36.657 Y-20.667
N18625 X37.26 Y-20.547
N18630 X37.462 Y-20.514
N18635 X37.864 Y-20.47
N18640 X38.065 Y-20.452
N18645 X39.875 Y-20.379
N18650 X40.076 Y-20.372
N18655 X40.478 Y-20.36
N18660 X40.679 Y-20.359
N18665 X41.15 Y-20.39
N18670 X41.282 Y-20.4
N18675 X43.092 Y-20.619
N18680 X43.293 Y-20.645
N18685 X43.695 Y-20.705
N18690 X43.896 Y-20.737
N18695 X44.5 Y-20.889
N18700 X44.902 Y-21.004
N18705 X46.51 Y-21.471
N18710 X47.114 Y-21.682
N18715 X47.315 Y-21.765
N18720 X47.918 Y-22.05
N18725 X49.125 Y-22.623
N18730 X49.728 Y-22.923
N18735 X49.873 Y-23.005
N18740 X49.929 Y-23.038
N18745 X50.331 Y-23.303
N18750 X50.532 Y-23.44
N18755 X51.739 Y-24.273
N18760 X51.94 Y-24.414
N18765 X52.342 Y-24.708
N18770 X52.472 Y-24.815
N18775 X52.543 Y-24.875
N18780 X52.707 Y-25.016
N18785 X54.173 Y-26.424
N18790 X54.353 Y-26.598
N18795 X54.576 Y-26.826
N18800 X54.755 Y-27.017
N18805 X54.956 Y-27.258
N18810 X55.388 Y-27.832
N18815 X56.163 Y-28.862
N18820 X56.294 Y-29.038
N18825 X56.571 Y-29.441
N18830 X56.7 Y-29.642
N18835 X56.922 Y-30.044
N18840 X57.661 Y-31.452
N18845 X57.771 Y-31.667
N18850 X57.972 Y-32.064
N18855 X58.062 Y-32.257
N18860 X58.224 Y-32.659
N18865 X58.896 Y-34.67
N18870 X58.958 Y-34.871
N18875 X59.07 Y-35.273
N18880 X59.122 Y-35.475
N18885 X59.232 Y-36.078
N18890 X59.526 Y-37.888
N18895 X59.555 Y-38.089
N18900 X59.608 Y-38.693
N18905 Y-40.503
N18910 Y-41.307
N18915 X59.555 Y-41.911
N18920 X59.526 Y-42.112
N18925 X59.232 Y-43.922
N18930 X59.122 Y-44.525
N18935 X59.07 Y-44.727
N18940 X58.958 Y-45.129
N18945 X58.896 Y-45.33
N18950 X58.224 Y-47.341
N18955 X58.062 Y-47.743
N18960 X57.968 Y-47.945
N18965 X57.764 Y-48.347
N18970 X57.661 Y-48.548
N18975 X56.922 Y-49.956
N18980 X56.7 Y-50.358
N18985 X56.565 Y-50.569
N18990 X56.294 Y-50.962
N18995 X56.144 Y-51.163
N19000 X55.085 Y-52.571
N19005 X54.956 Y-52.742
N19010 X54.755 Y-52.983
N19015 X54.576 Y-53.174
N19020 X54.353 Y-53.402
N19025 X54.152 Y-53.597
N19030 X52.707 Y-54.984
N19035 X52.543 Y-55.125
N19040 X52.472 Y-55.185
N19045 X52.342 Y-55.292
N19050 X51.937 Y-55.587
N19055 X51.739 Y-55.727
N19060 X50.484 Y-56.593
N19065 X50.331 Y-56.697
N19070 X49.929 Y-56.962
N19075 X49.873 Y-56.995
N19080 X49.728 Y-57.077
N19085 X49.125 Y-57.377
N19090 X47.717 Y-58.045
N19095 X47.315 Y-58.235
N19100 X47.114 Y-58.318
N19105 X46.51 Y-58.529
N19110 X44.701 Y-59.054
N19115 X44.5 Y-59.111
N19120 X43.896 Y-59.263
N19125 X43.494 Y-59.325
N19130 X43.293 Y-59.355
N19135 X43.092 Y-59.381
N19140 X41.282 Y-59.6
N19145 X41.081 Y-59.615
N19150 X40.679 Y-59.641
N19155 X40.478 Y-59.64
N19160 X40.076 Y-59.628
N19165 X39.674 Y-59.613
N19170 X38.065 Y-59.548
N19175 X37.864 Y-59.53
N19180 X37.462 Y-59.486
N19185 X37.26 Y-59.453
N19190 X36.657 Y-59.333
N19195 X35.451 Y-59.087
N19200 X34.847 Y-58.958
N19205 X34.646 Y-58.912
N19210 X34.445 Y-58.849
N19215 X34.244 Y-58.784
N19220 X34.043 Y-58.715
N19225 X32.635 Y-58.182
N19230 X32.159 Y-58.001
N19235 X31.831 Y-57.863
N19240 X31.63 Y-57.778
N19245 X31.429 Y-57.685
N19250 X31.265 Y-57.599
N19255 X29.523 Y-56.593
N19260 X29.016 Y-56.297
N19265 X28.86 Y-56.191
N19270 X28.333 Y-55.789
N19275 X28.212 Y-55.693
N19280 X27.005 Y-54.708
N19285 X26.804 Y-54.541
N19290 X26.603 Y-54.371
N19295 X26.393 Y-54.18
N19300 X26.193 Y-53.978
N19305 X26. Y-53.768
N19310 X25.799 Y-53.543
N19315 X25.383 Y-53.074
N19320 G3 X25.139 Y-52.933 I-0.362 J-0.344
N19325 G1 X25.079 Y-52.926 Z-2.446
N19330 X25.02 Y-52.919 Z-2.435
N19335 X24.951 Y-52.933 Z-2.412
N19340 X24.886 Y-52.946 Z-2.378
N19345 X24.827 Y-52.958 Z-2.335
N19350 X24.775 Y-52.992 Z-2.273
N19355 X24.732 Y-53.019 Z-2.202
N19360 X24.701 Y-53.04 Z-2.122
N19365 X24.682 Y-53.052 Z-2.038
N19370 X24.676 Y-53.056 Z-1.951
N19375 G0 Z5.
N19380 X23.713 Y-56.085
N19385 Z-0.475
N19390 G1 Z-0.975 F1000.
N19395 X23.719 Y-56.081 Z-1.062
N19400 X23.738 Y-56.069 Z-1.146
N19405 X23.769 Y-56.049 Z-1.225
N19410 X23.812 Y-56.022 Z-1.296
N19415 X23.864 Y-55.989 Z-1.358
N19420 X23.924 Y-55.95 Z-1.408
N19425 X23.99 Y-55.908 Z-1.445
N19430 X24.062 Y-55.863 Z-1.467
N19435 X24.135 Y-55.816 Z-1.475
N19440 G3 X26.282 Y-54.099 I-6.853 J10.769
N19445 G1 X26.385 Y-53.989
N19450 X26.43 Y-53.846
N19455 X26.456 Y-53.698
N19460 X26.468 Y-53.54
N19465 Y-53.348
N19470 X26.448 Y-53.11
N19475 X26.442 Y-53.069
N19480 X26.386 Y-52.857
N19485 X26.293 Y-52.66
N19490 X26.164 Y-52.483
N19495 X25.528 Y-51.766
N19500 X25.396 Y-51.611
N19505 X25.024 Y-51.163
N19510 X24.994 Y-51.126
N19515 X24.887 Y-50.962
N19520 X24.503 Y-50.358
N19525 X23.74 Y-49.151
N19530 X23.622 Y-48.95
N19535 X23.386 Y-48.524
N19540 X23.303 Y-48.347
N19545 X22.983 Y-47.603
N19550 X22.443 Y-46.336
N19555 X22.38 Y-46.182
N19560 X22.288 Y-45.933
N19565 X22.229 Y-45.732
N19570 X22.124 Y-45.33
N19575 X22.073 Y-45.129
N19580 X21.627 Y-43.319
N19585 X21.59 Y-43.117
N19590 X21.53 Y-42.715
N19595 X21.508 Y-42.514
N19600 X21.361 Y-40.704
N19605 X21.348 Y-40.503
N19610 X21.325 Y-40.101
N19615 Y-39.899
N19620 X21.348 Y-39.497
N19625 X21.361 Y-39.296
N19630 X21.508 Y-37.486
N19635 X21.53 Y-37.285
N19640 X21.59 Y-36.883
N19645 X21.627 Y-36.681
N19650 X22.073 Y-34.871
N19655 X22.124 Y-34.67
N19660 X22.229 Y-34.268
N19665 X22.288 Y-34.067
N19670 X22.38 Y-33.818
N19675 X22.443 Y-33.664
N19680 X23.129 Y-32.055
N19685 X23.303 Y-31.653
N19690 X23.386 Y-31.476
N19695 X23.622 Y-31.05
N19700 X23.74 Y-30.849
N19705 X24.63 Y-29.441
N19710 X24.887 Y-29.038
N19715 X24.994 Y-28.874
N19720 X25.024 Y-28.837
N19725 X25.396 Y-28.389
N19730 X25.528 Y-28.234
N19735 X26.603 Y-27.021
N19740 X26.961 Y-26.625
