%
(103)
(T1 D=5. CR=0. - ZMIN=-20.5 - FLAT END MILL)
N10 G90 G94 G17 G91.1
N15 G21
N20 G53 G0 Z0.
(ADAPTIVE1)
N25 T1 M6
N30 S8000 M3
N35 G17 G90 G94
N40 G54
N45 G64 P0.1 Q0.1
N50 G0 X-76.519 Y-40.318
N55 G43 Z15. H1
N60 G0 Z-8.74
N65 G1 Z-9.24 F680.
N70 X-76.516 Y-40.311 Z-9.327
N75 X-76.506 Y-40.291 Z-9.411
N80 X-76.49 Y-40.258 Z-9.49
N85 X-76.469 Y-40.213 Z-9.561
N90 X-76.442 Y-40.157 Z-9.623
N95 X-76.411 Y-40.093 Z-9.673
N100 X-76.378 Y-40.021 Z-9.71
N105 X-76.341 Y-39.945 Z-9.732
N110 X-76.304 Y-39.867 Z-9.74
N115 G3 X-75.397 Y-37.27 I-11.528 J5.482
N120 G1 X-75.369 Y-37.123
N125 G2 X-75.436 Y-27.376 I371.181 J7.449
N130 G1 X-75.442 Y-12.922
N135 X-75.466 Y-12.686
N140 X-75.538 Y-12.46
N145 X-75.653 Y-12.253
N150 G2 X-76.562 Y-10.542 I11.736 J7.325
N155 X-76.919 Y-8.931 I17.763 J4.786
N160 G1 X-76.944 Y-8.73
N165 X-76.956 Y-8.528
N170 G2 X-76.775 Y-6.516 I12.17 J-0.081
N175 X-76.286 Y-5.211 I60.688 J-21.967
N180 G1 X-76.043 Y-4.508
N185 X-75.859 Y-3.798
N190 G3 X-75.518 Y-0.274 I-19.78 J3.695
N195 X-75.451 Y8.587 I-295.12 J6.652
N200 G1 X-75.458 Y28.081
N205 X-75.459 Y32.512
N210 X-75.358 Y32.943
N215 X-75.129 Y33.323
N220 X-74.528 Y33.973
N225 X-73.764 Y34.422
N230 X-72.93 Y34.722
N235 X-72.066 Y34.92
N240 G2 X-68.537 Y35.218 I3.804 J-24.037
N245 X-64.107 Y35.274 I4.075 J-147.416
N250 G1 X-62.335 Y35.279
N255 X-58.791 Y35.281
N260 X-42.168 Y35.28
N265 X-42.048 Y35.286
N270 X-41.93 Y35.305
N275 X-41.814 Y35.335
N280 X-41.667 Y35.382
N285 G2 X-37.643 Y36.295 I40.019 J-167.15
N290 G1 X-37.239 Y36.344
N295 X-37.038 Y36.37
N300 X-33.817 Y36.76
N305 X-33.616 Y36.768
N310 X-33.214 Y36.781
N315 X-33.012 Y36.782
N320 X51.119
N325 G2 X52.328 Y36.678 I0.214 J-4.56
N330 X53.121 Y36.323 I-0.778 J-2.805
N335 G1 X53.249 Y36.246
N340 X53.615 Y36.079
N345 X54.099 Y35.903
N350 X54.767 Y35.721
N355 X55.637 Y35.556
N360 G3 X60.058 Y35.309 I4.189 J35.227
N365 X67.147 Y35.275 I5.508 J409.205
N370 G1 X72.685 Y35.273
N375 X72.903 Y35.232
N380 X73.314 Y35.067
N385 X74.012 Y34.521
N390 X74.497 Y33.779
N395 X74.824 Y32.956
N400 X75.04 Y32.096
N405 G2 X75.366 Y28.57 I-21.977 J-3.813
N410 X75.439 Y19.71 I-300.404 J-6.896
N415 G1 X75.445 Y5.532
N420 X75.449 Y-4.046
N425 X75.456 Y-4.172
N430 X75.476 Y-4.296
N435 X75.51 Y-4.417
N440 X75.539 Y-4.506
N445 X76.222 Y-6.718
N450 X76.333 Y-7.121
N455 G2 X76.858 Y-10.338 I-78.105 J-14.39
N460 G1 X76.869 Y-10.54
N465 X76.944 Y-12.953
N470 X76.946 Y-13.154
N475 X76.942 Y-13.557
N480 X76.934 Y-13.758
N485 X76.681 Y-16.196
N490 X76.661 Y-16.372
N495 X76.565 Y-16.976
N500 X75.981 Y-19.389
N505 G3 X75.52 Y-23.788 I21.497 J-4.477
N510 X75.462 Y-32.428 I317.176 J-6.416
N515 G1 X75.381 Y-32.864
N520 X75.163 Y-33.249
N525 X74.575 Y-33.912
N530 X73.816 Y-34.37
N535 X72.985 Y-34.677
N540 X72.122 Y-34.879
N545 G2 X68.594 Y-35.184 I-3.809 J23.493
N550 X61.274 Y-35.251 I-6.126 J269.255
N555 G1 X61.125 Y-35.289
N560 X60.982 Y-35.338
N565 G2 X59.774 Y-35.721 I-2.794 J6.705
N570 G1 X57.963 Y-36.202
N575 X57.761 Y-36.252
N580 X57.359 Y-36.338
N585 X57.158 Y-36.378
N590 X54.707 Y-36.686
N595 X54.541 Y-36.706
N600 X53.937 Y-36.744
N605 X53.736
N610 X51.321 Y-36.722
N615 X51.119 Y-36.709
N620 X50.717 Y-36.677
N625 X50.516 Y-36.653
N630 X48.1 Y-36.305
N635 G2 X46.49 Y-35.893 I2.755 J14.132
N640 G3 X42.992 Y-35.367 I-4.181 J-15.899
N645 X35.904 Y-35.264 I-5.598 J-141.427
N650 G1 X33.246 Y-35.256
N655 X17.296 Y-35.258
N660 X-3.971 Y-35.262
N665 X-54.48 Y-35.27
N670 X-70.652 Y-35.273
N675 X-70.87 Y-35.231
N680 X-71.281 Y-35.066
N685 X-71.986 Y-34.529
N690 X-72.478 Y-33.792
N695 X-72.81 Y-32.97
N700 X-73.03 Y-32.112
N705 G2 X-73.364 Y-28.587 I21.551 J3.822
N710 X-73.435 Y-19.727 I274.78 J6.626
N715 G1 X-73.442 Y-14.887
N720 G3 X-73.961 Y-13.917 I-1.167 J-0.001
N725 G2 X-74.629 Y-13.355 I1.982 J3.036
N730 G1 X-75.279 Y-12.708
N735 X-75.481 Y-12.487
N740 X-75.585 Y-12.35
N745 X-75.653 Y-12.253
N750 X-75.655 Y-12.25 Z-9.739
N755 G2 X-76.162 Y-11.688 Z-9.546 I3.749 J3.883
N760 G1 X-76.177 Y-11.669 Z-9.54
N765 G2 X-76.758 Y-10.734 I4.27 J3.302
N770 G1 X-76.781 Y-10.678
N775 X-76.797 Y-10.62
N780 X-76.806 Y-10.56
N785 X-77.119 Y-7.083
N790 X-77.12 Y-7.023
N795 X-77.115 Y-6.962
N800 X-77.102 Y-6.903
N805 G2 X-76.697 Y-5.879 I5.195 J-1.464
N810 G1 X-76.686 Y-5.858 Z-9.546
N815 G2 X-76.288 Y-5.214 Z-9.739 I4.779 J-2.509
N820 G1 X-76.286 Y-5.211 Z-9.74
N825 X-76.245 Y-5.109
N830 X-76.054 Y-4.707
N835 X-75.957 Y-4.506
N840 X-74.474 Y-1.54
N845 X-74.255 Y-1.041
N850 X-74.069 Y-0.504
N855 X-73.877 Y0.238
N860 G3 X-73.528 Y3.761 I-20.215 J3.785
N865 X-73.458 Y10.849 I-201.655 J5.54
N870 G1 X-73.453 Y14.394
N875 X-73.458 Y29.901
N880 X-73.376 Y30.336
N885 X-73.2 Y30.743
N890 X-72.703 Y31.476
N895 X-72.008 Y32.027
N900 X-71.215 Y32.422
N905 X-70.373 Y32.698
N910 G2 X-66.865 Y33.161 I4.016 J-16.912
N915 X-60.664 Y33.27 I5.216 J-120.35
N920 G1 X-58.892 Y33.278
N925 X-56.233 Y33.28
N930 X-47.512 Y33.281
N935 X-47.344 Y33.293
N940 X-47.18 Y33.329
N945 X-47.023 Y33.388
N950 X-45.692 Y34.001
N955 G2 X-41.813 Y35.335 I41.28 J-113.776
N960 G1 X-41.734 Y35.371
N965 X-41.662 Y35.421
N970 X-41.601 Y35.483
N975 X-41.55 Y35.554
N980 X-41.513 Y35.633
N985 X-41.49 Y35.717
N990 X-41.482 Y35.804
N995 X-41.489 Y35.891
N1000 X-41.511 Y35.975
N1005 X-41.541 Y36.057 Z-9.732
N1010 X-41.569 Y36.136 Z-9.71
N1015 X-41.596 Y36.21 Z-9.673
N1020 X-41.62 Y36.277 Z-9.623
N1025 X-41.641 Y36.335 Z-9.561
N1030 X-41.657 Y36.382 Z-9.49
N1035 X-41.67 Y36.417 Z-9.411
N1040 X-41.678 Y36.438 Z-9.327
N1045 X-41.68 Y36.446 Z-9.24
N1050 G0 Z5.
N1055 X-75.43 Y-2.386
N1060 Z-8.74
N1065 G1 Z-9.24 F680.
N1070 X-75.424 Y-2.381 Z-9.327
N1075 X-75.405 Y-2.369 Z-9.411
N1080 X-75.374 Y-2.349 Z-9.49
N1085 X-75.332 Y-2.322 Z-9.561
N1090 X-75.28 Y-2.289 Z-9.623
N1095 X-75.22 Y-2.25 Z-9.673
N1100 X-75.153 Y-2.208 Z-9.71
N1105 X-75.082 Y-2.162 Z-9.732
N1110 X-75.009 Y-2.115 Z-9.74
N1115 G3 X-74.474 Y-1.54 I-0.855 J1.332
N1120 G1 X-72.538 Y2.332
N1125 X-72.263 Y2.96
N1130 X-72.075 Y3.5
N1135 X-71.882 Y4.248
N1140 G3 X-71.531 Y7.77 I-20.305 J3.802
N1145 X-71.459 Y14.859 I-198.983 J5.563
N1150 G1 X-71.455 Y18.403
N1155 X-71.458 Y27.264
N1160 X-71.445 Y27.707
N1165 X-71.355 Y28.141
N1170 X-71.012 Y28.958
N1175 X-70.417 Y29.615
N1180 X-69.68 Y30.107
N1185 X-68.869 Y30.463
N1190 X-68.02 Y30.716
N1195 G2 X-64.508 Y31.156 I4.133 J-18.762
N1200 X-58.306 Y31.269 I5.321 J-121.919
N1205 G1 X-54.746 Y31.277
N1210 X-51.185 Y31.291
N1215 X-50.984 Y31.354
N1220 X-50.797 Y31.444
N1225 G2 X-48.944 Y32.502 I13.308 J-21.146
N1230 G1 X-47.023 Y33.388
N1235 G3 X-46.801 Y34.059 I-0.225 J0.446
N1240 G1 X-46.841 Y34.137 Z-9.732
N1245 X-46.878 Y34.212 Z-9.71
N1250 X-46.914 Y34.283 Z-9.673
N1255 X-46.946 Y34.346 Z-9.623
N1260 X-46.974 Y34.401 Z-9.561
N1265 X-46.996 Y34.446 Z-9.49
N1270 X-47.013 Y34.479 Z-9.411
N1275 X-47.023 Y34.499 Z-9.327
N1280 X-47.027 Y34.506 Z-9.24
N1285 G0 Z5.
N1290 X-73.494 Y1.487
N1295 Z-8.74
N1300 G1 Z-9.24 F680.
N1305 X-73.487 Y1.491 Z-9.327
N1310 X-73.468 Y1.504 Z-9.411
N1315 X-73.437 Y1.523 Z-9.49
N1320 X-73.395 Y1.55 Z-9.561
N1325 X-73.343 Y1.584 Z-9.623
N1330 X-73.283 Y1.622 Z-9.673
N1335 X-73.217 Y1.665 Z-9.71
N1340 X-73.146 Y1.71 Z-9.732
N1345 X-73.073 Y1.757 Z-9.74
N1350 G3 X-72.538 Y2.332 I-0.855 J1.332
N1355 G1 X-70.527 Y6.355
N1360 X-70.266 Y6.949
N1365 X-70.078 Y7.491
N1370 X-69.885 Y8.24
N1375 G3 X-69.533 Y11.762 I-20.331 J3.807
N1380 X-69.461 Y18.851 I-198.232 J5.57
N1385 G1 X-69.456 Y22.395
N1390 X-69.457 Y25.054
N1395 X-69.442 Y25.94
N1400 X-69.133 Y26.77
N1405 X-68.567 Y27.452
N1410 X-67.851 Y27.974
N1415 X-67.053 Y28.358
N1420 X-66.211 Y28.635
N1425 G2 X-62.707 Y29.131 I4.205 J-17.097
N1430 X-55.621 Y29.267 I5.86 J-120.301
N1435 G1 X-54.494 Y29.277
N1440 X-54.247 Y29.303
N1445 X-54.012 Y29.382
N1450 X-53.799 Y29.508
N1455 X-53.019 Y30.088
N1460 X-52.938 Y30.144
N1465 X-52.334 Y30.53
N1470 X-50.797 Y31.444
N1475 G3 X-50.646 Y32.135 I-0.27 J0.421
N1480 G1 X-50.693 Y32.208 Z-9.732
N1485 X-50.739 Y32.279 Z-9.71
N1490 X-50.781 Y32.345 Z-9.673
N1495 X-50.82 Y32.405 Z-9.623
N1500 X-50.853 Y32.457 Z-9.561
N1505 X-50.88 Y32.499 Z-9.49
N1510 X-50.9 Y32.53 Z-9.411
N1515 X-50.912 Y32.549 Z-9.327
N1520 X-50.916 Y32.556 Z-9.24
N1525 G0 Z5.
N1530 X-71.482 Y5.51
N1535 Z-8.74
N1540 G1 Z-9.24 F680.
N1545 X-71.476 Y5.514 Z-9.327
N1550 X-71.457 Y5.526 Z-9.411
N1555 X-71.426 Y5.546 Z-9.49
N1560 X-71.384 Y5.573 Z-9.561
N1565 X-71.332 Y5.606 Z-9.623
N1570 X-71.272 Y5.645 Z-9.673
N1575 X-71.206 Y5.688 Z-9.71
N1580 X-71.135 Y5.733 Z-9.732
N1585 X-71.062 Y5.78 Z-9.74
N1590 G3 X-70.527 Y6.355 I-0.855 J1.332
N1595 G1 X-68.515 Y10.377
N1600 X-68.268 Y10.942
N1605 X-68.08 Y11.484
N1610 X-67.887 Y12.233
N1615 G3 X-67.535 Y15.755 I-20.336 J3.808
N1620 X-67.462 Y23.73 I-228.791 J6.094
N1625 G1 X-67.334 Y24.156
N1630 X-66.944 Y24.952
N1635 X-66.331 Y25.591
N1640 X-65.588 Y26.074
N1645 X-64.776 Y26.428
N1650 X-63.927 Y26.682
N1655 G2 X-60.417 Y27.139 I4.234 J-18.832
N1660 X-57.116 Y27.245 I3.845 J-68.32
N1665 G1 X-56.842 Y27.284
N1670 X-56.585 Y27.386
N1675 X-56.36 Y27.548
N1680 X-56.213 Y27.674
N1685 X-55.718 Y28.077
N1690 X-55.555 Y28.2
N1695 X-53.799 Y29.508
N1700 G3 X-53.721 Y30.21 I-0.312 J0.39
N1705 G1 X-53.775 Y30.278 Z-9.732
N1710 X-53.828 Y30.344 Z-9.71
N1715 X-53.877 Y30.406 Z-9.673
N1720 X-53.922 Y30.461 Z-9.623
N1725 X-53.96 Y30.509 Z-9.561
N1730 X-53.991 Y30.548 Z-9.49
N1735 X-54.014 Y30.577 Z-9.411
N1740 X-54.028 Y30.595 Z-9.327
N1745 X-54.033 Y30.601 Z-9.24
N1750 G0 Z5.
N1755 X-69.471 Y9.532
N1760 Z-8.74
N1765 G1 Z-9.24 F680.
N1770 X-69.465 Y9.536 Z-9.327
N1775 X-69.446 Y9.549 Z-9.411
N1780 X-69.415 Y9.569 Z-9.49
N1785 X-69.373 Y9.596 Z-9.561
N1790 X-69.321 Y9.629 Z-9.623
N1795 X-69.261 Y9.667 Z-9.673
N1800 X-69.194 Y9.71 Z-9.71
N1805 X-69.123 Y9.756 Z-9.732
N1810 X-69.05 Y9.802 Z-9.74
N1815 G3 X-68.515 Y10.377 I-0.855 J1.332
N1820 G1 X-66.504 Y14.4
N1825 X-66.269 Y14.935
N1830 X-66.082 Y15.477
N1835 X-65.888 Y16.226
N1840 G3 X-65.537 Y19.749 I-20.34 J3.809
N1845 G1 X-65.506 Y20.634
N1850 X-65.489 Y21.52
N1855 X-65.395 Y21.953
N1860 X-65.062 Y22.774
N1865 X-64.484 Y23.446
N1870 X-63.762 Y23.961
N1875 X-62.963 Y24.342
N1880 X-62.121 Y24.619
N1885 G2 X-59.431 Y25.06 I3.853 J-15.063
N1890 G1 X-59.178 Y25.109
N1895 X-58.941 Y25.212
N1900 X-58.732 Y25.365
N1905 X-56.36 Y27.548
N1910 G3 X-56.355 Y28.255 I-0.351 J0.356
N1915 G1 X-56.416 Y28.317 Z-9.732
N1920 X-56.475 Y28.376 Z-9.71
N1925 X-56.531 Y28.433 Z-9.673
N1930 X-56.581 Y28.484 Z-9.623
N1935 X-56.624 Y28.527 Z-9.561
N1940 X-56.659 Y28.563 Z-9.49
N1945 X-56.685 Y28.589 Z-9.411
N1950 X-56.701 Y28.605 Z-9.327
N1955 X-56.706 Y28.611 Z-9.24
N1960 G0 Z5.
N1965 X-67.46 Y13.555
N1970 Z-8.74
N1975 G1 Z-9.24 F680.
N1980 X-67.454 Y13.559 Z-9.327
N1985 X-67.435 Y13.571 Z-9.411
N1990 X-67.404 Y13.591 Z-9.49
N1995 X-67.361 Y13.618 Z-9.561
N2000 X-67.31 Y13.651 Z-9.623
N2005 X-67.25 Y13.69 Z-9.673
N2010 X-67.183 Y13.733 Z-9.71
N2015 X-67.112 Y13.778 Z-9.732
N2020 X-67.039 Y13.825 Z-9.74
N2025 G3 X-66.504 Y14.4 I-0.855 J1.332
N2030 G1 X-66.222 Y14.964
N2035 X-65.984 Y15.406
N2040 X-65.873 Y15.607
N2045 X-64.62 Y17.819
N2050 X-64.398 Y18.261
N2055 X-64.213 Y18.717
N2060 X-63.947 Y19.562
N2065 X-63.643 Y20.395
N2070 X-63.125 Y21.114
N2075 X-62.451 Y21.689
N2080 X-61.784 Y22.072
N2085 X-61.677 Y22.141
N2090 X-61.578 Y22.222
N2095 X-61.489 Y22.312
N2100 G3 X-61.539 Y23. Z-9.546 I-0.386 J0.318
N2105 G1 X-61.557 Y23.016 Z-9.54
N2110 G3 X-62.285 Y22.916 I-0.318 J-0.386
N2115 G1 X-65.456 Y18.367
N2120 G3 X-65.307 Y17.654 I0.41 J-0.286
N2125 G1 X-65.286 Y17.642 Z-9.546
N2130 G3 X-64.62 Y17.819 Z-9.74 I0.241 J0.438
N2135 G2 X-64.009 Y18.853 I11.289 J-5.973
N2140 G1 X-62.164 Y21.439
N2145 X-61.996 Y21.667
N2150 X-61.713 Y22.043
N2155 X-61.593 Y22.194
N2160 X-59.379 Y24.702
N2165 G2 X-58.733 Y25.365 I5.774 J-4.982
N2170 G3 X-58.728 Y26.072 I-0.351 J0.356
N2175 G1 X-58.789 Y26.134 Z-9.732
N2180 X-58.848 Y26.194 Z-9.71
N2185 X-58.903 Y26.25 Z-9.673
N2190 X-58.953 Y26.301 Z-9.623
N2195 X-58.997 Y26.345 Z-9.561
N2200 X-59.032 Y26.38 Z-9.49
N2205 X-59.058 Y26.406 Z-9.411
N2210 X-59.074 Y26.423 Z-9.327
N2215 X-59.079 Y26.428 Z-9.24
N2220 G0 Z5.
N2225 X52.401 Y37.377
N2230 Z-8.74
N2235 G1 Z-9.24 F680.
N2240 X52.405 Y37.37 Z-9.327
N2245 X52.414 Y37.35 Z-9.411
N2250 X52.43 Y37.316 Z-9.49
N2255 X52.452 Y37.271 Z-9.561
N2260 X52.478 Y37.216 Z-9.623
N2265 X52.509 Y37.151 Z-9.673
N2270 X52.543 Y37.08 Z-9.71
N2275 X52.579 Y37.004 Z-9.732
N2280 X52.617 Y36.926 Z-9.74
N2285 G3 X53.12 Y36.323 I1.428 J0.681
N2290 G2 X54.055 Y35.408 I-1.434 J-2.4
N2295 G3 X55.166 Y34.451 I2.462 J1.733
N2300 G1 X55.54 Y34.259
N2305 X56.031 Y34.06
N2310 X56.669 Y33.859
N2315 X57.533 Y33.662
N2320 G3 X61.061 Y33.352 I3.939 J24.61
N2325 X69.921 Y33.28 I6.651 J274.236
N2330 G1 X70.362 Y33.229
N2335 X70.779 Y33.08
N2340 X71.539 Y32.624
N2345 X72.114 Y31.95
N2350 X72.529 Y31.167
N2355 X72.82 Y30.33
N2360 X73.021 Y29.467
N2365 G2 X73.353 Y25.941 I-23.821 J-4.018
N2370 X73.433 Y18.853 I-198.18 J-5.796
N2375 G1 X73.441 Y15.309
N2380 X73.447 Y1.131
N2385 Y0.244
N2390 X73.461 Y0.081
N2395 X73.502 Y-0.079
N2400 X73.568 Y-0.229
N2405 G2 X74.134 Y-1.287 I-28.771 J-16.065
N2410 G1 X75.071 Y-3.314
N2415 X75.272 Y-3.752
N2420 X75.335 Y-3.903
N2425 X75.51 Y-4.417
N2430 X75.52 Y-4.429 Z-9.736
N2435 G2 X76.184 Y-4.767 Z-9.546 I-3.445 J-7.59
N2440 G1 X76.205 Y-4.779 Z-9.54
N2445 G2 X78.853 Y-7.168 I-4.13 J-7.24
N2450 X78.947 Y-7.443 I-0.407 J-0.291
N2455 G1 X79.221 Y-16.153
N2460 G2 X79.145 Y-16.433 I-0.5 J-0.016
N2465 X76.652 Y-18.985 I-7.07 J4.415
N2470 G1 X76.632 Y-18.998 Z-9.546
N2475 G2 X75.991 Y-19.377 Z-9.736 I-4.557 J6.979
N2480 G1 X75.981 Y-19.389 Z-9.74
N2485 G2 X75.674 Y-20.357 I-7.708 J1.907
N2490 X74.67 Y-22.909 I-92.48 J34.934
N2495 G1 X74.505 Y-23.211
N2500 X74.32 Y-23.6
N2505 X74.141 Y-24.069
N2510 X73.955 Y-24.705
N2515 X73.775 Y-25.573
N2520 G3 X73.516 Y-29.105 I27.139 J-3.773
N2525 G1 X73.494 Y-29.991
N2530 X73.381 Y-30.42
N2535 X72.981 Y-31.21
N2540 X72.339 Y-31.821
N2545 X71.572 Y-32.265
N2550 X70.744 Y-32.579
N2555 X69.885 Y-32.797
N2560 G2 X65.694 Y-33.178 I-4.323 J24.3
N2565 G1 X65.504 Y-33.205
N2570 X65.32 Y-33.259
N2575 X65.147 Y-33.341
N2580 X63.8 Y-34.127
N2585 X63.598 Y-34.227
N2590 X63.196 Y-34.414
N2595 X63.062 Y-34.474
N2600 X60.982 Y-35.338
N2605 X60.973 Y-35.346 Z-9.737
N2610 G2 X60.576 Y-35.981 Z-9.546 I-7.407 J4.182
N2615 G1 X60.563 Y-36.001 Z-9.54
N2620 G2 X57.235 Y-38.838 I-6.997 J4.836
N2625 G1 X57.171 Y-38.863
N2630 X57.106 Y-38.88
N2635 X57.038 Y-38.887
N2640 X50.695 Y-39.13
N2645 X50.627 Y-39.128
N2650 X50.56 Y-39.117
N2655 X50.495 Y-39.097
N2660 G2 X46.959 Y-36.522 I3.071 J7.932
N2665 G1 X46.944 Y-36.503 Z-9.546
N2670 G2 X46.501 Y-35.901 Z-9.737 I6.622 J5.339
N2675 G1 X46.49 Y-35.893 Z-9.74
N2680 X45.283 Y-35.549
N2685 G2 X44.075 Y-35.118 I1.584 J6.347
N2690 G1 X42.062 Y-34.239
N2695 X41.861 Y-34.146
N2700 X41.455 Y-33.982
N2705 X40.867 Y-33.797
N2710 X40.029 Y-33.607
N2715 G3 X36.5 Y-33.318 I-3.767 J-24.338
N2720 X26.753 Y-33.257 I-7.219 J-374.731
N2725 G1 X-8.692 Y-33.262
N2730 X-59.201 Y-33.271
N2735 X-68.062 Y-33.272
N2740 X-68.498 Y-33.189
N2745 X-68.904 Y-33.012
N2750 X-69.635 Y-32.512
N2755 X-70.184 Y-31.816
N2760 X-70.579 Y-31.023
N2765 X-70.855 Y-30.181
N2770 G2 X-71.317 Y-26.673 I16.973 J4.021
N2775 X-71.428 Y-20.471 I121.031 J5.269
N2780 G1 X-71.437 Y-18.699
N2785 X-71.44 Y-16.927
N2790 X-71.451 Y-16.085
N2795 X-71.479 Y-15.793
N2800 G3 X-72.26 Y-14.786 I-1.183 J-0.112
N2805 G1 X-72.462 Y-14.714
N2810 G2 X-73.962 Y-13.918 I7.07 J15.129
N2815 G1 X-74.039 Y-13.879
N2820 X-74.123 Y-13.854
N2825 X-74.209 Y-13.843
N2830 X-74.296 Y-13.848
N2835 X-74.381 Y-13.868
N2840 X-74.461 Y-13.902
N2845 X-74.534 Y-13.95
N2850 X-74.597 Y-14.01
N2855 X-74.649 Y-14.08
N2860 X-74.695 Y-14.154 Z-9.732
N2865 X-74.739 Y-14.225 Z-9.71
N2870 X-74.781 Y-14.292 Z-9.673
N2875 X-74.818 Y-14.353 Z-9.623
N2880 X-74.851 Y-14.406 Z-9.561
N2885 X-74.877 Y-14.448 Z-9.49
N2890 X-74.896 Y-14.48 Z-9.411
N2895 X-74.908 Y-14.499 Z-9.327
N2900 X-74.912 Y-14.505 Z-9.24
N2905 G0 Z5.
N2910 X42.734 Y-35.076
N2915 Z-8.74
N2920 G1 Z-9.24 F680.
N2925 X42.73 Y-35.07 Z-9.327
N2930 X42.717 Y-35.051 Z-9.411
N2935 X42.696 Y-35.021 Z-9.49
N2940 X42.668 Y-34.98 Z-9.561
N2945 X42.633 Y-34.929 Z-9.623
N2950 X42.593 Y-34.87 Z-9.673
N2955 X42.548 Y-34.805 Z-9.71
N2960 X42.5 Y-34.735 Z-9.732
N2965 X42.451 Y-34.664 Z-9.74
N2970 G3 X41.861 Y-34.146 I-1.306 J-0.894
N2975 G1 X41.66 Y-34.052
N2980 X41.458 Y-33.938
N2985 X39.446 Y-32.715
N2990 X39.244 Y-32.586
N2995 X38.775 Y-32.318
N3000 X38.392 Y-32.138
N3005 X37.889 Y-31.949
N3010 X37.212 Y-31.756
N3015 X36.344 Y-31.581
N3020 G3 X31.925 Y-31.3 I-4.306 J-32.835
N3025 X23.95 Y-31.258 I-6.115 J-403.134
N3030 G1 X9.772 Y-31.259
N3035 X2.613 Y-31.261
N3040 X2.527 Y-31.264
N3045 X2.443 Y-31.273
N3050 X2.359 Y-31.289
N3055 X-2.419 Y-32.355
N3060 G2 X-5.84 Y-32.898 I-13.288 J72.593
N3065 X-9.061 Y-32.996 I-5.23 J119.53
N3070 G1 X-9.665 Y-32.942
N3075 X-11.677 Y-32.76
N3080 X-12.281 Y-32.69
N3085 X-12.422 Y-32.664
N3090 X-14.898 Y-32.126
N3095 G2 X-15.703 Y-31.906 I1.368 J6.588
N3100 G1 X-16.199 Y-31.758
N3105 X-17.066 Y-31.575
N3110 G3 X-20.599 Y-31.318 I-3.724 J-26.746
N3115 X-30.346 Y-31.266 I-7.172 J-434.227
N3120 G1 X-65.791 Y-31.272
N3125 X-66.227 Y-31.196
N3130 X-67.054 Y-30.877
N3135 X-67.724 Y-30.296
N3140 X-68.228 Y-29.568
N3145 X-68.594 Y-28.761
N3150 X-68.854 Y-27.914
N3155 G2 X-69.309 Y-24.404 I18.222 J4.142
N3160 X-69.43 Y-18.203 I121.219 J5.479
N3165 G1 X-69.448 Y-17.317
N3170 X-69.491 Y-16.739
N3175 X-69.562 Y-16.284
N3180 X-69.625 Y-16.024
N3185 G3 X-70.637 Y-15.137 I-1.134 J-0.272
N3190 G2 X-72.261 Y-14.789 I3.637 J20.969
N3195 G1 X-72.347 Y-14.776
N3200 X-72.434 Y-14.778
N3205 X-72.519 Y-14.795
N3210 X-72.6 Y-14.827
N3215 X-72.674 Y-14.872
N3220 X-72.739 Y-14.93
N3225 X-72.793 Y-14.998
N3230 X-72.835 Y-15.074
N3235 X-72.863 Y-15.157
N3240 X-72.883 Y-15.241 Z-9.732
N3245 X-72.902 Y-15.323 Z-9.71
N3250 X-72.921 Y-15.4 Z-9.673
N3255 X-72.937 Y-15.469 Z-9.623
N3260 X-72.952 Y-15.529 Z-9.561
N3265 X-72.963 Y-15.578 Z-9.49
N3270 X-72.972 Y-15.614 Z-9.411
N3275 X-72.977 Y-15.636 Z-9.327
N3280 X-72.979 Y-15.643 Z-9.24
N3285 G0 Z5.
N3290 X-14.744 Y-32.747
N3295 Z-8.74
N3300 G1 Z-9.24 F680.
N3305 X-14.749 Y-32.741 Z-9.327
N3310 X-14.764 Y-32.723 Z-9.411
N3315 X-14.787 Y-32.695 Z-9.49
N3320 X-14.819 Y-32.657 Z-9.561
N3325 X-14.859 Y-32.61 Z-9.623
N3330 X-14.905 Y-32.555 Z-9.673
N3335 X-14.956 Y-32.494 Z-9.71
N3340 X-15.01 Y-32.43 Z-9.732
N3345 X-15.065 Y-32.363 Z-9.74
N3350 G3 X-15.703 Y-31.905 I-1.214 J-1.015
N3355 G1 X-18.123 Y-31.055
N3360 G2 X-19.728 Y-30.298 I7.346 J17.661
N3365 G1 X-20.287 Y-30.054
N3370 X-20.817 Y-29.872
N3375 X-21.554 Y-29.683
N3380 G3 X-25.077 Y-29.34 I-3.756 J-20.317
N3385 X-32.165 Y-29.272 I-5.552 J-209.669
N3390 G1 X-36.596 Y-29.267
N3395 X-63.18 Y-29.271
N3400 X-64.066 Y-29.263
N3405 X-64.901 Y-28.966
N3410 X-65.588 Y-28.407
N3415 X-66.115 Y-27.695
N3420 X-66.504 Y-26.898
N3425 X-66.784 Y-26.058
N3430 X-66.984 Y-25.194
N3435 X-67.124 Y-24.319
N3440 G2 X-67.389 Y-19.899 I40.466 J4.642
N3445 G1 X-67.411 Y-19.013
N3450 X-67.443 Y-18.128
N3455 X-67.51 Y-17.306
N3460 G3 X-67.911 Y-15.79 I-5.158 J-0.554
N3465 X-69.084 Y-15.085 I-1.077 J-0.465
N3470 G2 X-70.449 Y-15.161 I-1.201 J9.303
N3475 G1 X-70.637 Y-15.137
N3480 G3 X-71.171 Y-15.601 I-0.035 J-0.499
N3485 G1 X-71.177 Y-15.687 Z-9.732
N3490 X-71.183 Y-15.771 Z-9.71
N3495 X-71.188 Y-15.85 Z-9.673
N3500 X-71.193 Y-15.921 Z-9.623
N3505 X-71.198 Y-15.983 Z-9.561
N3510 X-71.201 Y-16.032 Z-9.49
N3515 X-71.204 Y-16.069 Z-9.411
N3520 X-71.205 Y-16.092 Z-9.327
N3525 X-71.206 Y-16.099 Z-9.24
N3530 G0 Z5.
N3535 X-18.881 Y-31.252
N3540 Z-8.74
N3545 G1 Z-9.24 F680.
N3550 X-18.885 Y-31.246 Z-9.327
N3555 X-18.898 Y-31.227 Z-9.411
N3560 X-18.918 Y-31.196 Z-9.49
N3565 X-18.945 Y-31.154 Z-9.561
N3570 X-18.978 Y-31.102 Z-9.623
N3575 X-19.017 Y-31.042 Z-9.673
N3580 X-19.06 Y-30.976 Z-9.71
N3585 X-19.105 Y-30.905 Z-9.732
N3590 X-19.152 Y-30.832 Z-9.74
N3595 G3 X-19.728 Y-30.298 I-1.33 J-0.858
N3600 G2 X-21.54 Y-29.359 I10.853 J23.148
N3605 G1 X-22.747 Y-28.558
N3610 X-23.078 Y-28.362
N3615 X-23.441 Y-28.184
N3620 X-23.916 Y-27.997
N3625 X-24.554 Y-27.804
N3630 X-25.42 Y-27.616
N3635 G3 X-28.951 Y-27.333 I-3.852 J-25.89
N3640 X-37.811 Y-27.268 I-6.816 J-327.777
N3645 G1 X-50.217 Y-27.269
N3650 X-61.737 Y-27.271
N3655 X-62.17 Y-27.178
N3660 X-62.989 Y-26.839
N3665 X-63.654 Y-26.254
N3670 X-64.162 Y-25.528
N3675 X-64.535 Y-24.724
N3680 X-64.805 Y-23.88
N3685 G2 X-65.292 Y-20.375 I18.083 J4.3
N3690 G1 X-65.352 Y-19.49
N3695 X-65.415 Y-18.607
N3700 X-65.512 Y-17.726
N3705 X-65.641 Y-16.993
N3710 G3 X-66.228 Y-15.414 I-5.215 J-1.041
N3715 G1 X-66.349 Y-15.23
N3720 G3 X-67.74 Y-14.774 I-0.979 J-0.635
N3725 G2 X-69.084 Y-15.085 I-1.482 J3.349
N3730 G1 X-69.17 Y-15.103
N3735 X-69.251 Y-15.135
N3740 X-69.325 Y-15.181
N3745 X-69.39 Y-15.24
N3750 X-69.444 Y-15.308
N3755 X-69.485 Y-15.385
N3760 X-69.512 Y-15.468
N3765 X-69.524 Y-15.554
N3770 X-69.521 Y-15.641
N3775 X-69.511 Y-15.728 Z-9.732
N3780 X-69.501 Y-15.811 Z-9.71
N3785 X-69.492 Y-15.89 Z-9.673
N3790 X-69.483 Y-15.961 Z-9.623
N3795 X-69.476 Y-16.022 Z-9.561
N3800 X-69.47 Y-16.071 Z-9.49
N3805 X-69.465 Y-16.108 Z-9.411
N3810 X-69.463 Y-16.13 Z-9.327
N3815 X-69.462 Y-16.138 Z-9.24
N3820 G0 Z5.
N3825 X-22.025 Y-29.609
N3830 Z-8.74
N3835 G1 Z-9.24 F680.
N3840 X-22.028 Y-29.602 Z-9.327
N3845 X-22.038 Y-29.582 Z-9.411
N3850 X-22.054 Y-29.549 Z-9.49
N3855 X-22.075 Y-29.504 Z-9.561
N3860 X-22.102 Y-29.448 Z-9.623
N3865 X-22.133 Y-29.384 Z-9.673
N3870 X-22.167 Y-29.313 Z-9.71
N3875 X-22.204 Y-29.237 Z-9.732
N3880 X-22.242 Y-29.159 Z-9.74
N3885 G3 X-22.747 Y-28.558 I-1.426 J-0.687
N3890 G1 X-23.532 Y-28.038
N3895 X-24.1 Y-27.635
N3900 X-24.156 Y-27.594
N3905 X-24.961 Y-26.903
N3910 G3 X-26.282 Y-26.132 I-2.95 J-3.537
N3915 G1 X-26.847 Y-25.933
N3920 X-27.619 Y-25.73
N3925 G3 X-31.14 Y-25.36 I-3.917 J-20.35
N3930 X-38.228 Y-25.275 I-5.704 J-179.815
N3935 G1 X-40.886 Y-25.269
N3940 X-51.52
N3945 X-59.495 Y-25.271
N3950 X-59.934 Y-25.214
N3955 X-60.779 Y-24.945
N3960 X-61.484 Y-24.409
N3965 X-62.029 Y-23.71
N3970 X-62.435 Y-22.922
N3975 X-62.731 Y-22.087
N3980 X-62.946 Y-21.228
N3985 X-63.107 Y-20.356
N3990 X-63.241 Y-19.48
N3995 X-63.37 Y-18.604
N4000 X-63.519 Y-17.73
N4005 X-63.71 Y-16.865
N4010 X-63.919 Y-16.181
N4015 G3 X-64.9 Y-14.449 I-4.768 J-1.554
N4020 X-65.667 Y-14.036 I-0.936 J-0.821
N4025 G1 X-65.928 Y-14.035
N4030 X-66.183 Y-14.092
N4035 X-66.419 Y-14.203
N4040 G2 X-67.741 Y-14.77 I-3.412 J6.134
N4045 G1 X-67.819 Y-14.811
N4050 X-67.888 Y-14.865
N4055 X-67.947 Y-14.93
N4060 X-67.993 Y-15.005
N4065 X-68.026 Y-15.086
N4070 X-68.044 Y-15.172
N4075 X-68.047 Y-15.259
N4080 X-68.035 Y-15.345
N4085 X-68.008 Y-15.428
N4090 X-67.975 Y-15.509 Z-9.732
N4095 X-67.942 Y-15.586 Z-9.71
N4100 X-67.912 Y-15.659 Z-9.673
N4105 X-67.884 Y-15.725 Z-9.623
N4110 X-67.86 Y-15.782 Z-9.561
N4115 X-67.841 Y-15.828 Z-9.49
N4120 X-67.827 Y-15.862 Z-9.411
N4125 X-67.818 Y-15.883 Z-9.327
N4130 X-67.815 Y-15.89 Z-9.24
N4135 G0 Z5.
N4140 X-24.374 Y-28.036
N4145 Z-8.74
N4150 G1 Z-9.24 F680.
N4155 X-24.376 Y-28.029 Z-9.327
N4160 X-24.384 Y-28.007 Z-9.411
N4165 X-24.395 Y-27.973 Z-9.49
N4170 X-24.411 Y-27.925 Z-9.561
N4175 X-24.431 Y-27.867 Z-9.623
N4180 X-24.454 Y-27.799 Z-9.673
N4185 X-24.479 Y-27.724 Z-9.71
N4190 X-24.506 Y-27.644 Z-9.732
N4195 X-24.534 Y-27.562 Z-9.74
N4200 G3 X-24.961 Y-26.903 I-1.5 J-0.506
N4205 G1 X-25.983 Y-26.026
N4210 X-26.169 Y-25.864
N4215 X-26.637 Y-25.423
N4220 X-26.82 Y-25.222
N4225 G3 X-28.196 Y-24.275 I-2.929 J-2.782
N4230 G1 X-28.702 Y-24.07
N4235 X-29.372 Y-23.862
N4240 X-30.237 Y-23.668
N4245 G3 X-34.65 Y-23.329 I-4.472 J-29.316
N4250 X-43.511 Y-23.269 I-6.848 J-359.707
N4255 G1 X-53.259 Y-23.27
N4260 X-57.689
N4265 X-58.122 Y-23.174
N4270 X-58.94 Y-22.833
N4275 X-59.609 Y-22.253
N4280 X-60.127 Y-21.534
N4285 X-60.521 Y-20.74
N4290 X-60.825 Y-19.908
N4295 X-61.075 Y-19.058
N4300 X-61.301 Y-18.201
N4305 X-61.53 Y-17.345
N4310 X-61.785 Y-16.496
N4315 X-62.072 Y-15.709
N4320 X-62.363 Y-15.075
N4325 G3 X-63.576 Y-13.472 I-4.602 J-2.222
N4330 X-64.43 Y-13.062 I-1.06 J-1.115
N4335 G1 X-64.725 Y-13.081
N4340 X-65.006 Y-13.171
N4345 X-65.255 Y-13.328
N4350 G2 X-66.349 Y-14.161 I-11.154 J13.511
N4355 G1 X-66.419 Y-14.203
N4360 G3 X-66.557 Y-14.897 I0.278 J-0.416
N4365 G1 X-66.509 Y-14.969 Z-9.732
N4370 X-66.462 Y-15.039 Z-9.71
N4375 X-66.419 Y-15.105 Z-9.673
N4380 X-66.379 Y-15.164 Z-9.623
N4385 X-66.345 Y-15.215 Z-9.561
N4390 X-66.317 Y-15.257 Z-9.49
N4395 X-66.296 Y-15.287 Z-9.411
N4400 X-66.284 Y-15.306 Z-9.327
N4405 X-66.28 Y-15.312 Z-9.24
N4410 G0 Z5.
N4415 X-26.377 Y-26.418
N4420 Z-8.74
N4425 G1 Z-9.24 F680.
N4430 X-26.378 Y-26.411 Z-9.327
N4435 X-26.383 Y-26.389 Z-9.411
N4440 X-26.39 Y-26.353 Z-9.49
N4445 X-26.4 Y-26.304 Z-9.561
N4450 X-26.412 Y-26.243 Z-9.623
N4455 X-26.427 Y-26.173 Z-9.673
N4460 X-26.442 Y-26.096 Z-9.71
N4465 X-26.459 Y-26.014 Z-9.732
N4470 X-26.477 Y-25.928 Z-9.74
N4475 G3 X-26.82 Y-25.222 I-1.551 J-0.316
N4480 G1 X-28.383 Y-23.502
N4485 X-28.463 Y-23.412
N4490 X-28.53 Y-23.33
N4495 G3 X-29.725 Y-22.441 I-2.843 J-2.573
N4500 G1 X-30.172 Y-22.234
N4505 X-30.763 Y-22.018
N4510 X-31.556 Y-21.799
N4515 G3 X-35.072 Y-21.388 I-4.102 J-19.883
N4520 X-43.046 Y-21.278 I-6.328 J-169.935
N4525 G1 X-45.704 Y-21.27
N4530 X-54.565
N4535 X-55.451
N4540 X-56.33 Y-21.158
N4545 X-57.118 Y-20.752
N4550 X-57.767 Y-20.148
N4555 X-58.288 Y-19.431
N4560 X-58.712 Y-18.653
N4565 X-59.075 Y-17.845
N4570 X-59.407 Y-17.023
N4575 X-59.734 Y-16.2
N4580 X-60.083 Y-15.385
N4585 X-60.474 Y-14.59
N4590 X-60.844 Y-13.962
N4595 G3 X-62.109 Y-12.502 I-5.258 J-3.274
N4600 X-63.253 Y-11.883 I-2.023 J-2.372
N4605 X-64.4 Y-12.354 I-0.188 J-1.176
N4610 G2 X-65.254 Y-13.33 I-3.661 J2.341
N4615 G1 X-65.314 Y-13.393
N4620 X-65.362 Y-13.465
N4625 X-65.397 Y-13.545
N4630 X-65.417 Y-13.629
N4635 X-65.423 Y-13.716
N4640 X-65.413 Y-13.802
N4645 X-65.389 Y-13.886
N4650 X-65.35 Y-13.964
N4655 X-65.299 Y-14.034
N4660 X-65.241 Y-14.099 Z-9.732
N4665 X-65.185 Y-14.162 Z-9.71
N4670 X-65.133 Y-14.221 Z-9.673
N4675 X-65.086 Y-14.275 Z-9.623
N4680 X-65.045 Y-14.321 Z-9.561
N4685 X-65.012 Y-14.359 Z-9.49
N4690 X-64.987 Y-14.386 Z-9.411
N4695 X-64.972 Y-14.403 Z-9.327
N4700 X-64.967 Y-14.409 Z-9.24
N4705 G0 Z5.
N4710 X-28.146 Y-24.547
N4715 Z-8.74
N4720 G1 Z-9.24 F680.
N4725 X-28.147 Y-24.54 Z-9.327
N4730 X-28.15 Y-24.517 Z-9.411
N4735 X-28.156 Y-24.481 Z-9.49
N4740 X-28.164 Y-24.432 Z-9.561
N4745 X-28.173 Y-24.371 Z-9.623
N4750 X-28.184 Y-24.3 Z-9.673
N4755 X-28.196 Y-24.222 Z-9.71
N4760 X-28.208 Y-24.139 Z-9.732
N4765 X-28.222 Y-24.053 Z-9.74
N4770 G3 X-28.53 Y-23.33 I-1.564 J-0.24
N4775 G1 X-28.628 Y-23.211
N4780 X-28.787 Y-23.01
N4785 X-29.779 Y-21.602
N4790 G3 X-31.209 Y-20.482 I-3.044 J-2.415
N4795 G1 X-31.695 Y-20.259
N4800 X-32.321 Y-20.034
N4805 X-33.168 Y-19.805
N4810 G3 X-36.685 Y-19.398 I-4.227 J-21.131
N4815 X-44.659 Y-19.28 I-6.425 J-163.96
N4820 G1 X-47.317 Y-19.27
N4825 X-53.52
N4830 X-54.4 Y-19.162
N4835 X-55.201 Y-18.785
N4840 X-55.887 Y-18.224
N4845 X-56.466 Y-17.553
N4850 X-56.962 Y-16.819
N4855 X-57.408 Y-16.053
N4860 X-57.833 Y-15.276
N4865 X-58.26 Y-14.499
N4870 X-58.71 Y-13.736
N4875 X-59.198 Y-12.996
N4880 X-59.669 Y-12.392
N4885 G3 X-61.217 Y-11.018 I-5.158 J-4.251
N4890 X-62.539 Y-10.517 I-1.844 J-2.874
N4895 X-63.622 Y-11.148 I-0.034 J-1.186
N4900 G1 X-63.723 Y-11.344
N4905 X-63.807 Y-11.492
N4910 X-64.21 Y-12.091
N4915 X-64.4 Y-12.355
N4920 G3 X-64.263 Y-13.048 I0.415 J-0.278
N4925 G1 X-64.19 Y-13.097 Z-9.732
N4930 X-64.12 Y-13.143 Z-9.71
N4935 X-64.055 Y-13.187 Z-9.673
N4940 X-63.996 Y-13.227 Z-9.623
N4945 X-63.944 Y-13.261 Z-9.561
N4950 X-63.903 Y-13.289 Z-9.49
N4955 X-63.872 Y-13.31 Z-9.411
N4960 X-63.853 Y-13.322 Z-9.327
N4965 X-63.847 Y-13.327 Z-9.24
N4970 G0 Z5.
N4975 X-29.487 Y-22.844
N4980 Z-8.74
N4985 G1 Z-9.24 F680.
N4990 X-29.488 Y-22.836 Z-9.327
N4995 X-29.49 Y-22.814 Z-9.411
N5000 X-29.493 Y-22.777 Z-9.49
N5005 X-29.497 Y-22.727 Z-9.561
N5010 X-29.501 Y-22.666 Z-9.623
N5015 X-29.507 Y-22.594 Z-9.673
N5020 X-29.513 Y-22.516 Z-9.71
N5025 X-29.519 Y-22.432 Z-9.732
N5030 X-29.526 Y-22.345 Z-9.74
N5035 G3 X-29.779 Y-21.602 I-1.578 J-0.122
N5040 G2 X-30.799 Y-20.021 I9.937 J7.531
N5045 G3 X-31.916 Y-18.867 I-2.832 J-1.623
N5050 G1 X-32.265 Y-18.65
N5055 X-32.72 Y-18.42
N5060 X-33.286 Y-18.189
N5065 X-34.026 Y-17.954
N5070 G3 X-37.528 Y-17.444 I-4.305 J-17.293
N5075 X-44.614 Y-17.286 I-6.041 J-111.724
N5080 G1 X-46.386 Y-17.274
N5085 X-49.044 Y-17.271
N5090 X-51.703 Y-17.27
N5095 X-52.582 Y-17.163
N5100 X-53.401 Y-16.825
N5105 X-54.128 Y-16.317
N5110 X-54.765 Y-15.702
N5115 X-55.334 Y-15.022
N5120 X-55.86 Y-14.309
N5125 X-56.875 Y-12.856
N5130 X-57.402 Y-12.144
N5135 X-57.963 Y-11.458
N5140 X-58.538 Y-10.845
N5145 G3 X-60.418 Y-9.469 I-5.275 J-5.238
N5150 X-61.718 Y-9.069 I-1.881 J-3.797
N5155 X-62.863 Y-9.692 I-0.108 J-1.165
N5160 G1 X-63.621 Y-11.149
N5165 G3 X-63.385 Y-11.815 I0.451 J-0.215
N5170 G1 X-63.307 Y-11.853 Z-9.732
N5175 X-63.231 Y-11.889 Z-9.71
N5180 X-63.16 Y-11.923 Z-9.673
N5185 X-63.095 Y-11.954 Z-9.623
N5190 X-63.04 Y-11.98 Z-9.561
N5195 X-62.994 Y-12.002 Z-9.49
N5200 X-62.961 Y-12.018 Z-9.411
N5205 X-62.941 Y-12.027 Z-9.327
N5210 X-62.934 Y-12.031 Z-9.24
N5215 G0 Z5.
N5220 X-30.662 Y-21.289
N5225 Z-8.74
N5230 G1 Z-9.24 F680.
N5235 Y-21.282 Z-9.327
N5240 X-30.661 Y-21.259 Z-9.411
N5245 X-30.659 Y-21.222 Z-9.49
N5250 X-30.657 Y-21.172 Z-9.561
N5255 X-30.654 Y-21.111 Z-9.623
N5260 X-30.651 Y-21.04 Z-9.673
N5265 X-30.647 Y-20.961 Z-9.71
N5270 X-30.643 Y-20.877 Z-9.732
N5275 X-30.639 Y-20.79 Z-9.74
N5280 G3 X-30.798 Y-20.021 I-1.581 J0.073
N5285 G1 X-31.779 Y-18.183
N5290 G3 X-32.906 Y-16.984 I-2.959 J-1.653
N5295 G1 X-33.27 Y-16.75
N5300 X-33.72 Y-16.514
N5305 X-34.297 Y-16.269
N5310 X-35.03 Y-16.024
N5315 G3 X-38.525 Y-15.473 I-4.408 J-16.598
N5320 X-44.724 Y-15.293 I-5.688 J-88.918
N5325 X-50.04 Y-15.271 I-4.634 J-483.62
N5330 G1 X-50.92 Y-15.159
N5335 X-51.753 Y-14.857
N5340 X-52.512 Y-14.401
N5345 X-53.2 Y-13.842
N5350 X-53.829 Y-13.218
N5355 G2 X-56.149 Y-10.539 I151.635 J133.599
N5360 G1 X-56.766 Y-9.902
N5365 X-57.416 Y-9.3
N5370 X-58.064 Y-8.785
N5375 G3 X-60.063 Y-7.728 I-4.352 J-5.811
N5380 X-61.189 Y-7.551 I-1.04 J-2.954
N5385 X-62.072 Y-8.172 I0.164 J-1.171
N5390 G1 X-62.863 Y-9.692
N5395 G3 X-62.627 Y-10.359 I0.451 J-0.215
N5400 G1 X-62.549 Y-10.396 Z-9.732
N5405 X-62.473 Y-10.433 Z-9.71
N5410 X-62.401 Y-10.467 Z-9.673
N5415 X-62.337 Y-10.497 Z-9.623
N5420 X-62.281 Y-10.524 Z-9.561
N5425 X-62.236 Y-10.545 Z-9.49
N5430 X-62.203 Y-10.561 Z-9.411
N5435 X-62.183 Y-10.571 Z-9.327
N5440 X-62.176 Y-10.574 Z-9.24
N5445 G0 Z5.
N5450 X-31.661 Y-19.453
N5455 Z-8.74
N5460 G1 Z-9.24 F680.
N5465 Y-19.445 Z-9.327
N5470 X-31.659 Y-19.423 Z-9.411
N5475 X-31.657 Y-19.386 Z-9.49
N5480 X-31.654 Y-19.336 Z-9.561
N5485 X-31.65 Y-19.275 Z-9.623
N5490 X-31.646 Y-19.203 Z-9.673
N5495 X-31.641 Y-19.125 Z-9.71
N5500 X-31.636 Y-19.04 Z-9.732
N5505 X-31.631 Y-18.954 Z-9.74
N5510 G3 X-31.779 Y-18.183 I-1.58 J0.096
N5515 G1 X-32.006 Y-17.739
N5520 X-32.079 Y-17.579
N5525 X-32.234 Y-17.177
N5530 X-32.465 Y-16.574
N5535 G3 X-33.659 Y-15.145 I-2.994 J-1.288
N5540 G1 X-34. Y-14.909
N5545 X-34.453 Y-14.655
N5550 X-34.991 Y-14.407
N5555 X-35.689 Y-14.152
N5560 X-36.543 Y-13.915
N5565 G3 X-40.938 Y-13.406 I-5.018 J-24.141
N5570 X-48.025 Y-13.283 I-6.142 J-149.66
N5575 G1 X-48.911 Y-13.239
N5580 X-49.778 Y-13.055
N5585 X-50.597 Y-12.717
N5590 X-51.356 Y-12.26
N5595 X-52.059 Y-11.722
N5600 X-52.72 Y-11.131
N5605 G3 X-55.244 Y-8.643 I-209.976 J-210.459
N5610 G1 X-55.912 Y-8.06
N5615 X-56.609 Y-7.513
N5620 X-57.339 Y-7.018
N5625 X-57.978 Y-6.656
N5630 X-58.569 Y-6.381
N5635 G3 X-60.18 Y-5.974 I-2.047 J-4.708
N5640 X-61.254 Y-6.602 I-0.036 J-1.172
N5645 G1 X-62.071 Y-8.172
N5650 G3 X-61.835 Y-8.839 I0.451 J-0.215
N5655 G1 X-61.757 Y-8.876 Z-9.732
N5660 X-61.681 Y-8.912 Z-9.71
N5665 X-61.61 Y-8.946 Z-9.673
N5670 X-61.545 Y-8.977 Z-9.623
N5675 X-61.49 Y-9.004 Z-9.561
N5680 X-61.445 Y-9.025 Z-9.49
N5685 X-61.411 Y-9.041 Z-9.411
N5690 X-61.391 Y-9.051 Z-9.327
N5695 X-61.384 Y-9.054 Z-9.24
N5700 G0 Z5.
N5705 X-32.487 Y-17.849
N5710 Z-8.74
N5715 G1 Z-9.24 F680.
N5720 X-32.486 Y-17.842 Z-9.327
N5725 X-32.482 Y-17.819 Z-9.411
N5730 X-32.475 Y-17.783 Z-9.49
N5735 X-32.467 Y-17.734 Z-9.561
N5740 X-32.457 Y-17.673 Z-9.623
N5745 X-32.444 Y-17.603 Z-9.673
N5750 X-32.431 Y-17.525 Z-9.71
N5755 X-32.417 Y-17.442 Z-9.732
N5760 X-32.402 Y-17.356 Z-9.74
N5765 G3 X-32.465 Y-16.574 I-1.56 J0.268
N5770 G1 X-33.082 Y-14.964
N5775 X-33.147 Y-14.763
N5780 G3 X-34.217 Y-13.37 I-2.873 J-1.099
N5785 G1 X-34.536 Y-13.126
N5790 X-34.954 Y-12.865
N5795 X-35.446 Y-12.61
N5800 X-36.082 Y-12.343
N5805 X-36.899 Y-12.074
N5810 G3 X-40.393 Y-11.513 I-4.697 J-18.081
N5815 X-46.591 Y-11.297 I-6.075 J-85.422
N5820 G1 X-47.476 Y-11.246
N5825 X-48.346 Y-11.077
N5830 X-49.18 Y-10.777
N5835 X-49.965 Y-10.367
N5840 X-50.704 Y-9.878
N5845 X-51.406 Y-9.337
N5850 X-52.083 Y-8.765
N5855 X-53.414 Y-7.595
N5860 G3 X-56.249 Y-5.474 I-13.393 J-14.955
N5865 G1 X-56.981 Y-5.078
N5870 X-57.635 Y-4.787
N5875 G3 X-59.367 Y-4.373 I-2.136 J-5.108
N5880 X-60.421 Y-5.002 I-0.016 J-1.172
N5885 G1 X-61.254 Y-6.602
N5890 G3 X-61.018 Y-7.269 I0.451 J-0.215
N5895 G1 X-60.94 Y-7.306 Z-9.732
N5900 X-60.864 Y-7.343 Z-9.71
N5905 X-60.793 Y-7.377 Z-9.673
N5910 X-60.728 Y-7.407 Z-9.623
N5915 X-60.673 Y-7.434 Z-9.561
N5920 X-60.627 Y-7.456 Z-9.49
N5925 X-60.594 Y-7.471 Z-9.411
N5930 X-60.574 Y-7.481 Z-9.327
N5935 X-60.567 Y-7.484 Z-9.24
N5940 G0 Z5.
N5945 X-33.276 Y-16.033
N5950 Z-8.74
N5955 G1 Z-9.24 F680.
N5960 X-33.274 Y-16.025 Z-9.327
N5965 X-33.269 Y-16.003 Z-9.411
N5970 X-33.259 Y-15.968 Z-9.49
N5975 X-33.247 Y-15.919 Z-9.561
N5980 X-33.231 Y-15.86 Z-9.623
N5985 X-33.213 Y-15.791 Z-9.673
N5990 X-33.193 Y-15.714 Z-9.71
N5995 X-33.172 Y-15.633 Z-9.732
N6000 X-33.15 Y-15.549 Z-9.74
N6005 G3 X-33.147 Y-14.763 I-1.531 J0.399
N6010 G1 X-33.263 Y-14.361
N6015 X-33.318 Y-14.16
N6020 X-33.566 Y-13.154
N6025 G3 X-34.486 Y-11.725 I-2.897 J-0.855
N6030 X-36.111 Y-10.657 I-3.974 J-4.275
N6035 G1 X-36.769 Y-10.382
N6040 X-37.611 Y-10.108
N6045 G3 X-41.105 Y-9.538 I-4.865 J-18.824
N6050 X-45.53 Y-9.322 I-5.778 J-73.151
N6055 G1 X-46.411 Y-9.229
N6060 X-47.276 Y-9.037
N6065 X-48.108 Y-8.732
N6070 X-48.901 Y-8.335
N6075 X-49.656 Y-7.872
N6080 X-50.382 Y-7.364
N6085 X-51.088 Y-6.829
N6090 X-52.485 Y-5.738
N6095 G3 X-55.421 Y-3.759 I-13.67 J-17.122
N6100 G1 X-56.205 Y-3.372
N6105 X-56.904 Y-3.092
N6110 G3 X-58.472 Y-2.753 I-1.956 J-5.252
N6115 X-59.577 Y-3.381 I-0.063 J-1.175
N6120 G1 X-60.421 Y-5.002
N6125 G3 X-60.185 Y-5.669 I0.451 J-0.215
N6130 G1 X-60.107 Y-5.706 Z-9.732
N6135 X-60.031 Y-5.742 Z-9.71
N6140 X-59.959 Y-5.776 Z-9.673
N6145 X-59.895 Y-5.807 Z-9.623
N6150 X-59.839 Y-5.834 Z-9.561
N6155 X-59.794 Y-5.855 Z-9.49
N6160 X-59.761 Y-5.871 Z-9.411
N6165 X-59.741 Y-5.881 Z-9.327
N6170 X-59.734 Y-5.884 Z-9.24
N6175 G0 Z5.
N6180 X-33.745 Y-14.418
N6185 Z-8.74
N6190 G1 Z-9.24 F680.
N6195 X-33.743 Y-14.41 Z-9.327
N6200 X-33.736 Y-14.389 Z-9.411
N6205 X-33.726 Y-14.353 Z-9.49
N6210 X-33.711 Y-14.306 Z-9.561
N6215 X-33.693 Y-14.247 Z-9.623
N6220 X-33.673 Y-14.178 Z-9.673
N6225 X-33.65 Y-14.103 Z-9.71
N6230 X-33.625 Y-14.022 Z-9.732
N6235 X-33.6 Y-13.939 Z-9.74
N6240 G3 X-33.566 Y-13.154 I-1.515 J0.459
N6245 G2 X-33.964 Y-11.485 I28.519 J7.681
N6250 G3 X-34.682 Y-10.115 I-2.654 J-0.518
N6255 X-36.035 Y-9.037 I-3.858 J-3.453
N6260 G1 X-36.562 Y-8.758
N6265 X-37.242 Y-8.467
N6270 X-38.082 Y-8.185
N6275 G3 X-41.57 Y-7.578 I-5.023 J-18.555
N6280 G1 X-42.452 Y-7.501
N6285 X-44.221 Y-7.385
N6290 X-45.102 Y-7.288
N6295 X-45.969 Y-7.105
N6300 X-46.811 Y-6.83
N6305 X-47.622 Y-6.472
N6310 G2 X-50.611 Y-4.575 I10.217 J19.4
N6315 G3 X-53.557 Y-2.606 I-26.007 J-35.725
N6320 G1 X-54.333 Y-2.177
N6325 X-55.13 Y-1.789
N6330 X-55.904 Y-1.479
N6335 G3 X-57.616 Y-1.11 I-2.107 J-5.63
N6340 X-58.722 Y-1.738 I-0.064 J-1.175
N6345 G1 X-59.577 Y-3.381
N6350 G3 X-59.341 Y-4.048 I0.451 J-0.215
N6355 G1 X-59.263 Y-4.085 Z-9.732
N6360 X-59.187 Y-4.121 Z-9.71
N6365 X-59.115 Y-4.155 Z-9.673
N6370 X-59.051 Y-4.186 Z-9.623
N6375 X-58.995 Y-4.212 Z-9.561
N6380 X-58.95 Y-4.234 Z-9.49
N6385 X-58.917 Y-4.25 Z-9.411
N6390 X-58.897 Y-4.26 Z-9.327
N6395 X-58.89 Y-4.263 Z-9.24
N6400 G0 Z5.
N6405 X-34.269 Y-12.723
N6410 Z-8.74
N6415 G1 Z-9.24 F680.
N6420 X-34.266 Y-12.716 Z-9.327
N6425 X-34.257 Y-12.695 Z-9.411
N6430 X-34.243 Y-12.661 Z-9.49
N6435 X-34.224 Y-12.615 Z-9.561
N6440 X-34.2 Y-12.558 Z-9.623
N6445 X-34.172 Y-12.492 Z-9.673
N6450 X-34.142 Y-12.419 Z-9.71
N6455 X-34.109 Y-12.342 Z-9.732
N6460 X-34.076 Y-12.262 Z-9.74
N6465 G3 X-33.962 Y-11.484 I-1.46 J0.611
N6470 G1 X-34.01 Y-11.143
N6475 X-34.167 Y-9.826
N6480 G3 X-34.855 Y-8.39 I-2.812 J-0.465
N6485 X-36.702 Y-6.962 I-4.335 J-3.699
N6490 G1 X-37.363 Y-6.649
N6495 X-38.185 Y-6.342
N6500 G3 X-41.656 Y-5.651 I-5.186 J-16.985
N6505 G1 X-42.537 Y-5.554
N6510 X-43.417 Y-5.451
N6515 G2 X-46.794 Y-4.428 I1.307 J10.396
N6520 G1 X-47.578 Y-4.016
N6525 X-48.343 Y-3.568
N6530 X-49.094 Y-3.097
N6535 X-50.581 Y-2.134
N6540 G3 X-53.651 Y-0.367 I-15.422 J-23.249
N6545 G1 X-54.464 Y-0.013
N6550 X-55.218 Y0.259
N6555 G3 X-56.795 Y0.551 I-1.846 J-5.559
N6560 X-57.858 Y-0.079 I-0.021 J-1.176
N6565 G1 X-58.722 Y-1.738
N6570 G3 X-58.486 Y-2.405 I0.451 J-0.215
N6575 G1 X-58.407 Y-2.442 Z-9.732
N6580 X-58.331 Y-2.479 Z-9.71
N6585 X-58.26 Y-2.513 Z-9.673
N6590 X-58.196 Y-2.543 Z-9.623
N6595 X-58.14 Y-2.57 Z-9.561
N6600 X-58.095 Y-2.591 Z-9.49
N6605 X-58.062 Y-2.607 Z-9.411
N6610 X-58.041 Y-2.617 Z-9.327
N6615 X-58.034 Y-2.62 Z-9.24
N6620 G0 Z5.
N6625 X-34.501 Y-11.057
N6630 Z-8.74
N6635 G1 Z-9.24 F680.
N6640 X-34.498 Y-11.05 Z-9.327
N6645 X-34.489 Y-11.03 Z-9.411
N6650 X-34.474 Y-10.996 Z-9.49
N6655 X-34.453 Y-10.95 Z-9.561
N6660 X-34.428 Y-10.894 Z-9.623
N6665 X-34.399 Y-10.829 Z-9.673
N6670 X-34.367 Y-10.756 Z-9.71
N6675 X-34.333 Y-10.68 Z-9.732
N6680 X-34.298 Y-10.6 Z-9.74
N6685 G3 X-34.167 Y-9.826 I-1.446 J0.642
N6690 G1 X-34.273 Y-8.931
N6695 X-34.338 Y-8.327
N6700 X-34.339 Y-8.217
N6705 G3 X-35.029 Y-6.594 I-2.727 J-0.201
N6710 X-36.35 Y-5.42 I-4.068 J-3.248
N6715 G1 X-36.875 Y-5.106
N6720 X-37.534 Y-4.783
N6725 X-38.353 Y-4.461
N6730 G3 X-41.808 Y-3.695 I-5.981 J-18.79
N6735 G1 X-42.68 Y-3.533
N6740 G2 X-46.029 Y-2.403 I2.497 J12.921
N6745 X-49.112 Y-0.657 I16.884 J33.427
N6750 G3 X-53.005 Y1.453 I-18.361 J-29.226
N6755 G1 X-53.831 Y1.775
N6760 X-54.577 Y2.011
N6765 G3 X-56.147 Y2.225 I-1.509 J-5.192
N6770 X-57.269 Y1.312 I0.022 J-1.173
N6775 G2 X-57.546 Y0.523 I-2.952 J0.594
N6780 G1 X-57.858 Y-0.079
N6785 G3 X-57.643 Y-0.734 Z-9.546 I0.451 J-0.215
N6790 G1 X-57.622 Y-0.745 Z-9.54
N6795 X-57.582 Y-0.762
N6800 X-35.164 Y-9.185
N6805 G3 X-34.557 Y-8.971 I0.176 J0.468
N6810 G1 X-34.553 Y-8.964
N6815 X-34.541 Y-8.943 Z-9.546
N6820 G3 X-34.339 Y-8.217 Z-9.74 I-1.379 J0.776
N6825 G1 X-34.34 Y-7.724
N6830 X-34.335 Y-6.608
N6835 G3 X-35.004 Y-4.883 I-2.878 J-0.126
N6840 X-36.319 Y-3.647 I-4.254 J-3.207
N6845 G1 X-36.853 Y-3.309
N6850 X-37.509 Y-2.966
N6855 X-38.315 Y-2.624
N6860 X-39.156 Y-2.345
N6865 X-40.012 Y-2.114
N6870 X-40.874 Y-1.909
N6875 G2 X-46.645 Y0.295 I4.098 J19.392
N6880 G3 X-50.527 Y2.431 I-95.047 J-168.089
N6885 X-53.741 Y3.72 I-8.315 J-16.09
N6890 X-55.579 Y3.928 I-1.598 J-5.873
N6895 X-56.751 Y3.634 I0.086 J-2.827
N6900 X-57.257 Y2.446 I0.672 J-0.987
N6905 G1 X-57.233 Y2.362 Z-9.718
N6910 X-57.196 Y2.283 Z-9.696
N6915 X-57.145 Y2.212 Z-9.673
N6920 X-57.093 Y2.158 Z-9.654
N6925 X-57.032 Y2.113 Z-9.635
N6930 X-56.966 Y2.078 Z-9.616
N6935 X-56.716 Y1.967 Z-9.546
N6940 X-56.694 Y1.958 Z-9.54
N6945 X-35.191 Y-7.559
N6950 G3 X-34.56 Y-7.36 I0.202 J0.457
N6955 G1 X-34.556 Y-7.353
N6960 X-34.544 Y-7.332 Z-9.546
N6965 G3 X-34.335 Y-6.608 Z-9.74 I-1.373 J0.788
N6970 G1 X-34.33 Y-5.713
N6975 X-34.317 Y-5.109
N6980 X-34.307 Y-4.999
N6985 G3 X-34.718 Y-3.611 I-1.95 J0.176
N6990 G1 X-34.913 Y-3.464
N6995 G3 X-35.587 Y-3.612 Z-9.546 I-0.259 J-0.428
N7000 G1 X-35.6 Y-3.632 Z-9.54
N7005 G3 X-35.644 Y-4.058 I0.427 J-0.26
N7010 G1 X-35.274 Y-5.103
N7015 G3 X-34.865 Y-5.432 I0.471 J0.167
N7020 G1 X-34.841 Y-5.435 Z-9.546
N7025 G3 X-34.307 Y-4.999 Z-9.74 I0.038 J0.499
N7030 G1 X-34.299 Y-4.908
N7035 X-34.22 Y-4.284
N7040 G3 X-34.421 Y-3.787 I-0.524 J0.077
N7045 G1 X-34.623 Y-3.654
N7050 X-38.234 Y-1.288
N7055 X-38.998 Y-0.84
N7060 X-39.794 Y-0.45
N7065 G2 X-43.091 Y0.85 I162.779 J417.724
N7070 X-47.828 Y3.261 I24.529 J54.048
N7075 G3 X-51.847 Y5.119 I-16.117 J-29.599
N7080 G1 X-52.694 Y5.381
N7085 X-53.455 Y5.558
N7090 G3 X-55.614 Y5.652 I-1.377 J-6.778
N7095 X-57.172 Y5.103 I0.478 J-3.836
N7100 X-57.648 Y3.765 I0.644 J-0.983
N7105 G1 X-57.366 Y2.888
N7110 X-57.323 Y2.735
N7115 X-57.271 Y2.534
N7120 X-57.256 Y2.446
N7125 G3 X-56.661 Y2.063 I0.489 J0.106
N7130 G1 X-56.576 Y2.082 Z-9.732
N7135 X-56.494 Y2.1 Z-9.71
N7140 X-56.417 Y2.116 Z-9.673
N7145 X-56.347 Y2.131 Z-9.623
N7150 X-56.287 Y2.144 Z-9.561
N7155 X-56.238 Y2.155 Z-9.49
N7160 X-56.202 Y2.163 Z-9.411
N7165 X-56.18 Y2.168 Z-9.327
N7170 X-56.173 Y2.169 Z-9.24
N7175 G0 Z5.
N7180 X-37.505 Y-2.335
N7185 Z-8.74
N7190 G1 Z-9.24 F680.
N7195 X-37.509 Y-2.328 Z-9.327
N7200 X-37.519 Y-2.308 Z-9.411
N7205 X-37.535 Y-2.275 Z-9.49
N7210 X-37.557 Y-2.23 Z-9.561
N7215 X-37.584 Y-2.175 Z-9.623
N7220 X-37.615 Y-2.111 Z-9.673
N7225 X-37.65 Y-2.04 Z-9.71
N7230 X-37.687 Y-1.964 Z-9.732
N7235 X-37.725 Y-1.886 Z-9.74
N7240 G3 X-38.234 Y-1.288 I-1.422 J-0.695
N7245 G1 X-48.51 Y5.445
N7250 X-49.275 Y5.893
N7255 G3 X-52.498 Y7.231 I-5.925 J-9.726
N7260 G1 X-53.268 Y7.382
N7265 G3 X-55.736 Y7.392 I-1.265 J-7.627
N7270 G1 X-56.212 Y7.291
N7275 X-56.5 Y7.206
N7280 X-56.735 Y7.107
N7285 X-56.943 Y6.96
N7290 X-57.114 Y6.771
N7295 G3 X-57.022 Y6.088 Z-9.546 I0.405 J-0.293
N7300 G1 X-57.003 Y6.073 Z-9.54
N7305 X-56.945 Y6.037
N7310 X-56.883 Y6.01
N7315 X-56.818 Y5.99
N7320 X-48.56 Y4.14
N7325 G3 X-48.001 Y4.847 I0.109 J0.488
N7330 G1 X-48.005 Y4.855
N7335 X-48.016 Y4.876 Z-9.546
N7340 G3 X-48.51 Y5.445 Z-9.74 I-1.407 J-0.724
N7345 G1 X-51.529 Y7.424
N7350 G3 X-52.916 Y8.169 I-5.708 J-8.963
N7355 G1 X-53.643 Y8.334
N7360 X-53.693 Y8.343
N7365 X-53.743 Y8.347
N7370 X-54.347 Y8.344
N7375 X-54.548 Y8.34
N7380 X-54.75 Y8.296
N7385 X-55.354 Y8.148
N7390 X-55.404 Y8.131
N7395 X-55.454 Y8.108
N7400 X-56.125 Y7.763
N7405 G3 X-56.83 Y7.159 I6.199 J-7.96
N7410 X-57.381 Y6.359 I4.228 J-3.498
N7415 G1 X-57.624 Y5.752
N7420 G3 X-57.78 Y4.843 I7.036 J-1.671
N7425 G1 X-57.777 Y4.746
N7430 X-57.723 Y4.042
N7435 X-57.716 Y3.992
N7440 X-57.704 Y3.941
N7445 X-57.648 Y3.765
N7450 G3 X-57.008 Y3.463 I0.471 J0.169
N7455 G1 X-56.927 Y3.493 Z-9.732
N7460 X-56.847 Y3.521 Z-9.71
N7465 X-56.773 Y3.548 Z-9.673
N7470 X-56.706 Y3.572 Z-9.623
N7475 X-56.648 Y3.593 Z-9.561
N7480 X-56.601 Y3.61 Z-9.49
N7485 X-56.566 Y3.622 Z-9.411
N7490 X-56.545 Y3.63 Z-9.327
N7495 X-56.538 Y3.632 Z-9.24
N7500 G0 Z5.
N7505 X39.984 Y-33.626
N7510 Z-8.74
N7515 G1 Z-9.24 F680.
N7520 X39.98 Y-33.619 Z-9.327
N7525 X39.97 Y-33.599 Z-9.411
N7530 X39.954 Y-33.566 Z-9.49
N7535 X39.931 Y-33.522 Z-9.561
N7540 X39.904 Y-33.467 Z-9.623
N7545 X39.872 Y-33.403 Z-9.673
N7550 X39.836 Y-33.332 Z-9.71
N7555 X39.798 Y-33.257 Z-9.732
N7560 X39.76 Y-33.179 Z-9.74
N7565 G3 X39.244 Y-32.586 I-1.415 J-0.709
N7570 G1 X38.842 Y-32.329
N7575 X38.752 Y-32.261
N7580 X38.439 Y-32.01
N7585 X37.03 Y-30.87
N7590 G3 X35.544 Y-30.055 I-3.139 J-3.958
N7595 G1 X34.913 Y-29.853
N7600 X34.049 Y-29.652
N7605 G3 X30.522 Y-29.337 I-3.944 J-24.271
N7610 X23.434 Y-29.264 I-5.709 J-209.81
N7615 G1 X19.889 Y-29.258
N7620 X11.583 Y-29.259
N7625 X11.498 Y-29.262
N7630 X11.413 Y-29.272
N7635 X11.329 Y-29.287
N7640 X2.359 Y-31.289
N7645 G3 X2.001 Y-31.898 I0.126 J-0.484
N7650 G1 X2.023 Y-31.982 Z-9.732
N7655 X2.044 Y-32.064 Z-9.71
N7660 X2.064 Y-32.14 Z-9.673
N7665 X2.082 Y-32.209 Z-9.623
N7670 X2.097 Y-32.269 Z-9.561
N7675 X2.11 Y-32.317 Z-9.49
N7680 X2.119 Y-32.353 Z-9.411
N7685 X2.125 Y-32.375 Z-9.327
N7690 X2.127 Y-32.382 Z-9.24
N7695 G0 Z5.
N7700 X37.65 Y-31.985
N7705 Z-8.74
N7710 G1 Z-9.24 F680.
N7715 X37.648 Y-31.978 Z-9.327
N7720 X37.64 Y-31.957 Z-9.411
N7725 X37.627 Y-31.922 Z-9.49
N7730 X37.61 Y-31.876 Z-9.561
N7735 X37.589 Y-31.818 Z-9.623
N7740 X37.564 Y-31.751 Z-9.673
N7745 X37.536 Y-31.677 Z-9.71
N7750 X37.507 Y-31.598 Z-9.732
N7755 X37.477 Y-31.516 Z-9.74
N7760 G3 X37.03 Y-30.87 I-1.484 J-0.549
N7765 G2 X36.103 Y-30.049 I4.033 J5.487
N7770 G1 X35.344 Y-29.244
N7775 G3 X33.826 Y-28.226 I-3.103 J-2.986
N7780 G1 X33.284 Y-28.019
N7785 X32.553 Y-27.807
N7790 G3 X29.04 Y-27.376 I-4.017 J-18.231
N7795 X21.066 Y-27.268 I-6.26 J-167.348
N7800 G1 X20.543 Y-27.26
N7805 X20.457 Y-27.264
N7810 X20.372 Y-27.273
N7815 X20.287 Y-27.288
N7820 X11.329 Y-29.287
N7825 G3 X10.971 Y-29.897 I0.126 J-0.484
N7830 G1 X10.993 Y-29.981 Z-9.732
N7835 X11.014 Y-30.062 Z-9.71
N7840 X11.034 Y-30.139 Z-9.673
N7845 X11.052 Y-30.208 Z-9.623
N7850 X11.068 Y-30.268 Z-9.561
N7855 X11.08 Y-30.316 Z-9.49
N7860 X11.089 Y-30.352 Z-9.411
N7865 X11.095 Y-30.373 Z-9.327
N7870 X11.097 Y-30.381 Z-9.24
N7875 G0 Z5.
N7880 X35.809 Y-30.432
N7885 Z-8.74
N7890 G1 Z-9.24 F680.
N7895 X35.808 Y-30.425 Z-9.327
N7900 X35.803 Y-30.403 Z-9.411
N7905 X35.795 Y-30.367 Z-9.49
N7910 X35.784 Y-30.318 Z-9.561
N7915 X35.77 Y-30.258 Z-9.623
N7920 X35.755 Y-30.188 Z-9.673
N7925 X35.737 Y-30.111 Z-9.71
N7930 X35.719 Y-30.029 Z-9.732
N7935 X35.7 Y-29.944 Z-9.74
N7940 G3 X35.344 Y-29.244 I-1.544 J-0.345
N7945 G1 X34.395 Y-28.239
N7950 X34.211 Y-28.038
N7955 X33.81 Y-27.501
N7960 G3 X32.387 Y-26.402 I-2.935 J-2.33
N7965 G1 X31.905 Y-26.186
N7970 X31.272 Y-25.967
N7975 G3 X28.496 Y-25.479 I-3.612 J-12.398
N7980 G1 X28.379 Y-25.489
N7985 X28.263 Y-25.509
N7990 G3 X27.9 Y-26.095 Z-9.546 I0.126 J-0.484
N7995 G1 X27.905 Y-26.118 Z-9.54
N8000 G3 X28.221 Y-26.464 I0.484 J0.125
N8005 G1 X33.227 Y-28.25
N8010 G3 X33.673 Y-28.194 I0.168 J0.471
N8015 G1 X33.693 Y-28.18 Z-9.546
N8020 G3 X33.81 Y-27.501 Z-9.74 I-0.298 J0.401
N8025 G1 X32.464 Y-25.624
N8030 G3 X31.822 Y-25.01 I-1.878 J-1.318
N8035 G1 X31.563 Y-24.907
N8040 X31.287 Y-24.868
N8045 X31.01 Y-24.896
N8050 G3 X30.646 Y-25.482 Z-9.546 I0.126 J-0.484
N8055 G1 X30.652 Y-25.505 Z-9.54
N8060 G3 X30.888 Y-25.814 I0.484 J0.125
N8065 G1 X31.8 Y-26.335
N8070 G3 X32.325 Y-26.317 I0.248 J0.434
N8075 G1 X32.345 Y-26.303 Z-9.546
N8080 G3 X32.464 Y-25.624 Z-9.74 I-0.297 J0.402
N8085 G2 X32.055 Y-24.961 I4.908 J3.487
N8090 G3 X31.596 Y-24.767 I-0.409 J-0.33
N8095 G1 X31.395 Y-24.81
N8100 X20.287 Y-27.288
N8105 G3 X19.929 Y-27.898 I0.126 J-0.484
N8110 G1 X19.951 Y-27.982 Z-9.732
N8115 X19.972 Y-28.064 Z-9.71
N8120 X19.992 Y-28.14 Z-9.673
N8125 X20.01 Y-28.209 Z-9.623
N8130 X20.026 Y-28.269 Z-9.561
N8135 X20.038 Y-28.317 Z-9.49
N8140 X20.047 Y-28.353 Z-9.411
N8145 X20.053 Y-28.375 Z-9.327
N8150 X20.055 Y-28.382 Z-9.24
N8155 G0 Z5.
N8160 X75.487 Y-22.396
N8165 Z-8.74
N8170 G1 Z-9.24 F680.
N8175 X75.481 Y-22.4 Z-9.327
N8180 X75.461 Y-22.411 Z-9.411
N8185 X75.43 Y-22.43 Z-9.49
N8190 X75.387 Y-22.456 Z-9.561
N8195 X75.334 Y-22.488 Z-9.623
N8200 X75.273 Y-22.524 Z-9.673
N8205 X75.205 Y-22.565 Z-9.71
N8210 X75.133 Y-22.608 Z-9.732
N8215 X75.058 Y-22.653 Z-9.74
N8220 G3 X74.505 Y-23.211 I0.813 J-1.358
N8225 G2 X73.162 Y-25.624 I-101.551 J54.95
N8230 G1 X73.031 Y-25.825
N8235 X72.893 Y-26.026
N8240 X72.857 Y-26.074
N8245 X72.672 Y-26.35
N8250 X72.501 Y-26.657
N8255 X72.319 Y-27.054
N8260 X72.015 Y-27.887
N8265 X71.667 Y-28.702
N8270 X71.099 Y-29.382
N8275 X70.387 Y-29.91
N8280 X69.593 Y-30.303
N8285 G3 X68.894 Y-30.642 I0.374 J-1.662
N8290 G1 X68.839 Y-30.706 Z-9.718
N8295 X68.796 Y-30.779 Z-9.697
N8300 X68.765 Y-30.858 Z-9.675
N8305 X68.748 Y-30.941 Z-9.654
N8310 X68.746 Y-31.026 Z-9.632
N8315 X68.757 Y-31.11 Z-9.611
N8320 X68.783 Y-31.191 Z-9.589
N8325 X68.822 Y-31.266 Z-9.568
N8330 X68.873 Y-31.333 Z-9.546
N8335 X68.889 Y-31.351 Z-9.54
N8340 G3 X69.624 Y-31.328 I0.357 J0.35
N8345 G1 X73.625 Y-26.715
N8350 G3 X73.559 Y-25.996 I-0.378 J0.328
N8355 G1 X73.54 Y-25.982 Z-9.546
N8360 G3 X72.857 Y-26.074 Z-9.74 I-0.293 J-0.405
N8365 G1 X71.394 Y-28.038
N8370 X71.247 Y-28.223
N8375 X71.045 Y-28.455
N8380 X70.871 Y-28.641
N8385 X69.297 Y-30.25
N8390 G2 X68.63 Y-30.863 I-3.855 J3.519
N8395 G1 X67.02 Y-32.119
N8400 X66.416 Y-32.582
N8405 X66.299 Y-32.664
N8410 X66.215 Y-32.718
N8415 X65.147 Y-33.341
N8420 G3 X64.991 Y-34.031 I0.267 J-0.423
N8425 G1 X65.037 Y-34.104 Z-9.732
N8430 X65.082 Y-34.175 Z-9.71
N8435 X65.124 Y-34.242 Z-9.673
N8440 X65.162 Y-34.303 Z-9.623
N8445 X65.195 Y-34.355 Z-9.561
N8450 X65.222 Y-34.397 Z-9.49
N8455 X65.241 Y-34.428 Z-9.411
N8460 X65.254 Y-34.447 Z-9.327
N8465 X65.258 Y-34.454 Z-9.24
N8470 G0 Z5.
N8475 X53.813 Y36.661
N8480 Z-8.74
N8485 G1 Z-9.24 F680.
N8490 Y36.653 Z-9.327
N8495 X53.814 Y36.63 Z-9.411
N8500 X53.815 Y36.594 Z-9.49
N8505 X53.817 Y36.544 Z-9.561
N8510 X53.82 Y36.482 Z-9.623
N8515 X53.822 Y36.411 Z-9.673
N8520 X53.825 Y36.332 Z-9.71
N8525 X53.828 Y36.248 Z-9.732
N8530 X53.831 Y36.161 Z-9.74
N8535 G3 X54.054 Y35.408 I1.582 J0.058
N8540 G1 X54.139 Y35.276
N8545 X54.231 Y35.116
N8550 X54.891 Y33.909
N8555 G3 X56.008 Y32.773 I2.8 J1.636
N8560 G1 X56.366 Y32.557
N8565 X56.809 Y32.338
N8570 X57.368 Y32.117
N8575 X58.107 Y31.891
N8580 G3 X61.614 Y31.417 I4.152 J17.505
N8585 X67.814 Y31.288 I5.407 J111.249
N8590 G1 X68.25 Y31.203
N8595 X69.074 Y30.877
N8600 X69.739 Y30.292
N8605 X70.239 Y29.56
N8610 X70.602 Y28.752
N8615 X70.86 Y27.904
N8620 G2 X71.31 Y24.393 I-18.398 J-4.141
N8625 X71.428 Y18.192 I-119.564 J-5.374
N8630 G1 X71.437 Y16.42
N8635 X71.441 Y13.762
N8640 X71.446 Y3.949
N8645 X71.462 Y3.755
N8650 X71.51 Y3.567
N8655 X71.589 Y3.389
N8660 X73.568 Y-0.229
N8665 G3 X74.253 Y-0.404 I0.43 J0.255
N8670 G1 X74.328 Y-0.359 Z-9.732
N8675 X74.4 Y-0.316 Z-9.71
N8680 X74.468 Y-0.276 Z-9.673
N8685 X74.53 Y-0.24 Z-9.623
N8690 X74.583 Y-0.208 Z-9.561
N8695 X74.626 Y-0.183 Z-9.49
N8700 X74.657 Y-0.164 Z-9.411
N8705 X74.677 Y-0.152 Z-9.327
N8710 X74.683 Y-0.149 Z-9.24
N8715 G0 Z5.
N8720 X54.741 Y35.176
N8725 Z-8.74
N8730 G1 Z-9.24 F680.
N8735 Y35.169 Z-9.327
N8740 X54.74 Y35.146 Z-9.411
N8745 X54.739 Y35.109 Z-9.49
N8750 X54.737 Y35.059 Z-9.561
N8755 X54.735 Y34.998 Z-9.623
N8760 X54.733 Y34.926 Z-9.673
N8765 X54.73 Y34.848 Z-9.71
N8770 X54.727 Y34.763 Z-9.732
N8775 X54.724 Y34.677 Z-9.74
N8780 G3 X54.891 Y33.909 I1.582 J-0.057
N8785 G1 X55.881 Y32.099
N8790 G3 X57.084 Y30.865 I3.008 J1.729
N8795 G1 X57.471 Y30.631
N8800 X57.933 Y30.404
N8805 X58.534 Y30.165
N8810 X59.316 Y29.926
N8815 G3 X62.822 Y29.439 I4.315 J18.202
N8820 G1 X63.707 Y29.388
N8825 X64.592 Y29.353
N8830 X65.478 Y29.329
N8835 X65.919 Y29.287
N8840 X66.345 Y29.166
N8845 X67.141 Y28.777
N8850 X67.778 Y28.161
N8855 X68.259 Y27.417
N8860 X68.609 Y26.603
N8865 X68.86 Y25.753
N8870 G2 X69.305 Y22.241 I-19.087 J-4.203
N8875 X69.428 Y16.041 I-118.533 J-5.439
N8880 G1 X69.438 Y14.268
N8885 X69.441 Y11.61
N8890 X69.444 Y7.607
N8895 X69.46 Y7.413
N8900 X69.508 Y7.225
N8905 X69.587 Y7.048
N8910 X71.589 Y3.389
N8915 G3 X72.274 Y3.214 I0.43 J0.255
N8920 G1 X72.349 Y3.258 Z-9.732
N8925 X72.421 Y3.301 Z-9.71
N8930 X72.489 Y3.342 Z-9.673
N8935 X72.55 Y3.378 Z-9.623
N8940 X72.603 Y3.41 Z-9.561
N8945 X72.646 Y3.435 Z-9.49
N8950 X72.678 Y3.454 Z-9.411
N8955 X72.697 Y3.465 Z-9.327
N8960 X72.704 Y3.469 Z-9.24
N8965 G0 Z5.
N8970 X55.732 Y33.366
N8975 Z-8.74
N8980 G1 Z-9.24 F680.
N8985 Y33.359 Z-9.327
N8990 X55.731 Y33.336 Z-9.411
N8995 X55.729 Y33.299 Z-9.49
N9000 X55.728 Y33.249 Z-9.561
N9005 X55.725 Y33.188 Z-9.623
N9010 X55.723 Y33.116 Z-9.673
N9015 X55.72 Y33.037 Z-9.71
N9020 X55.717 Y32.953 Z-9.732
N9025 X55.714 Y32.866 Z-9.74
N9030 G3 X55.881 Y32.099 I1.582 J-0.057
N9035 G1 X56.956 Y30.134
N9040 G3 X58.163 Y28.92 I3.049 J1.822
N9045 G1 X58.554 Y28.683
N9050 X59.037 Y28.445
N9055 X59.659 Y28.198
N9060 X60.466 Y27.951
N9065 G3 X63.971 Y27.448 I4.627 J19.786
N9070 G1 X64.801 Y27.136
N9075 X65.496 Y26.586
N9080 X66.035 Y25.883
N9085 X66.438 Y25.094
N9090 X66.731 Y24.257
N9095 G2 X67.268 Y20.76 I-16.164 J-4.273
N9100 X67.424 Y14.561 I-95.6 J-5.499
N9105 G3 X67.45 Y11.076 I234.282 J0.044
N9110 G1 X67.504 Y10.888
N9115 X67.583 Y10.711
N9120 X69.587 Y7.048
N9125 G3 X70.272 Y6.873 I0.43 J0.255
N9130 G1 X70.347 Y6.917 Z-9.732
N9135 X70.419 Y6.96 Z-9.71
N9140 X70.487 Y7. Z-9.673
N9145 X70.549 Y7.037 Z-9.623
N9150 X70.602 Y7.068 Z-9.561
N9155 X70.645 Y7.094 Z-9.49
N9160 X70.676 Y7.112 Z-9.411
N9165 X70.696 Y7.124 Z-9.327
N9170 X70.702 Y7.128 Z-9.24
N9175 G0 Z5.
N9180 X56.807 Y31.401
N9185 Z-8.74
N9190 G1 Z-9.24 F680.
N9195 X56.806 Y31.394 Z-9.327
N9200 Y31.371 Z-9.411
N9205 X56.804 Y31.335 Z-9.49
N9210 X56.803 Y31.285 Z-9.561
N9215 X56.8 Y31.223 Z-9.623
N9220 X56.798 Y31.152 Z-9.673
N9225 X56.795 Y31.073 Z-9.71
N9230 X56.792 Y30.989 Z-9.732
N9235 X56.789 Y30.902 Z-9.74
N9240 G3 X56.956 Y30.134 I1.582 J-0.057
N9245 G1 X58.033 Y28.167
N9250 G3 X59.246 Y26.955 I3.082 J1.871
N9255 G1 X59.639 Y26.716
N9260 X60.134 Y26.473
N9265 X60.771 Y26.22
N9270 X61.619 Y25.961
N9275 X62.459 Y25.68
N9280 X63.193 Y25.184
N9285 X63.786 Y24.525
N9290 X64.241 Y23.765
N9295 X64.58 Y22.946
N9300 X64.828 Y22.095
N9305 G2 X65.288 Y18.585 I-19.562 J-4.346
N9310 X65.417 Y14.783 I-95.964 J-5.168
N9315 G1 X65.473 Y14.6
N9320 X65.55 Y14.427
N9325 X67.583 Y10.711
N9330 G3 X68.268 Y10.536 I0.43 J0.255
N9335 G1 X68.343 Y10.58 Z-9.732
N9340 X68.415 Y10.623 Z-9.71
N9345 X68.483 Y10.664 Z-9.673
N9350 X68.545 Y10.7 Z-9.623
N9355 X68.598 Y10.732 Z-9.561
N9360 X68.641 Y10.757 Z-9.49
N9365 X68.672 Y10.776 Z-9.411
N9370 X68.692 Y10.787 Z-9.327
N9375 X68.698 Y10.791 Z-9.24
N9380 G0 Z5.
N9385 X57.883 Y29.434
N9390 Z-8.74
N9395 G1 Z-9.24 F680.
N9400 Y29.427 Z-9.327
N9405 X57.882 Y29.404 Z-9.411
N9410 X57.881 Y29.367 Z-9.49
N9415 X57.879 Y29.317 Z-9.561
N9420 X57.877 Y29.256 Z-9.623
N9425 X57.874 Y29.184 Z-9.673
N9430 X57.871 Y29.105 Z-9.71
N9435 X57.868 Y29.021 Z-9.732
N9440 X57.865 Y28.934 Z-9.74
N9445 G3 X58.033 Y28.167 I1.582 J-0.057
N9450 G1 X59.073 Y26.266
N9455 G3 X59.816 Y25.358 I3.043 J1.732
N9460 G1 X60.494 Y24.788
N9465 X61.14 Y24.181
N9470 X61.689 Y23.486
N9475 X62.131 Y22.718
N9480 X62.475 Y21.902
N9485 G2 X63.122 Y18.93 I-12.963 J-4.381
N9490 G1 X63.174 Y18.789
N9495 X63.237 Y18.654
N9500 G3 X63.922 Y18.479 I0.43 J0.255
N9505 G1 X63.997 Y18.524 Z-9.732
N9510 X64.069 Y18.567 Z-9.71
N9515 X64.137 Y18.607 Z-9.673
N9520 X64.199 Y18.643 Z-9.623
N9525 X64.252 Y18.675 Z-9.561
N9530 X64.295 Y18.7 Z-9.49
N9535 X64.326 Y18.719 Z-9.411
N9540 X64.346 Y18.731 Z-9.327
N9545 X64.352 Y18.735 Z-9.24
N9550 G0 Z5.
N9555 X58.923 Y27.533
N9560 Z-8.74
N9565 G1 Z-9.24 F680.
N9570 Y27.526 Z-9.327
N9575 X58.922 Y27.503 Z-9.411
N9580 X58.92 Y27.467 Z-9.49
N9585 X58.919 Y27.417 Z-9.561
N9590 X58.916 Y27.355 Z-9.623
N9595 X58.914 Y27.284 Z-9.673
N9600 X58.911 Y27.205 Z-9.71
N9605 X58.908 Y27.121 Z-9.732
N9610 X58.905 Y27.034 Z-9.74
N9615 G3 X59.073 Y26.266 I1.582 J-0.057
N9620 G1 X65.55 Y14.427
N9625 G3 X65.756 Y14.235 I0.43 J0.255
N9630 G1 X65.821 Y14.217 Z-9.735
N9635 X65.885 Y14.2 Z-9.721
N9640 X65.947 Y14.183 Z-9.699
N9645 X65.98 Y14.182 Z-9.683
N9650 X66.038 Y14.193 Z-9.646
N9655 X66.09 Y14.204 Z-9.602
N9660 X66.136 Y14.213 Z-9.55
N9665 X66.174 Y14.221 Z-9.493
N9670 X66.208 Y14.238 Z-9.413
N9675 X66.228 Y14.248 Z-9.328
N9680 X66.235 Y14.252 Z-9.24
N9685 G0 Z5.
N9690 X37.238 Y23.138
N9695 Z2.5
N9700 S6000
N9705 G3 X35.474 Y25.516 Z2.376 I-1.616 J0.644 F226.67
N9710 X34.139 Y22.878 Z2.253 I0.147 J-1.732
N9715 X37.092 Y22.864 Z2.129 I1.481 J0.905
N9720 X35.784 Y25.508 Z2.005 I-1.47 J0.918
N9725 X34.007 Y23.159 Z1.882 I-0.163 J-1.724
N9730 X36.9 Y22.621 Z1.758 I1.612 J0.625
N9735 X36.087 Y25.445 Z1.635 I-1.279 J1.161
N9740 X33.928 Y23.457 Z1.511 I-0.465 J-1.661
N9745 X36.669 Y22.417 Z1.387 I1.691 J0.327
N9750 X36.372 Y25.33 Z1.264 I-1.048 J1.365
N9755 X33.903 Y23.763 Z1.14 I-0.751 J-1.546
N9760 X36.406 Y22.258 Z1.016 I1.716 J0.02
N9765 X36.632 Y25.166 Z0.893 I-0.785 J1.524
N9770 X33.934 Y24.068 Z0.769 I-1.01 J-1.382
N9775 X36.12 Y22.149 Z0.645 I1.686 J-0.284
N9780 X36.857 Y24.96 Z0.522 I-0.5 J1.633
N9785 X34.018 Y24.362 Z0.398 I-1.235 J-1.176
N9790 X35.821 Y22.093 Z0.275 I1.602 J-0.577
N9795 X37.041 Y24.717 Z0.151 I-0.2 J1.689
N9800 X34.152 Y24.635 Z0.027 I-1.419 J-0.934
N9805 X35.517 Y22.091 Z-0.096 I1.468 J-0.85
N9810 X37.179 Y24.447 Z-0.22 I0.103 J1.692
N9815 X34.332 Y24.878 Z-0.344 I-1.557 J-0.664
N9820 X35.219 Y22.142 Z-0.467 I1.289 J-1.094
N9825 X37.266 Y24.158 Z-0.591 I0.401 J1.64
N9830 X34.551 Y25.085 Z-0.715 I-1.644 J-0.375
N9835 X34.936 Y22.246 Z-0.838 I1.07 J-1.301
N9840 X37.3 Y23.859 Z-0.962 I0.684 J1.537
N9845 X34.803 Y25.249 Z-1.085 I-1.678 J-0.076
N9850 X34.677 Y22.398 Z-1.209 I0.818 J-1.465
N9855 X37.28 Y23.56 Z-1.333 I0.943 J1.385
N9860 X35.079 Y25.365 Z-1.456 I-1.658 J0.223
N9865 X34.45 Y22.592 Z-1.58 I0.542 J-1.581
N9870 X37.207 Y23.27 Z-1.704 I1.169 J1.191
N9875 X35.37 Y25.43 Z-1.827 I-1.586 J0.512
N9880 X34.262 Y22.823 Z-1.951 I0.251 J-1.645
N9885 X37.085 Y22.999 Z-2.075 I1.357 J0.96
N9890 X35.667 Y25.442 Z-2.198 I-1.464 J0.783
N9895 X34.119 Y23.083 Z-2.322 I-0.045 J-1.657
N9900 X36.917 Y22.755 Z-2.445 I1.501 J0.7
N9905 X35.96 Y25.401 Z-2.569 I-1.296 J1.027
N9910 X34.025 Y23.363 Z-2.693 I-0.338 J-1.617
N9915 X36.709 Y22.545 Z-2.816 I1.595 J0.42
N9920 X36.24 Y25.308 Z-2.94 I-1.088 J1.237
N9925 X33.982 Y23.655 Z-3.064 I-0.618 J-1.524
N9930 X36.468 Y22.377 Z-3.187 I1.638 J0.129
N9935 X36.498 Y25.168 Z-3.311 I-0.847 J1.405
N9940 X33.991 Y23.948 Z-3.435 I-0.876 J-1.385
N9945 X36.202 Y22.255 Z-3.558 I1.628 J-0.164
N9950 X36.726 Y24.985 Z-3.682 I-0.581 J1.527
N9955 X34.053 Y24.233 Z-3.805 I-1.104 J-1.202
N9960 X35.919 Y22.182 Z-3.929 I1.567 J-0.449
N9965 X36.917 Y24.766 Z-4.053 I-0.299 J1.6
N9970 X34.164 Y24.502 Z-4.176 I-1.295 J-0.982
N9975 X35.63 Y22.161 Z-4.3 I1.456 J-0.718
N9980 X37.066 Y24.516 Z-4.424 I-0.01 J1.621
N9985 X34.32 Y24.746 Z-4.547 I-1.444 J-0.733
N9990 X35.342 Y22.192 Z-4.671 I1.3 J-0.962
N9995 X37.167 Y24.246 Z-4.795 I0.278 J1.591
N10000 X34.517 Y24.957 Z-4.918 I-1.545 J-0.463
N10005 X35.065 Y22.273 Z-5.042 I1.104 J-1.173
N10010 X37.218 Y23.962 Z-5.165 I0.554 J1.51
N10015 X34.747 Y25.13 Z-5.289 I-1.596 J-0.18
N10020 X34.809 Y22.401 Z-5.413 I0.874 J-1.345
N10025 X37.218 Y23.676 Z-5.536 I0.811 J1.382
N10030 X35.003 Y25.258 Z-5.66 I-1.596 J0.107
N10035 X34.58 Y22.573 Z-5.784 I0.618 J-1.473
N10040 X37.167 Y23.395 Z-5.907 I1.04 J1.21
N10045 X35.277 Y25.338 Z-6.031 I-1.545 J0.388
N10050 X34.386 Y22.781 Z-6.155 I0.345 J-1.553
N10055 X37.067 Y23.128 Z-6.278 I1.233 J1.002
N10060 X35.559 Y25.368 Z-6.402 I-1.446 J0.654
N10065 X34.233 Y23.02 Z-6.525 I0.062 J-1.583
N10070 X36.922 Y22.885 Z-6.649 I1.386 J0.763
N10075 X35.841 Y25.347 Z-6.773 I-1.301 J0.897
N10080 X34.126 Y23.281 Z-6.896 I-0.22 J-1.563
N10085 X36.737 Y22.672 Z-7.02 I1.494 J0.502
N10090 X36.114 Y25.277 Z-7.144 I-1.116 J1.11
N10095 X34.067 Y23.556 Z-7.267 I-0.492 J-1.493
N10100 X36.518 Y22.497 Z-7.391 I1.553 J0.228
N10105 X36.369 Y25.159 Z-7.515 I-0.897 J1.285
N10110 X34.057 Y23.836 Z-7.638 I-0.747 J-1.376
N10115 X36.272 Y22.364 Z-7.762 I1.562 J-0.052
N10120 X36.598 Y24.999 Z-7.885 I-0.652 J1.418
N10125 X34.098 Y24.112 Z-8.009 I-0.976 J-1.216
N10130 X36.007 Y22.277 Z-8.133 I1.522 J-0.328
N10135 X36.793 Y24.802 Z-8.256 I-0.387 J1.505
N10140 X34.187 Y24.375 Z-8.38 I-1.171 J-1.018
N10145 X35.733 Y22.238 Z-8.504 I1.433 J-0.591
N10150 X36.95 Y24.574 Z-8.627 I-0.113 J1.544
N10155 X34.321 Y24.618 Z-8.751 I-1.328 J-0.79
N10160 X35.457 Y22.249 Z-8.875 I1.3 J-0.833
N10165 X37.064 Y24.322 Z-8.998 I0.163 J1.533
N10170 X34.495 Y24.831 Z-9.122 I-1.442 J-0.539
N10175 X35.188 Y22.309 Z-9.245 I1.126 J-1.047
N10180 X37.13 Y24.056 Z-9.369 I0.432 J1.473
N10185 X34.703 Y25.01 Z-9.493 I-1.508 J-0.273
N10190 X34.936 Y22.416 Z-9.616 I0.918 J-1.225
N10195 X37.148 Y23.783 Z-9.74 I0.684 J1.367
N10200 X34.091 I-1.529 J0.
N10205 X37.148 I1.529 J0.
N10210 S8000
N10215 G1 X37.172 Y24.668 F680.
N10220 G3 X36.249 Y25.765 I-0.95 J0.138
N10225 G1 X36.024 Y25.775
N10230 X35.823 Y25.782
N10235 X34.816
N10240 G3 X33.207 Y24.642 I0.107 J-1.857
N10245 X33.504 Y22.097 I2.134 J-1.041
N10250 G1 X33.749 Y21.929
N10255 X34.023 Y21.819
N10260 X34.315 Y21.782
N10265 X35.823
N10270 X36.024 Y21.789
N10275 X36.427 Y21.805
N10280 G3 X37.847 Y22.615 I-0.115 J1.852
N10285 X38.466 Y23.963 I-2.379 J1.908
N10290 G1 Y24.097
N10295 X38.455 Y24.231
N10300 G3 X37.879 Y24.57 Z-9.546 I-0.432 J-0.075
N10305 G1 X37.856 Y24.562 Z-9.54
N10310 X37.793 Y24.53
N10315 X37.736 Y24.488
N10320 X37.686 Y24.437
N10325 X36.088 Y22.525
N10330 X36.047 Y22.467
N10335 X36.017 Y22.404
N10340 X35.996 Y22.337
N10345 X35.992 Y22.313 Z-9.546
N10350 G3 X36.427 Y21.805 Z-9.74 I0.433 J-0.07
N10355 X37.638 Y22.147 I0.013 J2.268
N10360 X36.83 Y25.727 I-1.103 J1.632
N10365 G1 X36.628 Y25.745
N10370 X36.427 Y25.76
N10375 X36.249 Y25.767
N10380 G3 X35.731 Y25.311 Z-9.546 I-0.019 J-0.5
N10385 G1 X35.73 Y25.287 Z-9.54
N10390 G3 X36.729 Y25.247 I0.5 J-0.02
N10395 X36.156 Y25.762 I-0.5 J0.02
N10400 G1 X35.241 Y25.626
N10405 G3 X35.388 Y24.637 I0.074 J-0.495
N10410 X35.57 Y25.561 I-0.074 J0.495
N10415 G1 X35.562 Y25.565
N10420 X35.542 Y25.577 Z-9.546
N10425 G3 X34.816 Y25.782 Z-9.74 I-0.781 J-1.377
N10430 G1 X33.699
N10435 G3 X32.343 Y25.057 I0.048 J-1.722
N10440 X31.807 Y22.667 I2.23 J-1.755
N10445 X32.936 Y21.783 I1.125 J0.273
N10450 G1 X34.315 Y21.782
N10455 G3 X34.798 Y22.275 Z-9.546 I-0.017 J0.5
N10460 G1 X34.797 Y22.299 Z-9.54
N10465 X34.787 Y22.382
N10470 X34.195 Y25.267
N10475 X34.191 Y25.291 Z-9.546
N10480 X34.172 Y25.383 Z-9.57
N10485 G3 X33.699 Y25.782 Z-9.74 I-0.49 J-0.101
N10490 G1 X32.492
N10495 G3 X31.205 Y25.103 I0.126 J-1.798
N10500 X30.485 Y22.73 I2.121 J-1.939
N10505 X31.632 Y21.782 I1.149 J0.222
N10510 G1 X32.936
N10515 G3 X33.419 Y22.275 Z-9.546 I-0.017 J0.5
N10520 G1 X33.418 Y22.299 Z-9.54
N10525 X33.413 Y22.355
N10530 X32.982 Y25.266
N10535 X32.979 Y25.29 Z-9.546
N10540 X32.969 Y25.356 Z-9.563
N10545 G3 X32.492 Y25.782 Z-9.74 I-0.495 J-0.073
N10550 G1 X31.395
N10555 G3 X29.899 Y25.026 I0.057 J-1.971
N10560 X29.189 Y22.807 I2.087 J-1.891
N10565 X30.349 Y21.782 I1.163 J0.147
N10570 G1 X31.632
N10575 G3 X32.115 Y22.275 Z-9.546 I-0.017 J0.5
N10580 G1 Y22.299 Z-9.54
N10585 X32.113 Y22.321
N10590 X31.88 Y25.266
N10595 X31.878 Y25.289 Z-9.546
N10600 X31.876 Y25.322 Z-9.554
N10605 G3 X31.395 Y25.782 Z-9.74 I-0.498 J-0.039
N10610 G1 X30.076
N10615 G3 X28.585 Y24.979 I0.126 J-2.02
N10620 X27.91 Y22.786 I2.101 J-1.846
N10625 X29.067 Y21.782 I1.159 J0.167
N10630 G1 X30.349
N10635 G3 X30.831 Y22.275 Z-9.546 I-0.017 J0.5
N10640 G1 Y22.299 Z-9.54
N10645 X30.829 Y22.327
N10650 X30.563 Y25.266
N10655 X30.56 Y25.289 Z-9.546
N10660 X30.557 Y25.328 Z-9.556
N10665 G3 X30.076 Y25.782 Z-9.74 I-0.498 J-0.045
N10670 G1 X28.778
N10675 G3 X27.283 Y24.953 I0.148 J-2.03
N10680 X26.631 Y22.773 I2.114 J-1.82
N10685 X27.786 Y21.782 I1.157 J0.18
N10690 G1 X29.067
N10695 G3 X29.55 Y22.275 Z-9.546 I-0.017 J0.5
N10700 G1 X29.549 Y22.299 Z-9.54
N10705 X29.547 Y22.33
N10710 X29.265 Y25.266
N10715 X29.262 Y25.289 Z-9.546
N10720 X29.258 Y25.33 Z-9.557
N10725 G3 X28.778 Y25.782 Z-9.74 I-0.498 J-0.048
N10730 G1 X27.571
N10735 G3 X25.93 Y24.855 I0.094 J-2.082
N10740 X25.403 Y22.54 I2.093 J-1.693
N10745 X26.225 Y21.816 I1.134 J0.458
N10750 G1 X26.506 Y21.782
N10755 X27.786
N10760 G3 X28.268 Y22.275 Z-9.546 I-0.017 J0.5
N10765 G1 Y22.299 Z-9.54
N10770 X28.267 Y22.318
N10775 X28.056 Y25.266
N10780 X28.054 Y25.289 Z-9.546
N10785 X28.052 Y25.318 Z-9.553
N10790 G3 X27.571 Y25.782 Z-9.74 I-0.499 J-0.036
N10795 G1 X26.252
N10800 G3 X24.757 Y24.991 I0.115 J-2.026
N10805 X24.068 Y22.795 I2.089 J-1.861
N10810 X25.226 Y21.782 I1.161 J0.158
N10815 G1 X26.506
N10820 G3 X26.989 Y22.275 Z-9.546 I-0.017 J0.5
N10825 G1 X26.988 Y22.299 Z-9.54
N10830 X26.987 Y22.324
N10835 X26.738 Y25.266
N10840 X26.736 Y25.289 Z-9.546
N10845 X26.733 Y25.325 Z-9.555
N10850 G3 X26.252 Y25.782 Z-9.74 I-0.498 J-0.042
N10855 G1 X24.954
N10860 G3 X23.458 Y24.97 I0.133 J-2.029
N10865 X22.789 Y22.783 I2.102 J-1.838
N10870 X23.946 Y21.782 I1.159 J0.17
N10875 G1 X25.226
N10880 G3 X25.709 Y22.275 Z-9.546 I-0.017 J0.5
N10885 G1 Y22.299 Z-9.54
N10890 X25.707 Y22.327
N10895 X25.44 Y25.266
N10900 X25.438 Y25.289 Z-9.546
N10905 X25.435 Y25.328 Z-9.556
N10910 G3 X24.954 Y25.782 Z-9.74 I-0.498 J-0.045
N10915 G1 X23.746
N10920 G3 X22.228 Y25.026 I0.057 J-2.017
N10925 X21.505 Y22.817 I2.064 J-1.899
N10930 X22.666 Y21.782 I1.164 J0.137
N10935 G1 X23.946
N10940 G3 X24.428 Y22.275 Z-9.546 I-0.017 J0.5
N10945 G1 Y22.299 Z-9.54
N10950 X24.427 Y22.315
N10955 X24.231 Y25.266
N10960 X24.23 Y25.289 Z-9.546
N10965 X24.228 Y25.316 Z-9.553
N10970 G3 X23.746 Y25.782 Z-9.74 I-0.499 J-0.033
N10975 G1 X22.428
N10980 G3 X20.932 Y25.009 I0.098 J-2.022
N10985 X20.227 Y22.806 I2.076 J-1.879
N10990 X21.387 Y21.782 I1.162 J0.148
N10995 G1 X22.666
N11000 G3 X23.149 Y22.275 Z-9.546 I-0.017 J0.5
N11005 G1 Y22.299 Z-9.54
N11010 X23.147 Y22.321
N11015 X22.914 Y25.266
N11020 X22.912 Y25.289 Z-9.546
N11025 X22.909 Y25.322 Z-9.554
N11030 G3 X22.428 Y25.782 Z-9.74 I-0.498 J-0.04
N11035 G1 X21.13
N11040 G3 X19.634 Y24.988 I0.117 J-2.025
N11045 X18.949 Y22.793 I2.09 J-1.857
N11050 X20.107 Y21.782 I1.161 J0.16
N11055 G1 X21.387
N11060 G3 X21.869 Y22.275 Z-9.546 I-0.017 J0.5
N11065 G1 Y22.299 Z-9.54
N11070 X21.867 Y22.325
N11075 X21.616 Y25.266
N11080 X21.614 Y25.289 Z-9.546
N11085 X21.611 Y25.325 Z-9.555
N11090 G3 X21.13 Y25.782 Z-9.74 I-0.498 J-0.043
N11095 G1 X19.812
N11100 G3 X18.316 Y24.945 I0.157 J-2.034
N11105 X17.671 Y22.768 I2.12 J-1.812
N11110 X18.825 Y21.782 I1.156 J0.184
N11115 G1 X20.107
N11120 G3 X20.589 Y22.275 Z-9.546 I-0.017 J0.5
N11125 G1 Y22.299 Z-9.54
N11130 X20.587 Y22.331
N11135 X20.298 Y25.266
N11140 X20.296 Y25.29 Z-9.546
N11145 X20.292 Y25.331 Z-9.557
N11150 G3 X19.812 Y25.782 Z-9.74 I-0.498 J-0.049
N11155 G1 X18.604
N11160 G3 X16.969 Y24.855 I0.101 J-2.083
N11165 X16.442 Y22.54 I2.093 J-1.694
N11170 X17.264 Y21.816 I1.134 J0.458
N11175 G1 X17.545 Y21.782
N11180 X18.825
N11185 G3 X19.307 Y22.275 Z-9.546 I-0.017 J0.5
N11190 G1 Y22.299 Z-9.54
N11195 X19.306 Y22.319
N11200 X19.089 Y25.266
N11205 X19.087 Y25.289 Z-9.546
N11210 X19.085 Y25.319 Z-9.554
N11215 G3 X18.604 Y25.782 Z-9.74 I-0.499 J-0.037
N11220 G1 X17.306
N11225 G3 X15.81 Y25.007 I0.1 J-2.022
N11230 X15.106 Y22.805 I2.077 J-1.878
N11235 X16.266 Y21.782 I1.162 J0.149
N11240 G1 X17.545
N11245 G3 X18.028 Y22.275 Z-9.546 I-0.017 J0.5
N11250 G1 Y22.299 Z-9.54
N11255 X18.026 Y22.322
N11260 X17.791 Y25.266
N11265 X17.789 Y25.289 Z-9.546
N11270 X17.787 Y25.322 Z-9.554
N11275 G3 X17.306 Y25.782 Z-9.74 I-0.498 J-0.04
N11280 G1 X15.987
N11285 G3 X14.492 Y24.964 I0.14 J-2.031
N11290 X13.829 Y22.779 I2.108 J-1.832
N11295 X14.985 Y21.782 I1.158 J0.174
N11300 G1 X16.266
N11305 G3 X16.748 Y22.275 Z-9.546 I-0.017 J0.5
N11310 G1 Y22.299 Z-9.54
N11315 X16.746 Y22.328
N11320 X16.474 Y25.266
N11325 X16.471 Y25.289 Z-9.546
N11330 X16.468 Y25.329 Z-9.556
N11335 G3 X15.987 Y25.782 Z-9.74 I-0.498 J-0.046
N11340 G1 X14.689
N11345 G3 X13.339 Y25.11 I0.13 J-1.954
N11350 X12.549 Y22.768 I2.009 J-1.982
N11355 X13.703 Y21.782 I1.157 J0.187
N11360 G1 X14.985
N11365 G3 X15.467 Y22.275 Z-9.546 I-0.017 J0.5
N11370 G1 Y22.299 Z-9.54
N11375 X15.465 Y22.331
N11380 X15.176 Y25.266
N11385 X15.173 Y25.29 Z-9.546
N11390 X15.169 Y25.332 Z-9.557
N11395 G3 X14.689 Y25.782 Z-9.74 I-0.498 J-0.049
N11400 G1 X13.482
N11405 G3 X11.847 Y24.854 I0.101 J-2.083
N11410 X11.321 Y22.54 I2.093 J-1.693
N11415 X12.143 Y21.815 I1.134 J0.459
N11420 G1 X12.424 Y21.782
N11425 X13.703
N11430 G3 X14.186 Y22.275 Z-9.546 I-0.017 J0.5
N11435 G1 X14.185 Y22.299 Z-9.54
N11440 X14.184 Y22.319
N11445 X13.967 Y25.266
N11450 X13.965 Y25.289 Z-9.546
N11455 X13.963 Y25.319 Z-9.554
N11460 G3 X13.482 Y25.782 Z-9.74 I-0.499 J-0.037
N11465 G1 X12.163
N11470 G3 X10.668 Y24.984 I0.122 J-2.028
N11475 X9.986 Y22.791 I2.094 J-1.854
N11480 X11.144 Y21.782 I1.16 J0.162
N11485 G1 X12.424
N11490 G3 X12.906 Y22.275 Z-9.546 I-0.017 J0.5
N11495 G1 Y22.299 Z-9.54
N11500 X12.904 Y22.325
N11505 X12.649 Y25.266
N11510 X12.647 Y25.289 Z-9.546
N11515 X12.644 Y25.326 Z-9.555
N11520 G3 X12.163 Y25.782 Z-9.74 I-0.498 J-0.043
N11525 G1 X10.865
N11530 G3 X9.369 Y24.963 I0.139 J-2.03
N11535 X8.707 Y22.779 I2.107 J-1.83
N11540 X9.863 Y21.782 I1.158 J0.174
N11545 G1 X11.144
N11550 G3 X11.626 Y22.275 Z-9.546 I-0.017 J0.5
N11555 G1 Y22.299 Z-9.54
N11560 X11.624 Y22.328
N11565 X11.351 Y25.266
N11570 X11.349 Y25.289 Z-9.546
N11575 X11.345 Y25.329 Z-9.556
N11580 G3 X10.865 Y25.782 Z-9.74 I-0.498 J-0.046
N11585 G1 X9.657
N11590 G3 X8.146 Y25.027 I0.063 J-2.017
N11595 X7.422 Y22.817 I2.065 J-1.899
N11600 X8.583 Y21.782 I1.164 J0.137
N11605 G1 X9.863
N11610 G3 X10.345 Y22.275 Z-9.546 I-0.017 J0.5
N11615 G1 Y22.299 Z-9.54
N11620 X10.344 Y22.316
N11625 X10.142 Y25.266
N11630 X10.141 Y25.289 Z-9.546
N11635 X10.139 Y25.317 Z-9.553
N11640 G3 X9.657 Y25.782 Z-9.74 I-0.499 J-0.034
N11645 G1 X8.339
N11650 G3 X6.843 Y25.002 I0.105 J-2.024
N11655 X6.144 Y22.802 I2.081 J-1.872
N11660 X7.304 Y21.782 I1.162 J0.152
N11665 G1 X8.583
N11670 G3 X9.066 Y22.275 Z-9.546 I-0.017 J0.5
N11675 G1 Y22.299 Z-9.54
N11680 X9.064 Y22.322
N11685 X8.825 Y25.266
N11690 X8.823 Y25.289 Z-9.546
N11695 X8.82 Y25.323 Z-9.555
N11700 G3 X8.339 Y25.782 Z-9.74 I-0.498 J-0.041
N11705 G1 X7.041
N11710 G3 X5.545 Y24.981 I0.123 J-2.027
N11715 X4.866 Y22.789 I2.095 J-1.85
N11720 X6.023 Y21.782 I1.16 J0.164
N11725 G1 X7.304
N11730 G3 X7.786 Y22.275 Z-9.546 I-0.017 J0.5
N11735 G1 Y22.299 Z-9.54
N11740 X7.784 Y22.326
N11745 X7.527 Y25.266
N11750 X7.525 Y25.289 Z-9.546
N11755 X7.521 Y25.326 Z-9.555
N11760 G3 X7.041 Y25.782 Z-9.74 I-0.498 J-0.044
N11765 G1 X5.772
N11770 G3 X4.276 Y24.994 I0.11 J-2.023
N11775 X3.585 Y22.798 I2.086 J-1.864
N11780 X4.743 Y21.782 I1.161 J0.156
N11785 G1 X6.023
N11790 G3 X6.506 Y22.275 Z-9.546 I-0.017 J0.5
N11795 G1 Y22.299 Z-9.54
N11800 X6.504 Y22.324
N11805 X6.258 Y25.266
N11810 X6.256 Y25.289 Z-9.546
N11815 X6.253 Y25.324 Z-9.555
N11820 G3 X5.772 Y25.782 Z-9.74 I-0.498 J-0.042
N11825 G1 X4.515
N11830 G3 X3.019 Y25.02 I0.086 J-2.018
N11835 X2.303 Y22.813 I2.068 J-1.891
N11840 X3.464 Y21.782 I1.163 J0.141
N11845 G1 X4.743
N11850 G3 X5.226 Y22.275 Z-9.546 I-0.017 J0.5
N11855 G1 Y22.299 Z-9.54
N11860 X5.224 Y22.32
N11865 X5. Y25.266
N11870 X4.998 Y25.289 Z-9.546
N11875 X4.996 Y25.32 Z-9.554
N11880 G3 X4.515 Y25.782 Z-9.74 I-0.499 J-0.038
N11885 G1 X3.217
N11890 G3 X1.721 Y24.999 I0.106 J-2.023
N11895 X1.025 Y22.8 I2.083 J-1.869
N11900 X2.184 Y21.782 I1.162 J0.154
N11905 G1 X3.464
N11910 G3 X3.946 Y22.275 Z-9.546 I-0.017 J0.5
N11915 G1 Y22.299 Z-9.54
N11920 X3.945 Y22.323
N11925 X3.702 Y25.266
N11930 X3.7 Y25.289 Z-9.546
N11935 X3.698 Y25.324 Z-9.555
N11940 G3 X3.217 Y25.782 Z-9.74 I-0.498 J-0.041
N11945 G1 X1.898
N11950 G3 X0.403 Y24.956 I0.147 J-2.032
N11955 X-0.252 Y22.775 I2.113 J-1.824
N11960 X0.903 Y21.782 I1.157 J0.178
N11965 G1 X2.184
N11970 G3 X2.666 Y22.275 Z-9.546 I-0.017 J0.5
N11975 G1 Y22.299 Z-9.54
N11980 X2.664 Y22.329
N11985 X2.385 Y25.266
N11990 X2.382 Y25.289 Z-9.546
N11995 X2.379 Y25.33 Z-9.556
N12000 G3 X1.898 Y25.782 Z-9.74 I-0.498 J-0.047
N12005 G1 X0.691
N12010 G3 X-0.814 Y25.027 I0.07 J-2.017
N12015 X-1.538 Y22.817 I2.065 J-1.9
N12020 X-0.377 Y21.782 I1.164 J0.137
N12025 G1 X0.903
N12030 G3 X1.385 Y22.275 Z-9.546 I-0.017 J0.5
N12035 G1 Y22.299 Z-9.54
N12040 X1.384 Y22.317
N12045 X1.176 Y25.266
N12050 X1.174 Y25.289 Z-9.546
N12055 X1.172 Y25.318 Z-9.553
N12060 G3 X0.691 Y25.782 Z-9.74 I-0.499 J-0.035
N12065 G1 X-0.608
N12070 G3 X-2.103 Y25.017 I0.09 J-2.02
N12075 X-2.817 Y22.811 I2.07 J-1.888
N12080 X-1.656 Y21.782 I1.163 J0.143
N12085 G1 X-0.377
N12090 G3 X0.106 Y22.275 Z-9.546 I-0.017 J0.5
N12095 G1 Y22.299 Z-9.54
N12100 X0.104 Y22.32
N12105 X-0.122 Y25.266
N12110 X-0.124 Y25.289 Z-9.546
N12115 X-0.126 Y25.321 Z-9.554
N12120 G3 X-0.608 Y25.782 Z-9.74 I-0.499 J-0.038
N12125 G1 X-1.926
N12130 G3 X-3.421 Y24.974 I0.131 J-2.029
N12135 X-4.093 Y22.785 I2.101 J-1.843
N12140 X-2.937 Y21.782 I1.159 J0.168
N12145 G1 X-1.656
N12150 G3 X-1.174 Y22.275 Z-9.546 I-0.017 J0.5
N12155 G1 Y22.299 Z-9.54
N12160 X-1.176 Y22.327
N12165 X-1.44 Y25.266
N12170 X-1.442 Y25.289 Z-9.546
N12175 X-1.445 Y25.327 Z-9.556
N12180 G3 X-1.926 Y25.782 Z-9.74 I-0.498 J-0.045
N12185 G1 X-3.224
N12190 G3 X-4.72 Y24.953 I0.148 J-2.032
N12195 X-5.373 Y22.773 I2.113 J-1.82
N12200 X-4.218 Y21.782 I1.157 J0.18
N12205 G1 X-2.937
N12210 G3 X-2.454 Y22.275 Z-9.546 I-0.017 J0.5
N12215 G1 Y22.299 Z-9.54
N12220 X-2.456 Y22.33
N12225 X-2.738 Y25.266
N12230 X-2.74 Y25.289 Z-9.546
N12235 X-2.744 Y25.33 Z-9.557
N12240 G3 X-3.224 Y25.782 Z-9.74 I-0.498 J-0.048
N12245 G1 X-4.432
N12250 G3 X-6.074 Y24.855 I0.093 J-2.082
N12255 X-6.601 Y22.54 I2.092 J-1.693
N12260 X-5.778 Y21.816 I1.134 J0.458
N12265 G1 X-5.497 Y21.782
N12270 X-4.218
N12275 G3 X-3.736 Y22.275 Z-9.546 I-0.017 J0.5
N12280 G1 Y22.299 Z-9.54
N12285 X-3.737 Y22.317
N12290 X-3.947 Y25.266
N12295 X-3.948 Y25.289 Z-9.546
N12300 X-3.95 Y25.318 Z-9.553
N12305 G3 X-4.432 Y25.782 Z-9.74 I-0.499 J-0.036
N12310 G1 X-5.75
N12315 G3 X-7.245 Y24.993 I0.113 J-2.026
N12320 X-7.936 Y22.796 I2.088 J-1.863
N12325 X-6.777 Y21.782 I1.161 J0.157
N12330 G1 X-5.497
N12335 G3 X-5.015 Y22.275 Z-9.546 I-0.017 J0.5
N12340 G1 Y22.299 Z-9.54
N12345 X-5.017 Y22.324
N12350 X-5.264 Y25.266
N12355 X-5.266 Y25.289 Z-9.546
N12360 X-5.269 Y25.324 Z-9.555
N12365 G3 X-5.75 Y25.782 Z-9.74 I-0.498 J-0.042
N12370 G1 X-7.048
N12375 G3 X-8.545 Y24.971 I0.131 J-2.028
N12380 X-9.215 Y22.784 I2.101 J-1.84
N12385 X-8.058 Y21.782 I1.159 J0.169
N12390 G1 X-6.777
N12395 G3 X-6.295 Y22.275 Z-9.546 I-0.017 J0.5
N12400 G1 Y22.299 Z-9.54
N12405 X-6.297 Y22.327
N12410 X-6.562 Y25.266
N12415 X-6.564 Y25.289 Z-9.546
N12420 X-6.568 Y25.327 Z-9.556
N12425 G3 X-7.048 Y25.782 Z-9.74 I-0.498 J-0.045
N12430 G1 X-8.256
N12435 G3 X-9.775 Y25.026 I0.056 J-2.017
N12440 X-10.498 Y22.817 I2.064 J-1.898
N12445 X-9.337 Y21.782 I1.164 J0.137
N12450 G1 X-8.058
N12455 G3 X-7.575 Y22.275 Z-9.546 I-0.017 J0.5
N12460 G1 X-7.576 Y22.299 Z-9.54
N12465 X-7.577 Y22.315
N12470 X-7.771 Y25.266
N12475 X-7.773 Y25.289 Z-9.546
N12480 X-7.774 Y25.315 Z-9.553
N12485 G3 X-8.256 Y25.782 Z-9.74 I-0.499 J-0.033
N12490 G1 X-9.574
N12495 G3 X-11.07 Y25.01 I0.097 J-2.022
N12500 X-11.777 Y22.806 I2.075 J-1.881
N12505 X-10.617 Y21.782 I1.163 J0.147
N12510 G1 X-9.337
N12515 G3 X-8.855 Y22.275 Z-9.546 I-0.017 J0.5
N12520 G1 Y22.299 Z-9.54
N12525 X-8.856 Y22.321
N12530 X-9.089 Y25.266
N12535 X-9.091 Y25.289 Z-9.546
N12540 X-9.093 Y25.322 Z-9.554
N12545 G3 X-9.574 Y25.782 Z-9.74 I-0.498 J-0.039
N12550 G1 X-10.872
N12555 G3 X-12.368 Y24.989 I0.115 J-2.025
N12560 X-13.055 Y22.794 I2.089 J-1.859
N12565 X-11.897 Y21.782 I1.161 J0.159
N12570 G1 X-10.617
N12575 G3 X-10.134 Y22.275 Z-9.546 I-0.017 J0.5
N12580 G1 X-10.135 Y22.299 Z-9.54
N12585 X-10.136 Y22.324
N12590 X-10.387 Y25.266
N12595 X-10.389 Y25.289 Z-9.546
N12600 X-10.392 Y25.325 Z-9.555
N12605 G3 X-10.872 Y25.782 Z-9.74 I-0.498 J-0.042
N12610 G1 X-12.191
N12615 G3 X-13.687 Y24.946 I0.155 J-2.034
N12620 X-14.333 Y22.769 I2.119 J-1.813
N12625 X-13.179 Y21.782 I1.156 J0.184
N12630 G1 X-11.897
N12635 G3 X-11.414 Y22.275 Z-9.546 I-0.017 J0.5
N12640 G1 X-11.415 Y22.299 Z-9.54
N12645 X-11.417 Y22.331
N12650 X-11.704 Y25.266
N12655 X-11.706 Y25.289 Z-9.546
N12660 X-11.711 Y25.331 Z-9.557
N12665 G3 X-12.191 Y25.782 Z-9.74 I-0.498 J-0.049
N12670 G1 X-13.398
N12675 G3 X-15.034 Y24.855 I0.099 J-2.082
N12680 X-15.561 Y22.54 I2.093 J-1.694
N12685 X-14.739 Y21.816 I1.134 J0.458
N12690 G1 X-14.458 Y21.782
N12695 X-13.179
N12700 G3 X-12.696 Y22.275 Z-9.546 I-0.017 J0.5
N12705 G1 Y22.299 Z-9.54
N12710 X-12.697 Y22.318
N12715 X-12.913 Y25.266
N12720 X-12.915 Y25.289 Z-9.546
N12725 X-12.917 Y25.319 Z-9.554
N12730 G3 X-13.398 Y25.782 Z-9.74 I-0.499 J-0.037
N12735 G1 X-14.697
N12740 G3 X-16.192 Y25.008 I0.098 J-2.022
N12745 X-16.897 Y22.805 I2.077 J-1.879
N12750 X-15.738 Y21.782 I1.162 J0.148
N12755 G1 X-14.458
N12760 G3 X-13.975 Y22.275 Z-9.546 I-0.017 J0.5
N12765 G1 X-13.976 Y22.299 Z-9.54
N12770 X-13.977 Y22.322
N12775 X-14.211 Y25.266
N12780 X-14.213 Y25.289 Z-9.546
N12785 X-14.216 Y25.322 Z-9.554
N12790 G3 X-14.697 Y25.782 Z-9.74 I-0.498 J-0.04
N12795 G1 X-16.015
N12800 G3 X-17.511 Y24.965 I0.139 J-2.031
N12805 X-18.174 Y22.78 I2.107 J-1.833
N12810 X-17.018 Y21.782 I1.158 J0.173
N12815 G1 X-15.738
N12820 G3 X-15.255 Y22.275 Z-9.546 I-0.017 J0.5
N12825 G1 Y22.299 Z-9.54
N12830 X-15.257 Y22.328
N12835 X-15.529 Y25.266
N12840 X-15.531 Y25.289 Z-9.546
N12845 X-15.534 Y25.329 Z-9.556
N12850 G3 X-16.015 Y25.782 Z-9.74 I-0.498 J-0.046
N12855 G1 X-17.313
N12860 G3 X-18.663 Y25.111 I0.129 J-1.954
N12865 X-19.455 Y22.768 I2.008 J-1.983
N12870 X-18.3 Y21.782 I1.157 J0.186
N12875 G1 X-17.018
N12880 G3 X-16.536 Y22.275 Z-9.546 I-0.017 J0.5
N12885 G1 Y22.299 Z-9.54
N12890 X-16.538 Y22.331
N12895 X-16.826 Y25.266
N12900 X-16.829 Y25.29 Z-9.546
N12905 X-16.833 Y25.331 Z-9.557
N12910 G3 X-17.313 Y25.782 Z-9.74 I-0.498 J-0.049
N12915 G1 X-18.521
N12920 G3 X-20.156 Y24.855 I0.1 J-2.082
N12925 X-20.683 Y22.54 I2.093 J-1.694
N12930 X-19.86 Y21.816 I1.134 J0.458
N12935 G1 X-19.58 Y21.782
N12940 X-18.3
N12945 G3 X-17.818 Y22.275 Z-9.546 I-0.017 J0.5
N12950 G1 Y22.299 Z-9.54
N12955 X-17.819 Y22.319
N12960 X-18.036 Y25.266
N12965 X-18.037 Y25.289 Z-9.546
N12970 X-18.04 Y25.319 Z-9.554
N12975 G3 X-18.521 Y25.782 Z-9.74 I-0.499 J-0.037
N12980 G1 X-19.839
N12985 G3 X-21.334 Y24.985 I0.121 J-2.028
N12990 X-22.017 Y22.792 I2.093 J-1.855
N12995 X-20.86 Y21.782 I1.16 J0.162
N13000 G1 X-19.58
N13005 G3 X-19.097 Y22.275 Z-9.546 I-0.017 J0.5
N13010 G1 Y22.299 Z-9.54
N13015 X-19.099 Y22.325
N13020 X-19.353 Y25.266
N13025 X-19.355 Y25.289 Z-9.546
N13030 X-19.358 Y25.326 Z-9.555
N13035 G3 X-19.839 Y25.782 Z-9.74 I-0.498 J-0.043
N13040 G1 X-21.137
N13045 G3 X-22.634 Y24.964 I0.138 J-2.03
N13050 X-23.296 Y22.779 I2.106 J-1.832
N13055 X-22.141 Y21.782 I1.158 J0.174
N13060 G1 X-20.86
N13065 G3 X-20.377 Y22.275 Z-9.546 I-0.017 J0.5
N13070 G1 Y22.299 Z-9.54
N13075 X-20.379 Y22.328
N13080 X-20.651 Y25.266
N13085 X-20.653 Y25.289 Z-9.546
N13090 X-20.657 Y25.329 Z-9.556
N13095 G3 X-21.137 Y25.782 Z-9.74 I-0.498 J-0.046
N13100 G1 X-22.345
N13105 G3 X-23.858 Y25.027 I0.062 J-2.017
N13110 X-24.581 Y22.817 I2.065 J-1.899
N13115 X-23.42 Y21.782 I1.164 J0.137
N13120 G1 X-22.141
N13125 G3 X-21.658 Y22.275 Z-9.546 I-0.017 J0.5
N13130 G1 Y22.299 Z-9.54
N13135 X-21.659 Y22.316
N13140 X-21.86 Y25.266
N13145 X-21.862 Y25.289 Z-9.546
N13150 X-21.864 Y25.316 Z-9.553
N13155 G3 X-22.345 Y25.782 Z-9.74 I-0.499 J-0.034
N13160 G1 X-23.663
N13165 G3 X-25.159 Y25.003 I0.104 J-2.023
N13170 X-25.859 Y22.802 I2.08 J-1.873
N13175 X-24.7 Y21.782 I1.162 J0.151
N13180 G1 X-23.42
N13185 G3 X-22.937 Y22.275 Z-9.546 I-0.017 J0.5
N13190 G1 X-22.938 Y22.299 Z-9.54
N13195 X-22.939 Y22.322
N13200 X-23.178 Y25.266
N13205 X-23.18 Y25.289 Z-9.546
N13210 X-23.182 Y25.323 Z-9.555
N13215 G3 X-23.663 Y25.782 Z-9.74 I-0.498 J-0.04
N13220 G1 X-24.961
N13225 G3 X-26.458 Y24.982 I0.122 J-2.026
N13230 X-27.137 Y22.79 I2.094 J-1.851
N13235 X-25.98 Y21.782 I1.16 J0.163
N13240 G1 X-24.7
N13245 G3 X-24.217 Y22.275 Z-9.546 I-0.017 J0.5
N13250 G1 Y22.299 Z-9.54
N13255 X-24.219 Y22.325
N13260 X-24.476 Y25.266
N13265 X-24.478 Y25.289 Z-9.546
N13270 X-24.481 Y25.326 Z-9.555
N13275 G3 X-24.961 Y25.782 Z-9.74 I-0.498 J-0.043
N13280 G1 X-26.23
N13285 G3 X-27.726 Y24.995 I0.109 J-2.023
N13290 X-28.419 Y22.798 I2.085 J-1.865
N13295 X-27.26 Y21.782 I1.161 J0.155
N13300 G1 X-25.98
N13305 G3 X-25.497 Y22.275 Z-9.546 I-0.017 J0.5
N13310 G1 X-25.498 Y22.299 Z-9.54
N13315 X-25.499 Y22.323
N13320 X-25.744 Y25.266
N13325 X-25.746 Y25.289 Z-9.546
N13330 X-25.749 Y25.324 Z-9.555
N13335 G3 X-26.23 Y25.782 Z-9.74 I-0.498 J-0.042
N13340 G1 X-27.487
N13345 G3 X-28.983 Y25.02 I0.086 J-2.017
N13350 X-29.7 Y22.814 I2.068 J-1.892
N13355 X-28.539 Y21.782 I1.163 J0.14
N13360 G1 X-27.26
N13365 G3 X-26.777 Y22.275 Z-9.546 I-0.017 J0.5
N13370 G1 X-26.778 Y22.299 Z-9.54
N13375 X-26.779 Y22.32
N13380 X-27.002 Y25.266
N13385 X-27.004 Y25.289 Z-9.546
N13390 X-27.006 Y25.32 Z-9.554
N13395 G3 X-27.487 Y25.782 Z-9.74 I-0.499 J-0.038
N13400 G1 X-28.786
N13405 G3 X-30.281 Y25. I0.106 J-2.023
N13410 X-30.978 Y22.801 I2.082 J-1.87
N13415 X-29.819 Y21.782 I1.162 J0.153
N13420 G1 X-28.539
N13425 G3 X-28.057 Y22.275 Z-9.546 I-0.017 J0.5
N13430 G1 Y22.299 Z-9.54
N13435 X-28.058 Y22.323
N13440 X-28.3 Y25.266
N13445 X-28.302 Y25.289 Z-9.546
N13450 X-28.305 Y25.323 Z-9.555
N13455 G3 X-28.786 Y25.782 Z-9.74 I-0.498 J-0.041
N13460 G1 X-30.104
N13465 G3 X-31.6 Y24.957 I0.146 J-2.032
N13470 X-32.256 Y22.775 I2.112 J-1.825
N13475 X-31.1 Y21.782 I1.157 J0.178
N13480 G1 X-29.819
N13485 G3 X-29.337 Y22.275 Z-9.546 I-0.017 J0.5
N13490 G1 Y22.299 Z-9.54
N13495 X-29.339 Y22.329
N13500 X-29.618 Y25.266
N13505 X-29.62 Y25.289 Z-9.546
N13510 X-29.624 Y25.33 Z-9.556
N13515 G3 X-30.104 Y25.782 Z-9.74 I-0.498 J-0.047
N13520 G1 X-31.312
N13525 G3 X-32.817 Y25.027 I0.069 J-2.017
N13530 X-33.541 Y22.817 I2.065 J-1.9
N13535 X-32.38 Y21.782 I1.164 J0.137
N13540 G1 X-31.1
N13545 G3 X-30.618 Y22.275 Z-9.546 I-0.017 J0.5
N13550 G1 Y22.299 Z-9.54
N13555 X-30.619 Y22.317
N13560 X-30.827 Y25.266
N13565 X-30.828 Y25.289 Z-9.546
N13570 X-30.83 Y25.318 Z-9.553
N13575 G3 X-31.312 Y25.782 Z-9.74 I-0.499 J-0.035
N13580 G1 X-32.61
N13585 G3 X-34.105 Y25.018 I0.089 J-2.02
N13590 X-34.82 Y22.811 I2.07 J-1.889
N13595 X-33.659 Y21.782 I1.163 J0.143
N13600 G1 X-32.38
N13605 G3 X-31.897 Y22.275 Z-9.546 I-0.017 J0.5
N13610 G1 Y22.299 Z-9.54
N13615 X-31.899 Y22.32
N13620 X-32.124 Y25.266
N13625 X-32.126 Y25.289 Z-9.546
N13630 X-32.129 Y25.321 Z-9.554
N13635 G3 X-32.61 Y25.782 Z-9.74 I-0.499 J-0.038
N13640 G1 X-33.928
N13645 G3 X-35.424 Y24.975 I0.13 J-2.029
N13650 X-36.097 Y22.786 I2.1 J-1.844
N13655 X-34.94 Y21.782 I1.159 J0.168
N13660 G1 X-33.659
N13665 G3 X-33.177 Y22.275 Z-9.546 I-0.017 J0.5
N13670 G1 Y22.299 Z-9.54
N13675 X-33.179 Y22.327
N13680 X-33.442 Y25.266
N13685 X-33.444 Y25.289 Z-9.546
N13690 X-33.448 Y25.327 Z-9.556
N13695 G3 X-33.928 Y25.782 Z-9.74 I-0.498 J-0.045
N13700 G1 X-35.226
N13705 G3 X-36.723 Y24.953 I0.148 J-2.032
N13710 X-37.376 Y22.774 I2.113 J-1.821
N13715 X-36.221 Y21.782 I1.157 J0.179
N13720 G1 X-34.94
N13725 G3 X-34.457 Y22.275 Z-9.546 I-0.017 J0.5
N13730 G1 Y22.299 Z-9.54
N13735 X-34.459 Y22.329
N13740 X-34.74 Y25.266
N13745 X-34.742 Y25.289 Z-9.546
N13750 X-34.746 Y25.33 Z-9.556
N13755 G3 X-35.226 Y25.782 Z-9.74 I-0.498 J-0.048
N13760 G1 X-36.434
N13765 G3 X-38.077 Y24.855 I0.092 J-2.082
N13770 X-38.604 Y22.54 I2.092 J-1.693
N13775 X-37.781 Y21.816 I1.134 J0.458
N13780 G1 X-37.5 Y21.782
N13785 X-36.221
N13790 G3 X-35.739 Y22.275 Z-9.546 I-0.017 J0.5
N13795 G1 Y22.299 Z-9.54
N13800 X-35.74 Y22.317
N13805 X-35.949 Y25.266
N13810 X-35.951 Y25.289 Z-9.546
N13815 X-35.953 Y25.318 Z-9.553
N13820 G3 X-36.434 Y25.782 Z-9.74 I-0.499 J-0.035
N13825 G1 X-37.752
N13830 G3 X-39.248 Y24.994 I0.113 J-2.026
N13835 X-39.922 Y22.729 I2.037 J-1.838
N13840 G1 X-39.818 Y22.493
N13845 X-39.674 Y22.282
N13850 X-39.487 Y22.107
N13855 G3 X-38.805 Y22.213 Z-9.546 I0.285 J0.411
N13860 G1 X-38.791 Y22.233 Z-9.54
N13865 X-38.758 Y22.288
N13870 X-37.326 Y25.053
N13875 X-37.297 Y25.121
N13880 X-37.278 Y25.192
N13885 X-37.27 Y25.265
N13890 Y25.289 Z-9.546
N13895 G3 X-37.752 Y25.782 Z-9.74 I-0.5 J-0.007
N13900 X-39.034 Y25.67 I-0.025 J-7.116
N13905 X-39.855 Y25.169 I0.714 J-2.093
N13910 X-38.447 Y21.817 I1.398 J-1.385
N13915 G1 X-38.044 Y21.792
N13920 X-37.843 Y21.782
N13925 X-37.5
N13930 G3 X-37.233 Y21.871 I-0.017 J0.5
N13935 G1 X-37.186 Y21.92 Z-9.735
N13940 X-37.14 Y21.967 Z-9.721
N13945 X-37.096 Y22.013 Z-9.699
N13950 X-37.069 Y22.083 Z-9.658
N13955 X-37.045 Y22.145 Z-9.606
N13960 X-37.025 Y22.198 Z-9.543
N13965 X-37.022 Y22.233 Z-9.489
N13970 X-37.02 Y22.261 Z-9.432
N13975 X-37.018 Y22.282 Z-9.371
N13980 Y22.295 Z-9.306
N13985 Y22.299 Z-9.24
N13990 G0 Z5.
N13995 X-10.542 Y-5.697
N14000 Z2.5
N14005 S6000
N14010 G3 X-8.274 Y-9.449 Z2.317 I2.308 J-1.166 F226.67
N14015 X-5.894 Y-5.773 Z2.135 I0.04 J2.582
N14020 X-10.235 Y-5.241 Z1.952 I-2.337 J-1.092
N14025 X-8.818 Y-9.372 Z1.769 I2.001 J-1.622
N14030 X-5.726 Y-6.296 Z1.587 I0.584 J2.506
N14035 X-9.839 Y-4.861 Z1.404 I-2.506 J-0.57
N14040 X-9.332 Y-9.183 Z1.221 I1.606 J-2.002
N14045 X-5.672 Y-6.84 Z1.039 I1.097 J2.317
N14050 X-9.374 Y-4.575 Z0.856 I-2.56 J-0.026
N14055 X-9.792 Y-8.89 Z0.673 I1.141 J-2.288
N14060 X-5.734 Y-7.382 Z0.49 I1.557 J2.024
N14065 X-8.86 Y-4.394 Z0.308 I-2.498 J0.515
N14070 X-10.179 Y-8.507 Z0.125 I0.628 J-2.469
N14075 X-5.909 Y-7.896 Z-0.058 I1.944 J1.642
N14080 X-8.322 Y-4.327 Z-0.24 I-2.323 J1.029
N14085 X-10.474 Y-8.053 Z-0.423 I0.09 J-2.536
N14090 X-6.188 Y-8.359 Z-0.606 I2.239 J1.188
N14095 X-7.784 Y-4.375 Z-0.788 I-2.045 J1.492
N14100 X-10.666 Y-7.549 Z-0.971 I-0.448 J-2.488
N14105 X-6.557 Y-8.751 Z-1.154 I2.431 J0.684
N14110 X-7.271 Y-4.536 Z-1.336 I-1.676 J1.885
N14115 X-10.746 Y-7.017 Z-1.519 I-0.961 J-2.328
N14120 X-6.999 Y-9.055 Z-1.702 I2.511 J0.153
N14125 X-6.804 Y-4.8 Z-1.884 I-1.234 J2.189
N14130 X-10.711 Y-6.483 Z-2.067 I-1.427 J-2.064
N14135 X-7.494 Y-9.258 Z-2.25 I2.477 J-0.381
N14140 X-6.406 Y-5.157 Z-2.433 I-0.739 J2.391
N14145 X-10.565 Y-5.97 Z-2.615 I-1.825 J-1.708
N14150 X-8.019 Y-9.351 Z-2.798 I2.331 J-0.894
N14155 X-6.094 Y-5.587 Z-2.981 I-0.215 J2.484
N14160 X-10.315 Y-5.501 Z-3.163 I-2.137 J-1.278
N14165 X-8.549 Y-9.33 Z-3.346 I2.081 J-1.362
N14170 X-5.881 Y-6.073 Z-3.529 I0.315 J2.464
N14175 X-9.972 Y-5.098 Z-3.711 I-2.35 J-0.793
N14180 X-9.061 Y-9.198 Z-3.894 I1.738 J-1.765
N14185 X-5.776 Y-6.59 Z-4.077 I0.827 J2.332
N14190 X-9.553 Y-4.778 Z-4.259 I-2.456 J-0.276
N14195 X-9.532 Y-8.962 Z-4.442 I1.32 J-2.085
N14200 X-5.783 Y-7.116 Z-4.625 I1.297 J2.096
N14205 X-9.077 Y-4.555 Z-4.807 I-2.449 J0.25
N14210 X-9.94 Y-8.632 Z-4.99 I0.845 J-2.309
N14215 X-5.901 Y-7.627 Z-5.173 I1.705 J1.766
N14220 X-8.567 Y-4.438 Z-5.356 I-2.331 J0.76
N14225 X-10.268 Y-8.225 Z-5.538 I0.335 J-2.426
N14230 X-6.124 Y-8.099 Z-5.721 I2.032 J1.36
N14235 X-8.046 Y-4.432 Z-5.904 I-2.109 J1.232
N14240 X-10.501 Y-7.759 Z-6.086 I-0.186 J-2.432
N14245 X-6.44 Y-8.511 Z-6.269 I2.266 J0.895
N14250 X-7.538 Y-4.536 Z-6.452 I-1.793 J1.644
N14255 X-10.629 Y-7.257 Z-6.634 I-0.694 J-2.328
N14260 X-6.835 Y-8.846 Z-6.817 I2.394 J0.393
N14265 X-7.064 Y-4.744 Z-7. I-1.398 J1.979
N14270 X-10.648 Y-6.741 Z-7.182 I-1.167 J-2.12
N14275 X-7.29 Y-9.088 Z-7.365 I2.414 J-0.123
N14280 X-6.648 Y-5.047 Z-7.548 I-0.943 J2.222
N14285 X-10.558 Y-6.235 Z-7.73 I-1.584 J-1.817
N14290 X-7.784 Y-9.228 Z-7.913 I2.324 J-0.629
N14295 X-6.306 Y-5.43 Z-8.096 I-0.449 J2.362
N14300 X-10.363 Y-5.761 Z-8.279 I-1.925 J-1.435
N14305 X-8.295 Y-9.26 Z-8.461 I2.129 J-1.103
N14310 X-6.055 Y-5.875 Z-8.644 I0.061 J2.394
N14315 X-10.073 Y-5.341 Z-8.827 I-2.177 J-0.99
N14320 X-8.799 Y-9.183 Z-9.009 I1.84 J-1.523
N14325 X-5.904 Y-6.361 Z-9.192 I0.564 J2.317
N14330 X-9.703 Y-4.993 Z-9.375 I-2.328 J-0.505
N14335 X-9.273 Y-9.002 Z-9.557 I1.469 J-1.87
N14340 X-5.859 Y-6.866 Z-9.74 I1.038 J2.136
N14345 X-10.61 I-2.375 J0.
N14350 X-5.859 I2.375 J0.
N14355 S8000
N14360 G1 X-5.856 Y-6.644 F680.
N14365 X-5.673 Y-5.777
N14370 G3 X-6.204 Y-4.153 I-1.834 J0.299
N14375 X-8.588 Y-3.203 I-2.166 J-1.969
N14380 X-12.02 Y-6.876 I0.189 J-3.617
N14385 X-5.042 Y-8.923 I3.786 J-0.01
N14390 X-4.122 Y-6.672 I-5.26 J3.461
N14395 X-7.141 Y-1.882 I-4.148 J0.732
N14400 X-11.938 Y-3.035 I-1.412 J-4.679
N14405 X-10.248 Y-11.862 I3.642 J-3.878
N14410 X-5.647 Y-11.6 I2.028 J4.922
N14415 X-3.518 Y-9.598 I-2.952 J5.271
N14420 X-2.531 Y-4.741 I-5.213 J3.588
N14425 X-7.596 Y-0.088 I-5.898 J-1.337
N14430 X-13.775 Y-2.539 I-0.979 J-6.546
N14435 X-11.506 Y-13.154 I5.476 J-4.379
N14440 X-3.904 Y-12.492 I3.285 J6.265
N14445 X-0.664 Y-5.757 I-4.849 J6.479
N14450 X-6.591 Y1.482 I-7.766 J-0.313
N14455 X-13.571 Y0.081 I-2.022 J-8.019
N14460 X-16.922 Y-8.568 I5.162 J-6.973
N14465 X-3.549 Y-14.403 I8.692 J1.679
N14470 X-1.194 Y-12.391 I-4.76 J7.956
N14475 X0.438 Y-9.678 I-7.511 J6.367
N14480 X-0.042 Y-1.461 I-8.924 J3.601
N14485 X-6.779 Y3.369 I-8.47 J-4.699
N14490 X-13.825 Y2.088 I-1.835 J-9.921
N14495 X-18.784 Y-5.354 I5.368 J-8.95
N14500 X-12.714 Y-16.571 I10.517 J-1.56
N14505 X-9.423 Y-17.492 I4.462 J9.6
N14510 X-3.514 Y-16.47 I1.191 J10.706
N14515 X1.079 Y-12.412 I-5.032 J10.324
N14520 X1.975 Y-1.402 I-9.601 J6.323
N14525 X-5.123 Y4.853 I-10.487 J-4.746
N14530 X-12.106 I-3.491 J-11.223
N14535 X-19.376 Y-1.247 I3.55 J-11.613
N14540 X-20.392 Y-9.861 I10.965 J-5.66
N14545 X-16.239 Y-16.511 I12.058 J2.908
N14550 X-8.944 Y-19.385 I7.978 J9.555
N14555 X-2.913 Y-18.231 I0.733 J12.507
N14560 X1.913 Y-14.425 I-5.482 J11.912
N14565 X4.147 Y-1.87 I-10.438 J8.334
N14570 X0.366 Y3.838 I-12.488 J-4.166
N14575 G1 X-0.608 Y4.577
N14580 X-0.809 Y4.715
N14585 X-1.01 Y4.828
N14590 X-2.218 Y5.485
N14595 X-2.778 Y5.752
N14600 G3 X-4.834 Y6.45 I-7.402 J-18.403
N14605 G1 X-5.035 Y6.494
N14610 X-6.243 Y6.728
N14615 X-6.458 Y6.757
N14620 X-6.847 Y6.803
N14625 X-7.048 Y6.823
N14630 X-8.658 Y6.885
N14635 X-8.86 Y6.877
N14640 X-10.269 Y6.715
N14645 X-10.47 Y6.691
N14650 X-11.074 Y6.578
N14655 X-11.185 Y6.556
N14660 X-12.483 Y6.2
N14665 X-12.625 Y6.154
N14670 X-13.174 Y5.953
N14675 X-13.288 Y5.909
N14680 X-14.535 Y5.349
N14685 G3 X-16.508 Y4.126 I12.267 J-21.971
N14690 G1 X-16.733 Y3.941
N14695 X-18.088 Y2.735
N14700 G3 X-19.529 Y0.993 I36.895 J-31.99
N14705 G1 X-20.533 Y-0.703
N14710 X-20.619 Y-0.886
N14715 G3 X-21.399 Y-2.896 I29.053 J-12.431
N14720 G1 X-21.68 Y-4.104
N14725 X-21.724 Y-4.305
N14730 X-21.842 Y-4.908
N14735 G3 X-21.979 Y-7.121 I22.585 J-2.506
N14740 X-21.795 Y-9.132 I32.806 J1.978
N14745 G1 X-21.513 Y-10.339
N14750 X-21.463 Y-10.54
N14755 X-21.296 Y-11.143
N14760 X-21.222 Y-11.344
N14765 X-20.735 Y-12.552
N14770 X-20.639 Y-12.752
N14775 X-20.443 Y-13.154
N14780 X-20.332 Y-13.364
N14785 X-19.527 Y-14.718
N14790 G3 X-18.118 Y-16.432 I44.934 J35.495
N14795 G1 X-17.917 Y-16.613
N14800 X-16.833 Y-17.579
N14805 G3 X-14.698 Y-18.998 I11.275 J14.644
N14810 G1 X-14.495 Y-19.093
N14815 X-13.288 Y-19.634
N14820 X-13.086 Y-19.711
N14825 X-12.684 Y-19.858
N14830 X-12.483 Y-19.925
N14835 X-11.275 Y-20.257
N14840 G3 X-9.061 Y-20.574 I3.279 J15.047
N14845 G1 X-8.457 Y-20.597
N14850 X-8.278 Y-20.596
N14855 X-7.048 Y-20.549
N14860 X-6.847 Y-20.529
N14865 X-6.444 Y-20.481
N14870 X-6.243 Y-20.454
N14875 X-5.035 Y-20.22
N14880 X-4.906 Y-20.194
N14885 X-4.23 Y-20.003
N14890 X-4.197 Y-19.993
N14895 X-3.023 Y-19.571
N14900 X-2.821 Y-19.498
N14905 G3 X-0.714 Y-18.383 I-12.055 J25.355
N14910 G1 X0.606 Y-17.378
N14915 G3 X2.615 Y-15.294 I-10.288 J11.93
N14920 G1 X3.418 Y-14.148
N14925 X3.547 Y-13.959
N14930 G3 X4.619 Y-11.749 I-24.415 J13.203
N14935 X5.208 Y-9.736 I-22.961 J7.81
N14940 G1 X5.393 Y-8.528
N14945 X5.42 Y-8.327
N14950 X5.486 Y-7.724
N14955 G3 X5.446 Y-5.511 I-23.37 J0.679
N14960 X5.095 Y-3.5 I-24.536 J-3.244
N14965 G1 X4.712 Y-2.294
N14970 X4.644 Y-2.092
N14975 X4.413 Y-1.489
N14980 X4.317 Y-1.288
N14985 X3.719 Y-0.081
N14990 G3 X2.209 Y2.072 I-14.675 J-8.689
N14995 G1 X0.993 Y3.338
N15000 X0.801 Y3.503
N15005 X0.364 Y3.836
N15010 G3 X0.098 Y3.928 I-0.289 J-0.408
N15015 G1 X0.075 Z-9.739
N15020 X0.009 Y3.915 Z-9.731
N15025 X-0.056 Y3.902 Z-9.714
N15030 X-0.119 Y3.889 Z-9.688
N15035 X-0.166 Y3.857 Z-9.654
N15040 X-0.21 Y3.827 Z-9.612
N15045 X-0.249 Y3.801 Z-9.564
N15050 X-0.282 Y3.778 Z-9.51
N15055 X-0.304 Y3.752 Z-9.448
N15060 X-0.32 Y3.733 Z-9.381
N15065 X-0.329 Y3.721 Z-9.311
N15070 X-0.333 Y3.717 Z-9.24
N15075 G0 Z5.
N15080 X50.503 Y-11.457
N15085 Z2.5
N15090 S6000
N15095 G3 X52.771 Y-15.209 Z2.317 I2.308 J-1.166 F226.67
N15100 X55.151 Y-11.533 Z2.135 I0.04 J2.582
N15105 X50.81 Y-11.001 Z1.952 I-2.337 J-1.092
N15110 X52.227 Y-15.132 Z1.769 I2.001 J-1.622
N15115 X55.319 Y-12.056 Z1.587 I0.584 J2.506
N15120 X51.206 Y-10.621 Z1.404 I-2.506 J-0.57
N15125 X51.713 Y-14.943 Z1.221 I1.606 J-2.002
N15130 X55.374 Y-12.6 Z1.039 I1.097 J2.317
N15135 X51.671 Y-10.335 Z0.856 I-2.56 J-0.026
N15140 X51.253 Y-14.649 Z0.673 I1.141 J-2.288
N15145 X55.311 Y-13.141 Z0.49 I1.557 J2.024
N15150 X52.185 Y-10.154 Z0.308 I-2.498 J0.515
N15155 X50.866 Y-14.267 Z0.125 I0.628 J-2.469
N15160 X55.136 Y-13.655 Z-0.058 I1.944 J1.642
N15165 X52.723 Y-10.087 Z-0.24 I-2.323 J1.029
N15170 X50.571 Y-13.813 Z-0.423 I0.09 J-2.536
N15175 X54.857 Y-14.119 Z-0.606 I2.239 J1.188
N15180 X53.261 Y-10.135 Z-0.788 I-2.045 J1.492
N15185 X50.379 Y-13.309 Z-0.971 I-0.448 J-2.488
N15190 X54.488 Y-14.511 Z-1.154 I2.431 J0.684
N15195 X53.774 Y-10.296 Z-1.336 I-1.676 J1.885
N15200 X50.299 Y-12.777 Z-1.519 I-0.961 J-2.328
N15205 X54.046 Y-14.815 Z-1.702 I2.511 J0.153
N15210 X54.241 Y-10.56 Z-1.884 I-1.234 J2.189
N15215 X50.334 Y-12.243 Z-2.067 I-1.427 J-2.064
N15220 X53.551 Y-15.018 Z-2.25 I2.477 J-0.381
N15225 X54.639 Y-10.916 Z-2.433 I-0.739 J2.391
N15230 X50.48 Y-11.73 Z-2.615 I-1.825 J-1.708
N15235 X53.026 Y-15.11 Z-2.798 I2.331 J-0.894
N15240 X54.951 Y-11.347 Z-2.981 I-0.215 J2.484
N15245 X50.73 Y-11.261 Z-3.163 I-2.137 J-1.278
N15250 X52.496 Y-15.09 Z-3.346 I2.081 J-1.362
N15255 X55.164 Y-11.833 Z-3.529 I0.315 J2.464
N15260 X51.073 Y-10.858 Z-3.711 I-2.35 J-0.793
N15265 X51.984 Y-14.958 Z-3.894 I1.738 J-1.765
N15270 X55.269 Y-12.35 Z-4.077 I0.827 J2.332
N15275 X51.492 Y-10.538 Z-4.259 I-2.456 J-0.276
N15280 X51.513 Y-14.721 Z-4.442 I1.32 J-2.085
N15285 X55.262 Y-12.876 Z-4.625 I1.297 J2.096
N15290 X51.968 Y-10.314 Z-4.807 I-2.449 J0.25
N15295 X51.105 Y-14.392 Z-4.99 I0.845 J-2.309
N15300 X55.144 Y-13.386 Z-5.173 I1.705 J1.766
N15305 X52.478 Y-10.198 Z-5.356 I-2.331 J0.76
N15310 X50.777 Y-13.985 Z-5.538 I0.335 J-2.426
N15315 X54.921 Y-13.858 Z-5.721 I2.032 J1.36
N15320 X52.999 Y-10.191 Z-5.904 I-2.109 J1.232
N15325 X50.544 Y-13.519 Z-6.086 I-0.186 J-2.432
N15330 X54.605 Y-14.271 Z-6.269 I2.266 J0.895
N15335 X53.507 Y-10.295 Z-6.452 I-1.793 J1.644
N15340 X50.416 Y-13.017 Z-6.634 I-0.694 J-2.328
N15345 X54.21 Y-14.606 Z-6.817 I2.394 J0.393
N15350 X53.981 Y-10.504 Z-7. I-1.398 J1.979
N15355 X50.397 Y-12.501 Z-7.182 I-1.167 J-2.12
N15360 X53.755 Y-14.848 Z-7.365 I2.414 J-0.123
N15365 X54.397 Y-10.807 Z-7.548 I-0.943 J2.222
N15370 X50.487 Y-11.995 Z-7.73 I-1.584 J-1.817
N15375 X53.261 Y-14.988 Z-7.913 I2.324 J-0.629
N15380 X54.739 Y-11.19 Z-8.096 I-0.449 J2.362
N15385 X50.682 Y-11.521 Z-8.279 I-1.925 J-1.435
N15390 X52.75 Y-15.02 Z-8.461 I2.129 J-1.103
N15395 X54.99 Y-11.635 Z-8.644 I0.061 J2.394
N15400 X50.972 Y-11.101 Z-8.827 I-2.177 J-0.99
N15405 X52.246 Y-14.943 Z-9.009 I1.84 J-1.523
N15410 X55.141 Y-12.121 Z-9.192 I0.564 J2.317
N15415 X51.342 Y-10.753 Z-9.375 I-2.328 J-0.505
N15420 X51.772 Y-14.762 Z-9.557 I1.469 J-1.87
N15425 X55.186 Y-12.626 Z-9.74 I1.038 J2.136
N15430 X50.435 I-2.375 J0.
N15435 X55.186 I2.375 J0.
N15440 S8000
N15445 G1 X55.189 Y-12.404 F680.
N15450 X55.373 Y-11.537
N15455 G3 X54.841 Y-9.913 I-1.834 J0.299
N15460 X52.457 Y-8.963 I-2.166 J-1.969
N15465 X49.025 Y-12.635 I0.189 J-3.617
N15470 X56.003 Y-14.683 I3.786 J-0.01
N15475 X56.923 Y-12.432 I-5.26 J3.461
N15480 X53.904 Y-7.642 I-4.148 J0.732
N15485 X49.107 Y-8.795 I-1.412 J-4.679
N15490 X50.797 Y-17.622 I3.642 J-3.878
N15495 X55.398 Y-17.36 I2.028 J4.922
N15500 X57.527 Y-15.358 I-2.952 J5.271
N15505 X58.514 Y-10.501 I-5.213 J3.588
N15510 X53.449 Y-5.848 I-5.898 J-1.337
N15515 X47.27 Y-8.299 I-0.979 J-6.546
N15520 X49.539 Y-18.914 I5.476 J-4.379
N15525 X57.141 Y-18.252 I3.285 J6.265
N15530 X60.381 Y-11.517 I-4.849 J6.479
N15535 X54.454 Y-4.278 I-7.766 J-0.313
N15540 X47.474 Y-5.679 I-2.022 J-8.019
N15545 X44.123 Y-14.328 I5.162 J-6.973
N15550 X57.496 Y-20.162 I8.692 J1.679
N15555 X59.851 Y-18.15 I-4.76 J7.956
N15560 X61.483 Y-15.438 I-7.511 J6.367
N15565 X61.003 Y-7.221 I-8.924 J3.601
N15570 X54.266 Y-2.391 I-8.47 J-4.699
N15575 X49.594 Y-2.636 I-1.832 J-9.738
N15580 X48.303 Y-3.149 I1.591 J-5.882
N15585 X46.892 Y-3.951 I3.713 J-8.175
N15590 G1 X46.088 Y-4.547
N15595 G3 X44.546 Y-6.114 I9.201 J-10.594
N15600 G1 X43.672 Y-7.409
N15605 G3 X42.976 Y-8.93 I18.691 J-9.475
N15610 X42.401 Y-11.142 I12.938 J-4.542
N15615 G1 X42.305 Y-12.35
N15620 G3 X42.465 Y-14.524 I15.851 J0.068
N15625 G1 X42.789 Y-15.769
N15630 G3 X43.901 Y-18.185 I10.969 J3.584
N15635 X44.876 Y-19.514 I14.526 J9.634
N15640 X45.945 Y-20.599 I21.13 J19.752
N15645 G1 X47.094 Y-21.444
N15650 G3 X49.107 Y-22.461 I6.801 J10.955
N15655 G1 X50.516 Y-22.893
N15660 G3 X52.528 Y-23.129 I3.025 J17.031
N15665 G1 X52.73 Y-23.128
N15670 X53.937 Y-23.076
N15675 G3 X56.356 Y-22.516 I-1.749 J13.052
N15680 G1 X57.359 Y-22.103
N15685 X57.56 Y-22.01
N15690 X58.239 Y-21.602
N15695 X58.892 Y-21.199
N15700 G3 X60.38 Y-19.924 I-9.255 J12.3
N15705 G1 X60.832 Y-19.389
N15710 X61.384 Y-18.705
N15715 G3 X62.475 Y-16.776 I-11.47 J7.756
N15720 X63.02 Y-15.166 I-40.952 J14.758
N15725 G1 X63.158 Y-14.361
N15730 G3 X63.299 Y-12.35 I-8.286 J1.593
N15735 G1 X63.292 Y-11.746
N15740 X63.271 Y-11.545
N15745 X63.064 Y-10.339
N15750 X63.016 Y-10.137
N15755 X62.904 Y-9.735
N15760 X62.846 Y-9.534
N15765 X62.491 Y-8.528
N15770 X62.417 Y-8.327
N15775 X62.316 Y-8.126
N15780 X61.586 Y-6.818
N15785 X61.525 Y-6.718
N15790 X60.982 Y-6.042
N15795 X60.551 Y-5.512
N15800 X60.381 Y-5.31
N15805 G3 X58.771 Y-3.966 I-13.717 J-14.792
N15810 G1 X57.963 Y-3.476
N15815 X57.56 Y-3.229
N15820 X57.359 Y-3.144
N15825 X56.151 Y-2.659
N15830 G3 X53.937 Y-2.174 I-3.708 J-11.638
N15835 G1 X52.73 Y-2.119
N15840 G3 X50.313 Y-2.412 I0.332 J-12.859
