%
(102)
(T1 D=5. CR=0. - ZMIN=-13.858 - FLAT END MILL)
N10 G90 G94 G17 G91.1
N15 G21
N20 G53 G0 Z0.
(ADAPTIVE2)
N25 T1 M6
N30 S9000 M3
N35 G17 G90 G94
N40 G54
N45 G64 P0.1 Q0.1
N50 G0 X18.795 Y18.647
N55 G43 Z15. H1
N60 G0 Z-6.775
N65 G1 Z-9.275 F1000.
N70 G3 X17.682 Y17.84 I3.168 J-5.54
N75 G1 X17.59 Y17.751
N80 X17.431 Y17.455
N85 X17.263 Y17.072
N90 X17.086 Y16.562
N95 X16.902 Y15.851
N100 G3 X16.559 Y12.328 I19.765 J-3.701
N105 X16.501 Y7.169 I133.735 J-4.105
N110 G1 X16.536 Y7.014
N115 X16.588 Y6.865
N120 X16.9 Y6.132
N125 G2 X17.223 Y5.126 I-6.072 J-2.506
N130 G1 X17.621 Y3.518
N135 G2 X17.825 Y2.312 I-7.394 J-1.865
N140 X17.996 Y-0.1 I-38.809 J-3.965
N145 X17.756 Y-2.916 I-50.607 J2.891
N150 X17.114 Y-5.529 I-43.56 J9.316
N155 G3 X16.598 Y-9.028 I14.324 J-3.898
N160 X16.503 Y-13.678 I92.94 J-4.232
N165 G1 X16.415 Y-14.113
N170 X16.189 Y-14.494
N175 X15.591 Y-15.148
N180 X14.829 Y-15.6
N185 X13.996 Y-15.902
N190 X13.133 Y-16.102
N195 G2 X9.604 Y-16.404 I-3.826 J23.902
N200 G3 X7.314 Y-16.458 I7.544 J-372.827
N205 G1 X7.18 Y-16.485
N210 X7.049 Y-16.526
N215 X5.529 Y-17.102
N220 G2 X4.322 Y-17.437 I-2.438 J6.439
N225 X2.312 Y-17.836 I-7.795 J34.029
N230 G1 X2.111 Y-17.863
N235 G2 X-0.503 Y-17.979 I-3.119 J40.821
N240 X-1.709 Y-17.874 I0.191 J9.19
N245 G1 X-3.116 Y-17.704
N250 G2 X-4.121 Y-17.496 I0.92 J6.972
N255 G1 X-5.529 Y-17.088
N260 G3 X-9.03 Y-16.59 I-3.913 J-14.963
N265 X-13.681 Y-16.501 I-4.164 J-95.823
N270 G1 X-14.116 Y-16.413
N275 X-14.497 Y-16.187
N280 X-15.15 Y-15.588
N285 X-15.601 Y-14.825
N290 X-15.903 Y-13.992
N295 X-16.103 Y-13.129
N300 G2 X-16.405 Y-9.6 I23.938 J3.826
N305 G3 X-16.456 Y-7.393 I-668.52 J-14.534
N310 G1 X-16.482 Y-7.261
N315 X-16.522 Y-7.133
N320 G2 X-17.465 Y-4.324 I38.964 J14.655
N325 X-17.925 Y-1.508 I36.91 J7.469
N330 G1 X-17.946 Y-1.307
N335 G2 X-17.934 Y1.508 I57.919 J1.155
N340 X-17.464 Y4.323 I50.963 J-7.055
N345 G1 X-17.41 Y4.523
N350 X-17.39 Y4.6
N355 X-17.214 Y5.126
N360 G3 X-16.612 Y8.609 I-12.742 J3.996
N365 X-16.502 Y13.703 I-86.496 J4.411
N370 G1 X-16.456 Y13.92
N375 X-16.29 Y14.331
N380 X-15.748 Y15.032
N385 X-15.009 Y15.52
N390 X-14.186 Y15.849
N395 X-13.327 Y16.066
N400 G2 X-9.801 Y16.395 I3.811 J-21.825
N405 G1 X-7.3 Y16.455
N410 X-7.138 Y16.496
N415 X-6.983 Y16.555
N420 G2 X-5.729 Y17.029 I2.674 J-5.18
N425 G1 X-4.121 Y17.496
N430 G2 X-3.116 Y17.704 I1.877 J-6.524
N435 X-0.704 Y17.981 I6.964 J-49.997
N440 X1.91 Y17.886 I-1.404 J-74.626
N445 X2.915 Y17.726 I-1.073 J-10.009
N450 X4.926 Y17.298 I-5.611 J-31.275
N455 G1 X5.126 Y17.243
N460 X5.294 Y17.189
N465 X6.101 Y16.954
N470 X6.969 Y16.775
N475 G3 X10.502 Y16.523 I3.722 J27.312
N480 G1 X11.388 Y16.503
N485 X12.052 Y16.495
N490 X12.269 Y16.451
N495 X12.679 Y16.282
N500 X13.336 Y15.688
N505 X13.769 Y14.914
N510 X14.045 Y14.072
N515 G2 X14.404 Y11.084 I-14.615 J-3.273
N520 G1 X14.435 Y10.878
N525 X14.499 Y10.679
N530 X14.598 Y10.496
N535 G2 X15.944 Y8.346 I-38.437 J-25.56
N540 G1 X16.125 Y7.941
N545 X16.215 Y7.74
N550 X16.588 Y6.865
N555 X16.886 Y6.165 Z-9.081
N560 X16.895 Y6.143 Z-9.075
N565 G2 X17.222 Y5.126 I-5.742 J-2.406
N570 G1 X17.621 Y3.518
N575 G2 X17.825 Y2.312 I-7.394 J-1.865
N580 X17.997 Y-0.1 I-46.666 J-4.544
N585 X17.784 Y-2.714 I-117.663 J8.264
N590 X17.622 Y-3.518 I-12.679 J2.134
N595 G1 X17.313 Y-4.77
N600 X17.307 Y-4.793 Z-9.081
N605 X17.225 Y-5.126 Z-9.169
N610 X17.189 Y-5.263 Z-9.205
N615 X17.17 Y-5.327 Z-9.222
N620 X17.112 Y-5.529 Z-9.275
N625 X17.052 Y-5.73
N630 X16.984 Y-5.931
N635 G2 X15.94 Y-8.343 I-46.866 J18.843
N640 G1 X15.83 Y-8.544
N645 X15.781 Y-8.625
N650 X15.708 Y-8.745
N655 X15.5 Y-9.118
N660 X15.324 Y-9.502
N665 X15.142 Y-10.004
N670 X14.953 Y-10.693
N675 X14.788 Y-11.564
N680 X14.383 Y-12.352
N685 X13.748 Y-12.97
N690 X12.988 Y-13.427
N695 X12.165 Y-13.753
N700 X11.477 Y-13.937
N705 X11.322 Y-13.991
N710 X11.175 Y-14.066
N715 X11.041 Y-14.16
N720 G3 X10.994 Y-14.866 I0.33 J-0.376
N725 G1 X11.051 Y-14.931 Z-9.267
N730 X11.107 Y-14.995 Z-9.245
N735 X11.159 Y-15.054 Z-9.208
N740 X11.206 Y-15.108 Z-9.158
N745 X11.247 Y-15.154 Z-9.096
N750 X11.28 Y-15.192 Z-9.025
N755 X11.304 Y-15.219 Z-8.946
N760 X11.319 Y-15.236 Z-8.862
N765 X11.324 Y-15.242 Z-8.775
N770 G0 Z5.
N775 X16.74 Y-7.995
N780 Z-8.275
N785 G1 Z-8.775 F1000.
N790 X16.733 Y-7.998 Z-8.862
N795 X16.713 Y-8.009 Z-8.946
N800 X16.68 Y-8.025 Z-9.025
N805 X16.636 Y-8.048 Z-9.096
N810 X16.581 Y-8.076 Z-9.158
N815 X16.517 Y-8.109 Z-9.208
N820 X16.447 Y-8.145 Z-9.245
N825 X16.372 Y-8.184 Z-9.267
N830 X16.295 Y-8.224 Z-9.275
N835 G3 X15.708 Y-8.745 I0.724 J-1.407
N840 G2 X14.376 Y-10.822 I-40.814 J24.71
N845 G1 X14.268 Y-10.956
N850 G2 X12.668 Y-12.766 I-40.214 J33.963
N855 X11.76 Y-13.572 I-4.761 J4.444
N860 G1 X10.532 Y-14.575
N865 G2 X9.75 Y-15.099 I-3.969 J5.075
N870 X7.74 Y-16.249 I-38.246 J64.542
N875 G1 X7.539 Y-16.333
N880 X7.137 Y-16.492
N885 X7.049 Y-16.526
N890 X6.337 Y-16.795 Z-9.081
N895 X6.315 Y-16.804 Z-9.075
N900 G2 X4.926 Y-17.3 I-4.932 J11.615
N905 X2.312 Y-17.836 I-8.944 J36.981
N910 G1 X2.111 Y-17.863
N915 G2 X-0.704 Y-17.98 I-3.035 J39.231
N920 X-3.72 Y-17.604 I2.934 J35.903
N925 X-4.775 Y-17.306 I8.846 J33.314
N930 G1 X-4.797 Y-17.3 Z-9.081
N935 X-5.529 Y-17.088 Z-9.275
N940 G2 X-7.344 Y-16.382 I1.927 J7.638
N945 X-9.007 Y-15.582 I15.535 J34.444
N950 G1 X-9.161 Y-15.494
N955 X-9.544 Y-15.319
N960 X-10.044 Y-15.138
N965 X-10.73 Y-14.95
N970 X-11.601 Y-14.784
N975 X-12.382 Y-14.366
N980 X-12.992 Y-13.723
N985 X-13.443 Y-12.96
N990 X-13.765 Y-12.135
N995 X-13.937 Y-11.479
N1000 X-13.984 Y-11.336
N1005 X-14.05 Y-11.201
N1010 X-14.132 Y-11.075
N1015 G3 X-14.836 Y-11. I-0.389 J-0.314
N1020 G1 X-14.903 Y-11.055 Z-9.267
N1025 X-14.969 Y-11.108 Z-9.245
N1030 X-15.03 Y-11.157 Z-9.208
N1035 X-15.086 Y-11.202 Z-9.158
N1040 X-15.134 Y-11.241 Z-9.096
N1045 X-15.173 Y-11.272 Z-9.025
N1050 X-15.201 Y-11.295 Z-8.946
N1055 X-15.219 Y-11.31 Z-8.862
N1060 X-15.225 Y-11.314 Z-8.775
N1065 G0 Z5.
N1070 X-8.256 Y-16.612
N1075 Z-8.275
N1080 G1 Z-8.775 F1000.
N1085 X-8.259 Y-16.605 Z-8.862
N1090 X-8.27 Y-16.585 Z-8.946
N1095 X-8.287 Y-16.552 Z-9.025
N1100 X-8.309 Y-16.508 Z-9.096
N1105 X-8.338 Y-16.453 Z-9.158
N1110 X-8.37 Y-16.39 Z-9.208
N1115 X-8.407 Y-16.32 Z-9.245
N1120 X-8.445 Y-16.245 Z-9.267
N1125 X-8.485 Y-16.168 Z-9.275
N1130 G3 X-9.006 Y-15.58 I-1.407 J-0.725
N1135 G2 X-11.065 Y-14.173 I40.197 J60.998
N1140 X-12.205 Y-13.168 I7.117 J9.226
N1145 X-13.445 Y-11.963 I27.657 J29.698
N1150 G1 X-13.57 Y-11.813
N1155 X-13.612 Y-11.761
N1160 X-13.771 Y-11.556
N1165 X-14.977 Y-9.951
N1170 G2 X-15.578 Y-8.941 I6.137 J4.334
N1175 X-16.522 Y-7.133 I66.148 J35.702
N1180 G1 X-16.586 Y-6.961 Z-9.228
N1185 X-16.669 Y-6.735 Z-9.167
N1190 X-16.743 Y-6.534 Z-9.112
N1195 X-16.782 Y-6.418 Z-9.081
N1200 X-16.787 Y-6.406 Z-9.078
N1205 X-16.79 Y-6.395 Z-9.075
N1210 X-16.811 Y-6.333
N1215 X-17.39 Y-4.6
N1220 G2 X-17.583 Y-3.719 I10.377 J2.738
N1225 X-17.925 Y-1.508 I38.088 J7.028
N1230 G1 X-17.946 Y-1.307
N1235 G2 X-17.933 Y1.508 I52.864 J1.167
N1240 X-17.45 Y4.378 I43.144 J-5.79
N1245 G1 X-17.44 Y4.4 Z-9.081
N1250 X-17.41 Y4.523 Z-9.113
N1255 X-17.39 Y4.6 Z-9.134
N1260 X-17.214 Y5.126 Z-9.275
N1265 G2 X-16.52 Y7.137 I35.703 J-11.194
N1270 X-15.58 Y8.942 I66.541 J-33.534
N1275 G1 X-15.339 Y9.46
N1280 X-15.157 Y9.947
N1285 X-14.969 Y10.609
N1290 X-14.797 Y11.478
N1295 X-14.425 Y12.282
N1300 X-13.807 Y12.918
N1305 X-13.057 Y13.389
N1310 X-12.237 Y13.727
N1315 X-11.529 Y13.923
N1320 X-11.38 Y13.975
N1325 X-11.239 Y14.048
N1330 X-11.109 Y14.138
N1335 G3 X-11.057 Y14.844 I-0.327 J0.378
N1340 G1 X-11.114 Y14.909 Z-9.267
N1345 X-11.169 Y14.973 Z-9.245
N1350 X-11.221 Y15.033 Z-9.208
N1355 X-11.268 Y15.087 Z-9.158
N1360 X-11.308 Y15.133 Z-9.096
N1365 X-11.341 Y15.171 Z-9.025
N1370 X-11.365 Y15.199 Z-8.946
N1375 X-11.38 Y15.216 Z-8.862
N1380 X-11.385 Y15.222 Z-8.775
N1385 G0 Z5.
N1390 X-16.555 Y8.119
N1395 Z-8.275
N1400 G1 Z-8.775 F1000.
N1405 X-16.549 Y8.123 Z-8.862
N1410 X-16.53 Y8.135 Z-8.946
N1415 X-16.498 Y8.154 Z-9.025
N1420 X-16.456 Y8.18 Z-9.096
N1425 X-16.403 Y8.212 Z-9.158
N1430 X-16.342 Y8.249 Z-9.208
N1435 X-16.275 Y8.29 Z-9.245
N1440 X-16.203 Y8.334 Z-9.267
N1445 X-16.129 Y8.38 Z-9.275
N1450 G3 X-15.58 Y8.942 I-0.824 J1.351
N1455 G2 X-14.979 Y9.953 I7.994 J-4.067
N1460 G1 X-13.768 Y11.56
N1465 G2 X-12.765 Y12.628 I5.475 J-4.14
N1470 G1 X-11.786 Y13.57
N1475 G2 X-10.756 Y14.39 I6.253 J-6.795
N1480 X-9.007 Y15.582 I35.466 J-50.149
N1485 X-6.983 Y16.555 I27.217 J-54.018
N1490 G1 X-6.735 Y16.672 Z-9.205
N1495 X-6.534 Y16.766 Z-9.149
N1500 X-6.479 Y16.787 Z-9.134
N1505 X-6.333 Y16.841 Z-9.094
N1510 X-6.285 Y16.858 Z-9.081
N1515 X-6.263 Y16.866 Z-9.075
N1520 X-6.132 Y16.912
N1525 G2 X-3.755 Y17.593 I16.838 J-54.294
N1530 X-2.915 Y17.73 I1.93 J-9.197
N1535 X-0.704 Y17.981 I6.485 J-47.209
N1540 X1.91 Y17.886 I-0.841 J-59.026
N1545 X2.915 Y17.726 I-1.054 J-9.898
N1550 G1 X4.322 Y17.439
N1555 X4.523 Y17.396
N1560 X4.536 Y17.393
N1565 X4.553 Y17.39 Z-9.079
N1570 X4.56 Y17.388 Z-9.081
N1575 X4.724 Y17.348 Z-9.124
N1580 X4.925 Y17.297 Z-9.177
N1585 X5.126 Y17.243 Z-9.23
N1590 X5.294 Y17.189 Z-9.275
N1595 G2 X7.865 Y16.191 I-14.892 J-42.177
N1600 G1 X7.941 Y16.14
N1605 X8.568 Y15.781
N1610 X8.917 Y15.58
N1615 X9.261 Y15.404
N1620 X10.079 Y15.064
N1625 X10.772 Y14.511
N1630 G3 X11.126 Y14.089 I1.681 J1.051
N1635 G1 X11.197 Y14.044 Z-9.253
N1640 X11.276 Y14.011 Z-9.232
N1645 X11.358 Y13.992 Z-9.21
N1650 X11.443 Y13.988 Z-9.189
N1655 X11.527 Y13.997 Z-9.167
N1660 X11.608 Y14.021 Z-9.146
N1665 X11.684 Y14.058 Z-9.124
N1670 X11.753 Y14.107 Z-9.103
N1675 X11.812 Y14.167 Z-9.081
N1680 X11.827 Y14.185 Z-9.075
N1685 G3 X11.709 Y14.903 I-0.398 J0.303
N1690 G1 X9.461 Y16.419
N1695 G3 X8.758 Y16.269 I-0.28 J-0.415
N1700 G1 X8.745 Y16.248 Z-9.081
N1705 G3 X8.917 Y15.58 Z-9.275 I0.436 J-0.244
N1710 G2 X10.355 Y14.712 I-7.157 J-13.477
N1715 X12.364 Y13.072 I-57.233 J-72.176
N1720 X12.966 Y12.434 I-5.69 J-5.974
N1725 G1 X14.173 Y11.072
N1730 G2 X14.597 Y10.496 I-3.78 J-3.225
N1735 G3 X14.818 Y10.321 I0.408 J0.289
N1740 G1 X14.882 Y10.309 Z-9.271
N1745 X14.945 Y10.297 Z-9.258
N1750 X15.006 Y10.285 Z-9.237
N1755 X15.078 Y10.299 Z-9.198
N1760 X15.143 Y10.313 Z-9.148
N1765 X15.199 Y10.324 Z-9.087
N1770 X15.24 Y10.346 Z-9.017
N1775 X15.27 Y10.363 Z-8.94
N1780 X15.288 Y10.373 Z-8.859
N1785 X15.295 Y10.377 Z-8.775
N1790 G0 Z5.
N1795 X1.1 Y2.332
N1800 Z2.5
N1805 S7000
N1810 G3 X-2.578 Y-0.002 Z2.319 I-1.1 J-2.331 F333.33
N1815 X1.1 Y-2.326 Z2.138 I2.574 J0.003
N1820 X1.627 Y1.987 Z1.957 I-1.102 J2.323
N1825 X-2.492 Y0.622 Z1.775 I-1.627 J-1.987
N1830 X0.5 Y-2.514 Z1.594 I2.489 J-0.621
N1835 X2.054 Y1.526 Z1.413 I-0.502 J2.512
N1840 X-2.257 Y1.204 Z1.232 I-2.054 J-1.526
N1845 X-0.126 Y-2.551 Z1.051 I2.255 J-1.203
N1850 X2.354 Y0.977 Z0.87 I0.123 J2.549
N1855 X-1.89 Y1.709 Z0.688 I-2.354 J-0.978
N1860 X-0.739 Y-2.436 Z0.507 I1.888 J-1.708
N1865 X2.512 Y0.373 Z0.326 I0.736 J2.434
N1870 X-1.413 Y2.109 Z0.145 I-2.512 J-0.375
N1875 X-1.304 Y-2.175 Z-0.036 I1.411 J-2.108
N1880 X2.518 Y-0.248 Z-0.217 I1.301 J2.174
N1885 X-0.854 Y2.38 Z-0.398 I-2.518 J0.246
N1890 X-1.787 Y-1.787 Z-0.58 I0.853 J-2.379
N1895 X2.373 Y-0.85 Z-0.761 I1.783 J1.786
N1900 X-0.249 Y2.506 Z-0.942 I-2.374 J0.847
N1905 X-2.159 Y-1.295 Z-1.123 I0.249 J-2.505
N1910 X2.088 Y-1.396 Z-1.304 I2.156 J1.294
N1915 X0.366 Y2.482 Z-1.485 I-2.089 J1.394
N1920 X-2.4 Y-0.729 Z-1.667 I-0.366 J-2.481
N1925 X1.68 Y-1.855 Z-1.848 I2.397 J0.729
N1930 X0.955 Y2.309 Z-2.029 I-1.681 J1.853
N1935 X-2.496 Y-0.124 Z-2.21 I-0.955 J-2.309
N1940 X1.174 Y-2.2 Z-2.391 I2.492 J0.124
N1945 X1.482 Y2. Z-2.572 I-1.176 J2.197
N1950 X-2.441 Y0.484 Z-2.753 I-1.482 J-2.
N1955 X0.602 Y-2.41 Z-2.935 I2.438 J-0.484
N1960 X1.916 Y1.574 Z-3.116 I-0.605 J2.408
N1965 X-2.242 Y1.059 Z-3.297 I-1.916 J-1.574
N1970 X-0.002 Y-2.475 Z-3.478 I2.239 J-1.058
N1975 X2.233 Y1.056 Z-3.659 I-0.001 J2.473
N1980 X-1.91 Y1.565 Z-3.84 I-2.232 J-1.057
N1985 X-0.601 Y-2.392 Z-4.022 I1.908 J-1.564
N1990 X2.413 Y0.48 Z-4.203 I0.598 J2.39
N1995 X-1.467 Y1.974 Z-4.384 I-2.413 J-0.481
N2000 X-1.159 Y-2.166 Z-4.565 I1.465 J-1.973
N2005 X2.448 Y-0.121 Z-4.746 I1.156 J2.165
N2010 X-0.939 Y2.263 Z-4.927 I-2.448 J0.119
N2015 X-1.645 Y-1.813 Z-5.108 I0.938 J-2.261
N2020 X2.336 Y-0.71 Z-5.29 I1.641 J1.812
N2025 X-0.36 Y2.413 Z-5.471 I-2.337 J0.708
N2030 X-2.028 Y-1.354 Z-5.652 I0.359 J-2.412
N2035 X2.086 Y-1.252 Z-5.833 I2.024 J1.354
N2040 X0.237 Y2.418 Z-6.014 I-2.087 J1.25
N2045 X-2.287 Y-0.818 Z-6.195 I-0.237 J-2.417
N2050 X1.712 Y-1.715 Z-6.377 I2.284 J0.818
N2055 X0.814 Y2.279 Z-6.558 I-1.714 J1.713
N2060 X-2.408 Y-0.237 Z-6.739 I-0.815 J-2.278
N2065 X1.239 Y-2.072 Z-6.92 I2.405 J0.237
N2070 X1.339 Y2.004 Z-7.101 I-1.241 J2.07
N2075 X-2.384 Y0.353 Z-7.282 I-1.339 J-2.004
N2080 X0.696 Y-2.303 Z-7.463 I2.381 J-0.353
N2085 X1.779 Y1.612 Z-7.645 I-0.698 J2.3
N2090 X-2.218 Y0.918 Z-7.826 I-1.778 J-1.612
N2095 X0.115 Y-2.394 Z-8.007 I2.215 J-0.917
N2100 X2.109 Y1.127 Z-8.188 I-0.118 J2.391
N2105 X-1.92 Y1.423 Z-8.369 I-2.109 J-1.127
N2110 X-0.468 Y-2.341 Z-8.55 I1.918 J-1.422
N2115 X2.31 Y0.578 Z-8.732 I0.465 J2.339
N2120 X-1.511 Y1.84 Z-8.913 I-2.31 J-0.579
N2125 X-1.019 Y-2.149 Z-9.094 I1.509 J-1.838
N2130 X2.372 Y-0.002 Z-9.275 I1.016 J2.147
N2135 X-2.379 I-2.375 J0.
N2140 X2.372 I2.375 J0.
N2145 S9000
N2150 G1 X2.376 Y0.22 F1000.
N2155 X2.559 Y1.087
N2160 G3 X2.125 Y2.599 I-1.776 J0.309
N2165 X-0.427 Y3.656 I-2.262 J-1.852
N2170 X-3.752 Y0.511 I0.249 J-3.594
N2175 X3.232 Y-1.991 I3.75 J-0.531
N2180 X4.053 Y-0.08 I-5.493 J3.491
N2185 X1.351 Y4.897 I-4.084 J1.006
N2190 X-3.785 Y3.754 I-1.67 J-4.6
N2195 X-1.911 Y-5.039 I3.722 J-3.803
N2200 X2.683 Y-4.681 I1.924 J4.963
N2205 X5.072 Y-2.13 I-3.216 J5.406
N2210 X5.378 Y3.146 I-5.387 J2.959
N2215 X-0.012 Y6.842 I-5.619 J-2.416
N2220 X-5.954 Y3.76 I-0.315 J-6.662
N2225 X-1.537 Y-6.923 I5.907 J-3.812
N2230 X4.458 Y-5.528 I1.553 J6.904
N2235 X7.56 Y1.271 I-4.978 J6.379
N2240 X2.12 Y8.206 I-7.738 J-0.468
N2245 G1 X0.905 Y8.428
N2250 X0.804 Y8.442
N2255 G3 X-0.804 Y8.443 I-0.815 J-18.494
N2260 X-2.378 Y8.144 I3.233 J-21.308
N2265 G1 X-3.719 Y7.622
N2270 G3 X-5.152 Y6.734 I7.595 J-13.866
N2275 X-6.335 Y5.639 I12.547 J-14.727
N2280 G1 X-7.137 Y4.573
N2285 X-7.171 Y4.523
N2290 X-7.288 Y4.322
N2295 X-7.888 Y3.116
N2300 X-7.941 Y2.971
N2305 X-8.3 Y1.709
N2310 X-8.343 Y1.538
N2315 X-8.347 Y1.508
N2320 X-8.459 Y0.302
N2325 X-8.477 Y0.101
N2330 G3 X-8.343 Y-1.538 I21.885 J0.975
N2335 G1 X-8.3 Y-1.709
N2340 X-7.941 Y-2.971
N2345 X-7.888 Y-3.116
N2350 X-7.288 Y-4.322
N2355 X-7.171 Y-4.523
N2360 X-7.137 Y-4.573
N2365 X-6.333 Y-5.637
N2370 G3 X-5.126 Y-6.753 I11.217 J10.908
N2375 X-3.721 Y-7.625 I15.97 J24.184
N2380 G1 X-2.377 Y-8.142
N2385 X-2.312 Y-8.163
N2390 X-2.111 Y-8.202
N2395 X-0.905 Y-8.428
N2400 X-0.804 Y-8.442
N2405 G3 X0.804 Y-8.443 I0.815 J18.494
N2410 X2.378 Y-8.144 I-3.233 J21.308
N2415 G1 X3.719 Y-7.622
N2420 G3 X5.152 Y-6.734 I-7.595 J13.866
N2425 X6.335 Y-5.639 I-12.547 J14.727
N2430 G1 X7.137 Y-4.573
N2435 X7.171 Y-4.523
N2440 X7.288 Y-4.322
N2445 X7.888 Y-3.116
N2450 X7.941 Y-2.971
N2455 X8.3 Y-1.709
N2460 X8.343 Y-1.538
N2465 X8.347 Y-1.508
N2470 X8.459 Y-0.302
N2475 X8.477 Y-0.101
N2480 G3 X8.343 Y1.538 I-21.886 J-0.975
N2485 G1 X8.3 Y1.709
N2490 X7.941 Y2.971
N2495 X7.888 Y3.116
N2500 X7.288 Y4.322
N2505 X7.171 Y4.523
N2510 X7.137 Y4.573
N2515 X6.333 Y5.637
N2520 G3 X5.126 Y6.753 I-11.217 J-10.908
N2525 X3.721 Y7.625 I-15.971 J-24.184
N2530 G1 X2.377 Y8.142
N2535 X2.312 Y8.163
N2540 X2.119 Y8.201
N2545 G3 X1.839 Y8.166 I-0.08 J-0.494
N2550 G1 X1.784 Y8.127 Z-9.27
N2555 X1.73 Y8.089 Z-9.256
N2560 X1.677 Y8.052 Z-9.234
N2565 X1.638 Y7.989 Z-9.193
N2570 X1.602 Y7.933 Z-9.141
N2575 X1.572 Y7.885 Z-9.078
N2580 X1.56 Y7.843 Z-9.009
N2585 X1.552 Y7.812 Z-8.935
N2590 X1.547 Y7.793 Z-8.856
N2595 X1.545 Y7.787 Z-8.775
N2600 G0 Z5.
N2605 X14.743 Y15.385
N2610 Z-6.325
N2615 G1 Z-6.825 F1000.
N2620 X14.737 Y15.379 Z-6.912
N2625 X14.721 Y15.364 Z-6.996
N2630 X14.695 Y15.338 Z-7.075
N2635 X14.659 Y15.303 Z-7.146
N2640 X14.615 Y15.26 Z-7.208
N2645 X14.564 Y15.21 Z-7.258
N2650 X14.508 Y15.154 Z-7.295
N2655 X14.448 Y15.095 Z-7.317
N2660 X14.386 Y15.035 Z-7.325
N2665 G3 X12.642 Y12.908 I8.94 J-9.112
N2670 G1 X12.613 Y12.861
N2675 X12.612 Y12.806
N2680 X12.637 Y12.757
N2685 G2 X14.232 Y10.957 I-45.985 J-42.35
N2690 X15.039 Y9.75 I-9.941 J-7.521
N2695 X15.908 Y8.345 I-18.765 J-12.573
N2700 X17.027 Y5.731 I-39.768 J-18.576
N2705 X17.757 Y2.715 I-33.153 J-9.617
N2710 X17.968 Y-0.1 I-47.053 J-4.949
N2715 X17.726 Y-2.916 I-54.779 J3.292
N2720 X16.991 Y-5.837 I-37.384 J7.86
N2725 X15.907 Y-8.344 I-43.997 J17.542
N2730 X14.374 Y-10.774 I-33.621 J19.501
N2735 X12.367 Y-13.038 I-31.194 J25.63
N2740 X10.356 Y-14.676 I-141.795 J172.087
N2745 G1 X10.206 Y-14.776
N2750 G2 X7.801 Y-16.182 I-21.919 J34.745
N2755 G1 X7.74 Y-16.216
N2760 G2 X5.127 Y-17.216 I-17.663 J42.224
N2765 G1 X4.724 Y-17.319
N2770 G2 X2.402 Y-17.792 I-9.304 J39.737
N2775 G1 X2.111 Y-17.834
N2780 G2 X-0.503 Y-17.95 I-3.158 J41.564
N2785 G1 X-0.704 Y-17.951
N2790 G2 X-3.643 Y-17.593 I3.29 J39.248
N2795 X-6.536 Y-16.74 I11.227 J43.394
N2800 X-8.95 Y-15.582 I58.007 J124.01
N2805 X-11.275 Y-13.976 I23.897 J37.096
N2810 X-12.164 Y-13.168 I7.866 J9.538
N2815 X-13.406 Y-11.963 I33.989 J36.285
N2820 G1 X-13.578 Y-11.761
N2825 X-13.771 Y-11.508
N2830 X-14.977 Y-9.903
N2835 G2 X-15.545 Y-8.945 I7.123 J4.865
N2840 G1 X-16.284 Y-7.539
N2845 X-16.388 Y-7.338
N2850 X-16.489 Y-7.137
N2855 G2 X-17.434 Y-4.324 I38.204 J14.399
N2860 G1 X-17.475 Y-4.121
N2865 X-17.518 Y-3.92
N2870 G2 X-17.897 Y-1.508 I41.819 J7.804
N2875 G1 X-17.918 Y-1.307
N2880 G2 X-17.905 Y1.508 I57.322 J1.156
N2885 X-17.435 Y4.324 I50.418 J-6.975
N2890 G1 X-17.379 Y4.523
N2895 G2 X-16.489 Y7.137 I40.968 J-12.492
N2900 X-15.18 Y9.598 I41.749 J-20.618
N2905 G1 X-15.083 Y9.75
N2910 X-14.977 Y9.903
N2915 X-13.732 Y11.56
N2920 G2 X-12.966 Y12.395 I4.344 J-3.212
N2925 X-11.518 Y13.772 I28.166 J-28.181
N2930 X-10.555 Y14.493 I6.341 J-7.469
N2935 X-8.947 Y15.584 I21.892 J-30.526
N2940 X-6.335 Y16.814 I23.15 J-45.781
N2945 X-3.52 Y17.621 I13.845 J-42.959
N2950 X-0.704 Y17.953 I8.469 J-59.75
N2955 X1.91 Y17.857 I-1.537 J-77.83
N2960 X3.116 Y17.656 I-1.233 J-11.097
N2965 X5.127 Y17.215 I-4.028 J-23.162
N2970 X7.74 Y16.216 I-23.642 J-65.751
N2975 X9.952 Y14.947 I-44.139 J-79.536
N2980 G1 X10.206 Y14.776
N2985 G2 X12.436 Y12.967 I-23.137 J-30.8
N2990 G1 X12.6 Y12.796
N2995 X12.637 Y12.757
N3000 G3 X12.884 Y12.621 I0.356 J0.351
N3005 G1 X12.939 Y12.615 Z-7.322
N3010 X12.993 Y12.608 Z-7.313
N3015 X13.062 Y12.622 Z-7.291
N3020 X13.127 Y12.636 Z-7.259
N3025 X13.187 Y12.648 Z-7.218
N3030 X13.233 Y12.678 Z-7.167
N3035 X13.272 Y12.704 Z-7.108
N3040 X13.303 Y12.725 Z-7.043
N3045 X13.326 Y12.74 Z-6.974
N3050 X13.34 Y12.75 Z-6.9
N3055 X13.344 Y12.753 Z-6.826
N3060 G0 Z5.
N3065 X14.459 Y15.539
N3070 Z-5.35
N3075 G1 Z-5.85 F1000.
N3080 X14.454 Y15.533 Z-5.937
N3085 X14.438 Y15.517 Z-6.021
N3090 X14.413 Y15.49 Z-6.1
N3095 X14.378 Y15.454 Z-6.171
N3100 X14.335 Y15.41 Z-6.233
N3105 X14.286 Y15.358 Z-6.283
N3110 X14.232 Y15.301 Z-6.32
N3115 X14.173 Y15.24 Z-6.342
N3120 X14.113 Y15.177 Z-6.35
N3125 G3 X12.438 Y12.997 I9.226 J-8.821
N3130 G1 X12.41 Y12.947
N3135 Y12.891
N3140 X12.438 Y12.842
N3145 G2 X14.379 Y10.637 I-30.962 J-29.222
N3150 X15.784 Y8.399 I-53.287 J-35.006
N3155 X16.093 Y7.74 I-33.249 J-16.013
N3160 G1 X16.787 Y6.111
N3165 G2 X17.107 Y5.126 I-5.408 J-2.305
N3170 G1 X17.506 Y3.518
N3175 G2 X17.728 Y2.111 I-7.526 J-1.908
N3180 X17.883 Y-0.1 I-35.106 J-3.575
N3185 X17.641 Y-2.916 I-48.373 J2.736
N3190 X16.939 Y-5.73 I-40.957 J8.722
N3195 X15.707 Y-8.548 I-34.59 J13.439
N3200 G1 X15.576 Y-8.745
N3205 X14.559 Y-10.353
N3210 G2 X13.972 Y-11.129 I-4.521 J2.812
N3215 X12.316 Y-12.969 I-38.906 J33.36
N3220 X10.354 Y-14.569 I-64.586 J77.157
N3225 G1 X9.951 Y-14.837
N3230 G2 X7.542 Y-16.217 I-18.377 J29.278
N3235 X5.127 Y-17.126 I-24.83 J62.321
N3240 X4.322 Y-17.325 I-3.647 J13.015
N3245 X2.111 Y-17.752 I-7.298 J31.892
N3250 X-0.704 Y-17.867 I-3.091 J40.988
N3255 X-3.519 Y-17.529 I4.032 J45.457
N3260 G1 X-3.719 Y-17.481
N3265 X-3.92 Y-17.434
N3270 G2 X-6.132 Y-16.784 I10.265 J39.058
N3275 G1 X-6.333 Y-16.716
N3280 X-6.534 Y-16.642
N3285 G2 X-9.123 Y-15.387 I19.782 J44.096
N3290 X-11.148 Y-13.973 I57.379 J84.345
N3295 G1 X-11.395 Y-13.771
N3300 X-11.56 Y-13.629
N3305 G2 X-13.082 Y-12.163 I39.581 J42.636
N3310 X-13.779 Y-11.359 I4.282 J4.416
N3315 G1 X-14.836 Y-9.951
N3320 G2 X-15.661 Y-8.543 I7.958 J5.606
N3325 G1 X-16.295 Y-7.338
N3330 G2 X-16.69 Y-6.332 I6.004 J2.94
N3335 G1 X-17.229 Y-4.724
N3340 G2 X-17.468 Y-3.719 I7.163 J2.233
N3345 X-17.812 Y-1.508 I39.06 J7.204
N3350 G1 X-17.833 Y-1.307
N3355 G2 X-17.821 Y1.508 I55.576 J1.161
N3360 X-17.348 Y4.324 I49.171 J-6.803
N3365 X-16.585 Y6.638 I38.447 J-11.399
N3370 G1 X-16.396 Y7.137
N3375 G2 X-15.344 Y9.147 I112.644 J-57.688
N3380 G1 X-15.105 Y9.549
N3385 X-14.977 Y9.761
N3390 X-14.776 Y10.031
N3395 X-13.627 Y11.56
N3400 G2 X-12.564 Y12.665 I8.085 J-6.714
N3405 G1 X-11.624 Y13.57
N3410 G2 X-10.87 Y14.173 I4.579 J-4.955
N3415 G1 X-9.348 Y15.223
N3420 G2 X-8.544 Y15.69 I2.835 J-3.952
N3425 G1 X-6.936 Y16.454
N3430 G2 X-5.729 Y16.91 I2.865 J-5.757
N3435 G1 X-4.082 Y17.39
N3440 G2 X-3.116 Y17.592 I2.01 J-7.197
N3445 X-0.704 Y17.868 I7.044 J-50.863
N3450 X1.91 Y17.773 I-1.103 J-66.451
N3455 X3.116 Y17.57 I-1.288 J-11.356
N3460 X4.926 Y17.181 I-4.29 J-24.31
N3465 G1 X5.126 Y17.124
N3470 X5.327 Y17.057
N3475 X5.529 Y16.982
N3480 X7.338 Y16.296
N3485 G2 X8.142 Y15.896 I-1.929 J-4.894
N3490 X10.044 Y14.78 I-16.93 J-31.018
N3495 G1 X10.353 Y14.568
N3500 G2 X12.365 Y12.921 I-32.916 J-42.253
N3505 G1 X12.438 Y12.842
N3510 G3 X12.686 Y12.709 I0.35 J0.357
N3515 G1 X12.737 Y12.704 Z-6.347
N3520 X12.788 Y12.699 Z-6.339
N3525 X12.856 Y12.713 Z-6.319
N3530 X12.921 Y12.726 Z-6.289
N3535 X12.981 Y12.738 Z-6.249
N3540 X13.029 Y12.77 Z-6.198
N3545 X13.069 Y12.798 Z-6.139
N3550 X13.102 Y12.82 Z-6.073
N3555 X13.125 Y12.836 Z-6.002
N3560 X13.14 Y12.846 Z-5.927
N3565 X13.145 Y12.849 Z-5.851
N3570 G0 Z5.
N3575 X14.536 Y15.34
N3580 Z-4.375
N3585 G1 Z-4.875 F1000.
N3590 X14.531 Y15.335 Z-4.962
N3595 X14.515 Y15.319 Z-5.046
N3600 X14.489 Y15.293 Z-5.125
N3605 X14.453 Y15.257 Z-5.196
N3610 X14.41 Y15.214 Z-5.258
N3615 X14.359 Y15.163 Z-5.308
N3620 X14.304 Y15.107 Z-5.345
N3625 X14.244 Y15.048 Z-5.367
N3630 X14.183 Y14.986 Z-5.375
N3635 G3 X12.46 Y12.843 I9.031 J-9.021
N3640 G1 X12.431 Y12.793
N3645 X12.43 Y12.736
N3650 X12.456 Y12.685
N3655 G2 X14.175 Y10.731 I-36.738 J-34.045
N3660 G1 X14.308 Y10.554
N3665 G2 X15.701 Y8.345 I-56.318 J-37.062
N3670 G1 X15.796 Y8.142
N3675 X15.894 Y7.941
N3680 X15.987 Y7.74
N3685 X16.757 Y5.931
N3690 G2 X17.008 Y5.126 I-4.448 J-1.828
N3695 X17.542 Y2.915 I-47.785 J-12.704
N3700 G1 X17.574 Y2.714
N3705 G2 X17.787 Y-0.1 I-48.68 J-5.1
N3710 X17.577 Y-2.714 I-190.857 J14.043
N3715 X17.389 Y-3.581 I-10.427 J1.797
N3720 G1 X16.988 Y-5.211
N3725 G2 X16.757 Y-5.931 I-4.427 J1.022
N3730 G1 X15.982 Y-7.75
N3735 G2 X15.463 Y-8.746 I-7.183 J3.113
N3740 G1 X14.444 Y-10.353
N3745 G2 X13.816 Y-11.157 I-5.366 J3.547
N3750 X12.364 Y-12.785 I-52.845 J45.638
N3755 G1 X12.163 Y-12.969
N3760 X11.924 Y-13.168
N3765 X10.447 Y-14.374
N3770 G2 X9.542 Y-14.978 I-6.556 J8.835
N3775 X7.74 Y-16.007 I-25.25 J42.13
N3780 G1 X7.335 Y-16.183
N3785 X7.137 Y-16.267
N3790 X5.327 Y-16.954
N3795 G2 X4.322 Y-17.224 I-2.564 J7.516
N3800 X2.111 Y-17.653 I-7.516 J32.844
N3805 X-0.704 Y-17.769 I-3.044 J39.698
N3810 X-3.317 Y-17.462 I4.566 J50.208
N3815 X-4.121 Y-17.278 I1.73 J9.365
N3820 G1 X-5.73 Y-16.811
N3825 G2 X-6.937 Y-16.348 I1.95 J6.886
N3830 G1 X-8.343 Y-15.678
N3835 G2 X-9.549 Y-14.966 I3.256 J6.895
N3840 X-11.252 Y-13.772 I19.451 J29.551
N3845 X-13.371 Y-11.731 I31.837 J35.151
N3850 X-15.003 Y-9.551 I50.131 J39.243
N3855 X-16.287 Y-7.137 I41.758 J23.754
N3860 G1 X-16.444 Y-6.735
N3865 X-16.521 Y-6.534
N3870 X-16.59 Y-6.333
N3875 X-17.127 Y-4.724
N3880 G2 X-17.37 Y-3.719 I7.382 J2.318
N3885 X-17.714 Y-1.508 I41.02 J7.515
N3890 G1 X-17.735 Y-1.307
N3895 G2 X-17.722 Y1.508 I49.11 J1.176
N3900 X-17.248 Y4.324 I46.255 J-6.346
N3905 X-16.52 Y6.533 I39.488 J-11.783
N3910 G1 X-16.366 Y6.936
N3915 X-16.287 Y7.137
N3920 G2 X-15.119 Y9.349 I50.33 J-25.16
N3925 X-14.776 Y9.869 I3.615 J-2.016
N3930 G1 X-13.656 Y11.359
N3935 G2 X-12.947 Y12.162 I4.353 J-3.13
N3940 X-11.162 Y13.849 I27.39 J-27.179
N3945 X-8.95 Y15.365 I38.526 J-53.863
N3950 G1 X-8.541 Y15.58
N3955 X-8.343 Y15.678
N3960 X-6.735 Y16.441
N3965 G2 X-5.729 Y16.809 I2.781 J-6.046
N3970 G1 X-4.121 Y17.277
N3975 G2 X-3.116 Y17.493 I2.193 J-7.756
N3980 X-0.704 Y17.77 I7.317 J-53.039
N3985 X1.91 Y17.675 I-1.073 J-65.533
N3990 X3.116 Y17.471 I-1.372 J-11.755
N3995 X4.926 Y17.079 I-3.793 J-21.87
N4000 G1 X5.126 Y17.022
N4005 X5.233 Y16.988
N4010 X5.327 Y16.954
N4015 X7.137 Y16.267
N4020 G2 X8.343 Y15.669 I-2.521 J-6.6
N4025 G1 X9.549 Y14.973
N4030 G2 X10.446 Y14.373 I-4.977 J-8.416
N4035 G1 X11.962 Y13.137
N4040 G2 X12.457 Y12.686 I-2.566 J-3.32
N4045 G1 X12.51 Y12.639
N4050 X12.57 Y12.6
N4055 X12.634 Y12.569
N4060 X12.702 Y12.548
N4065 X12.758 Y12.542 Z-5.372
N4070 X12.813 Y12.536 Z-5.362
N4075 X12.882 Y12.55 Z-5.34
N4080 X12.947 Y12.563 Z-5.308
N4085 X13.007 Y12.575 Z-5.267
N4090 X13.052 Y12.605 Z-5.216
N4095 X13.091 Y12.631 Z-5.157
N4100 X13.122 Y12.652 Z-5.093
N4105 X13.145 Y12.667 Z-5.023
N4110 X13.159 Y12.676 Z-4.95
N4115 X13.163 Y12.679 Z-4.876
N4120 G0 Z5.
N4125 X15.069 Y14.686
N4130 Z-3.4
N4135 G1 Z-3.9 F1000.
N4140 X15.063 Y14.683 Z-3.987
N4145 X15.044 Y14.671 Z-4.071
N4150 X15.012 Y14.652 Z-4.15
N4155 X14.969 Y14.627 Z-4.221
N4160 X14.916 Y14.596 Z-4.283
N4165 X14.854 Y14.559 Z-4.333
N4170 X14.786 Y14.519 Z-4.37
N4175 X14.714 Y14.476 Z-4.392
N4180 X14.639 Y14.432 Z-4.4
N4185 G3 X12.436 Y12.787 I6.492 J-10.991
N4190 G1 X12.33 Y12.681
N4195 X12.311 Y12.577
N4200 X12.332 Y12.474
N4205 X12.387 Y12.384
N4210 X13.57 Y11.05
N4215 G2 X14.522 Y9.751 I-5.672 J-5.157
N4220 X15.583 Y8.02 I-19.939 J-13.402
N4225 X16.554 Y5.73 I-40.944 J-18.721
N4230 X16.795 Y4.926 I-9.262 J-3.209
N4235 X17.273 Y2.915 I-33.615 J-9.065
N4240 G1 X17.309 Y2.714
N4245 G2 X17.521 Y0.1 I-40.026 J-4.577
N4250 X17.483 Y-0.704 I-7.672 J-0.038
N4255 G1 X17.355 Y-2.312
N4260 G2 X17.139 Y-3.518 I-7.243 J0.67
N4265 G1 X16.787 Y-4.956
N4270 G2 X16.478 Y-5.931 I-8.347 J2.107
N4275 X15.582 Y-8.019 I-76.482 J31.547
N4280 X15.157 Y-8.745 I-9.413 J5.026
N4285 G1 X14.267 Y-10.152
N4290 G2 X13.568 Y-11.048 I-5.451 J3.532
N4295 G1 X12.406 Y-12.364
N4300 G2 X11.761 Y-12.97 I-3.967 J3.571
N4305 G1 X10.287 Y-14.173
N4310 X10.152 Y-14.278
N4315 X10.025 Y-14.374
N4320 X9.75 Y-14.56
N4325 X8.142 Y-15.489
N4330 G2 X7.136 Y-15.992 I-4.255 J7.254
N4335 G1 X5.529 Y-16.603
N4340 G2 X4.322 Y-16.963 I-2.768 J7.07
N4345 G1 X2.714 Y-17.291
N4350 G2 X1.709 Y-17.431 I-1.54 J7.348
N4355 X-0.704 Y-17.515 I-4.576 J96.77
N4360 X-3.519 Y-17.168 I4.674 J49.458
N4365 X-6.191 Y-16.389 I8.378 J33.698
N4370 G1 X-6.333 Y-16.331
N4375 X-6.534 Y-16.252
N4380 X-8.142 Y-15.49
N4385 G2 X-9.373 Y-14.777 I3.545 J7.538
N4390 X-11.096 Y-13.572 I28.744 J42.929
N4395 X-12.992 Y-11.76 I42.797 J46.689
N4400 X-14.574 Y-9.703 I25.058 J20.913
N4405 X-15.053 Y-8.947 I6.253 J4.491
N4410 G1 X-15.895 Y-7.338
N4415 G2 X-16.319 Y-6.332 I6.184 J3.195
N4420 G1 X-16.856 Y-4.724
N4425 G2 X-17.11 Y-3.719 I7.477 J2.425
N4430 X-17.479 Y-1.307 I39.336 J7.247
N4435 X-17.464 Y1.508 I47.236 J1.161
N4440 X-17.074 Y3.92 I162.376 J-25.04
N4445 X-16.857 Y4.725 I10.062 J-2.282
N4450 G1 X-16.319 Y6.333
N4455 G2 X-15.898 Y7.339 I8.205 J-2.841
N4460 G1 X-15.051 Y8.946
N4465 G2 X-14.373 Y9.976 I6.933 J-3.823
N4470 X-12.968 Y11.787 I21.776 J-15.445
N4475 X-11.096 Y13.572 I49.401 J-49.959
N4480 X-8.739 Y15.185 I23.366 J-31.604
N4485 X-6.335 Y16.336 I22.114 J-43.116
N4490 X-5.529 Y16.603 I4.331 J-11.729
N4495 G1 X-4.121 Y17.01
N4500 G2 X-2.915 Y17.26 I2.132 J-7.234
N4505 X-0.704 Y17.512 I7.217 J-53.486
N4510 X2.111 Y17.399 I-0.522 J-48.069
N4515 X4.725 Y16.87 I-7.918 J-45.835
N4520 G1 X4.925 Y16.809
N4525 X5.126 Y16.748
N4530 X5.327 Y16.679
N4535 X6.936 Y16.07
N4540 G2 X8.343 Y15.372 I-3.028 J-7.881
N4545 G1 X9.75 Y14.56
N4550 X10.025 Y14.374
N4555 G2 X12.005 Y12.765 I-31.338 J-40.604
N4560 X12.387 Y12.384 I-4.67 J-5.069
N4565 G3 X12.633 Y12.247 I0.357 J0.35
N4570 G1 X12.689 Y12.24 Z-4.397
N4575 X12.744 Y12.234 Z-4.387
N4580 X12.813 Y12.248 Z-4.365
N4585 X12.878 Y12.261 Z-4.333
N4590 X12.938 Y12.273 Z-4.291
N4595 X12.984 Y12.304 Z-4.24
N4600 X13.022 Y12.329 Z-4.182
N4605 X13.053 Y12.35 Z-4.117
N4610 X13.076 Y12.365 Z-4.048
N4615 X13.09 Y12.374 Z-3.975
N4620 X13.094 Y12.377 Z-3.901
N4625 G0 Z5.
N4630 X14.873 Y14.529
N4635 Z-2.425
N4640 G1 Z-2.925 F1000.
N4645 X14.867 Y14.525 Z-3.012
N4650 X14.848 Y14.513 Z-3.096
N4655 X14.816 Y14.494 Z-3.175
N4660 X14.774 Y14.468 Z-3.246
N4665 X14.721 Y14.436 Z-3.308
N4670 X14.66 Y14.399 Z-3.358
N4675 X14.593 Y14.357 Z-3.395
N4680 X14.521 Y14.313 Z-3.417
N4685 X14.447 Y14.268 Z-3.425
N4690 G3 X12.27 Y12.588 I6.666 J-10.886
N4695 G1 X12.166 Y12.48
N4700 X12.147 Y12.376
N4705 X12.167 Y12.271
N4710 X12.223 Y12.181
N4715 G2 X13.772 Y10.427 I-61.034 J-55.434
N4720 X15.435 Y7.744 I-28.864 J-19.745
N4725 G1 X15.686 Y7.137
N4730 X16.2 Y5.931
N4735 G2 X16.53 Y4.926 I-6.655 J-2.746
N4740 X17.05 Y2.714 I-32.491 J-8.804
N4745 X17.271 Y-0.1 I-39.893 J-4.545
N4750 X17.054 Y-2.715 I-73.371 J4.767
N4755 X16.389 Y-5.429 I-36.621 J7.538
N4760 G1 X16.279 Y-5.73
N4765 G2 X15.381 Y-7.838 I-41.581 J16.479
N4770 X13.669 Y-10.559 I-25.07 J13.872
N4775 X12.053 Y-12.364 I-60.643 J52.632
N4780 X9.75 Y-14.249 I-20.908 J23.203
N4785 X7.339 Y-15.637 I-22.845 J36.889
N4790 G1 X7.137 Y-15.719
N4795 X5.327 Y-16.404
N4800 G2 X4.323 Y-16.702 I-2.766 J7.49
N4805 X1.91 Y-17.163 I-7.807 J34.329
N4810 X-0.704 Y-17.258 I-4.27 J81.732
N4815 X-3.519 Y-16.913 I4.333 J47.029
N4820 X-6.001 Y-16.187 I16.441 J60.831
N4825 G1 X-6.333 Y-16.052
N4830 X-6.534 Y-15.969
N4835 X-8.199 Y-15.178
N4840 G2 X-9.21 Y-14.573 I2.355 J5.085
N4845 X-10.923 Y-13.37 I16.162 J24.813
N4850 G1 X-10.956 Y-13.341
N4855 X-11.158 Y-13.168
N4860 X-11.37 Y-12.967
N4865 X-12.625 Y-11.761
N4870 G2 X-13.169 Y-11.153 I3.096 J3.316
N4875 X-14.645 Y-9.15 I38.005 J29.551
N4880 X-15.894 Y-6.737 I32.953 J18.592
N4885 G1 X-15.977 Y-6.534
N4890 X-16.049 Y-6.333
N4895 X-16.586 Y-4.724
N4900 G2 X-16.851 Y-3.719 I7.394 J2.489
N4905 X-17.221 Y-1.307 I44.626 J8.083
N4910 X-17.206 Y1.508 I43.315 J1.171
N4915 X-16.791 Y4.027 I126.673 J-19.551
N4920 G1 X-16.706 Y4.322
N4925 X-16.65 Y4.523
N4930 X-16.585 Y4.724
N4935 X-16.049 Y6.333
N4940 G2 X-15.58 Y7.386 I7.493 J-2.701
N4945 G1 X-14.972 Y8.544
N4950 G2 X-14.172 Y9.816 I6.489 J-3.195
N4955 X-12.968 Y11.408 I49.839 J-36.444
N4960 G1 X-12.766 Y11.619
N4965 X-12.625 Y11.761
N4970 X-11.359 Y12.978
N4975 G2 X-10.352 Y13.786 I4.668 J-4.784
N4980 X-8.545 Y15.009 I19.157 J-26.337
N4985 X-6.334 Y16.054 I27.916 J-56.23
N4990 X-5.529 Y16.335 I2.682 J-6.397
N4995 G1 X-3.92 Y16.8
N5000 G2 X-2.915 Y16.999 I1.453 J-4.694
N5005 X-0.704 Y17.254 I6.236 J-44.416
N5010 X2.111 Y17.14 I-0.383 J-44.155
N5015 X4.724 Y16.601 I-10.397 J-56.995
N5020 G1 X4.925 Y16.539
N5025 X5.126 Y16.476
N5030 X5.327 Y16.404
N5035 X7.137 Y15.719
N5040 G2 X7.941 Y15.308 I-2.246 J-5.388
N5045 G1 X9.21 Y14.575
N5050 G2 X10.373 Y13.771 I-3.058 J-5.662
N5055 X12.056 Y12.368 I-21.498 J-27.509
N5060 G1 X12.163 Y12.248
N5065 X12.223 Y12.181
N5070 G3 X12.469 Y12.043 I0.358 J0.349
N5075 G1 X12.525 Y12.036 Z-3.422
N5080 X12.581 Y12.03 Z-3.412
N5085 X12.65 Y12.044 Z-3.39
N5090 X12.715 Y12.057 Z-3.357
N5095 X12.775 Y12.069 Z-3.315
N5100 X12.829 Y12.105 Z-3.253
N5105 X12.872 Y12.133 Z-3.181
N5110 X12.904 Y12.155 Z-3.1
N5115 X12.924 Y12.168 Z-3.014
N5120 X12.93 Y12.172 Z-2.926
N5125 G0 Z5.
N5130 X-7.103 Y17.318
N5135 Z-1.45
N5140 G1 Z-1.95 F1000.
N5145 X-7.096 Y17.316 Z-2.037
N5150 X-7.074 Y17.31 Z-2.121
N5155 X-7.038 Y17.302 Z-2.2
N5160 X-6.99 Y17.29 Z-2.271
N5165 X-6.93 Y17.275 Z-2.333
N5170 X-6.861 Y17.257 Z-2.383
N5175 X-6.784 Y17.238 Z-2.42
N5180 X-6.702 Y17.218 Z-2.442
N5185 X-6.618 Y17.197 Z-2.45
N5190 G3 X-3.894 Y16.825 I3.081 J12.387
N5195 G1 X-3.672 Y16.826
N5200 X-3.454 Y16.786
N5205 X-3.192 Y16.683
N5210 X-3.006 Y16.627
N5215 X-2.813 Y16.603
N5220 X-2.619 Y16.612
N5225 G2 X-0.503 Y16.842 I4.356 J-30.177
N5230 X2.111 Y16.718 I-2.595 J-82.099
N5235 X4.659 Y16.188 I-11.361 J-60.977
N5240 X7.34 Y15.16 I-8.977 J-27.418
N5245 X9.957 Y13.595 I-12.795 J-24.375
N5250 X11.967 Y11.855 I-19.047 J-24.032
N5255 X13.773 Y9.7 I-17.346 J-16.368
N5260 X15.183 Y7.282 I-18.529 J-12.428
N5265 X16.215 Y4.524 I-16.592 J-7.78
N5270 X14.125 Y-9.15 I-16.211 J-4.52
N5275 X12.405 Y-11.353 I-11.328 J7.073
N5280 X10.709 Y-12.962 I-8.119 J6.861
N5285 G1 X9.951 Y-13.588
N5290 G2 X8.341 Y-14.598 I-9.14 J12.776
N5295 X6.331 Y-15.581 I-5.406 J8.51
N5300 X4.324 Y-16.274 I-6.345 J15.124
N5305 X1.911 Y-16.741 I-10.305 J46.739
N5310 X-0.704 Y-16.836 I-4.47 J87.041
N5315 X-3.52 Y-16.476 I4.166 J43.788
N5320 X-6.134 Y-15.693 I11.683 J43.745
N5325 X-8.546 Y-14.519 I16.32 J36.593
N5330 X-10.96 Y-12.797 I15.445 J24.206
N5335 X-12.796 Y-10.958 I23.55 J25.346
N5340 X-14.627 Y-8.346 I16.605 J13.586
N5345 X-15.762 Y-5.934 I18.226 J10.05
N5350 X-16.508 Y-3.318 I19.583 J7.002
N5355 X-16.829 Y-0.503 I18.086 J3.483
N5360 X-13.111 Y10.554 I16.847 J0.49
N5365 X-11.555 Y12.215 I10.061 J-7.87
N5370 X-9.94 Y13.569 I6.92 J-6.615
N5375 X-8.345 Y14.632 I11.511 J-15.534
N5380 X-5.88 Y15.788 I14.718 J-28.191
N5385 X-3.319 Y16.518 I12.618 J-39.42
N5390 G1 X-3.116 Y16.546
N5395 X-2.825 Y16.586
N5400 X-2.619 Y16.612
N5405 G3 X-2.365 Y16.733 I-0.08 J0.494
N5410 G1 X-2.325 Y16.788 Z-2.445
N5415 X-2.285 Y16.841 Z-2.431
N5420 X-2.247 Y16.892 Z-2.409
N5425 X-2.229 Y16.964 Z-2.368
N5430 X-2.213 Y17.029 Z-2.316
N5435 X-2.2 Y17.084 Z-2.253
N5440 X-2.199 Y17.105 Z-2.222
N5445 X-2.202 Y17.14 Z-2.159
N5450 X-2.204 Y17.165 Z-2.092
N5455 X-2.206 Y17.18 Z-2.022
N5460 Y17.186 Z-1.95
N5465 G0 Z5.
N5470 X-17.319 Y0.096
N5475 Z-0.475
N5480 G1 Z-0.975 F1000.
N5485 Y0.103 Z-1.062
N5490 X-17.318 Y0.126 Z-1.146
N5495 X-17.317 Y0.163 Z-1.225
N5500 X-17.315 Y0.212 Z-1.296
N5505 X-17.312 Y0.274 Z-1.358
N5510 X-17.31 Y0.345 Z-1.408
N5515 X-17.307 Y0.424 Z-1.445
N5520 X-17.304 Y0.508 Z-1.467
N5525 X-17.3 Y0.595 Z-1.475
N5530 G2 X-16.52 Y3.232 I5.553 J-0.21
N5535 G1 Y3.204
N5540 X-16.37 Y3.215
N5545 X-16.184 Y3.315
N5550 X-16.039 Y3.47
N5555 X-15.953 Y3.664
N5560 X-15.625 Y4.925
N5565 G2 X-15.274 Y5.93 I6.937 J-1.859
N5570 X-14.35 Y7.941 I41.948 J-18.048
N5575 X-13.972 Y8.545 I8.27 J-4.76
N5580 G1 X-13.158 Y9.75
N5585 G2 X-12.352 Y10.755 I5.187 J-3.333
N5590 X-10.761 Y12.385 I30.646 J-28.328
N5595 X-8.546 Y13.994 I27.362 J-35.333
N5600 X-6.334 Y15.119 I23.225 J-42.935
N5605 G1 X-5.931 Y15.283
N5610 G2 X-3.627 Y15.984 I11.238 J-32.779
N5615 G1 X-3.518 Y16.009
N5620 X-3.317 Y16.055
N5625 G2 X-0.503 Y16.396 I5.675 J-35.053
N5630 X2.111 Y16.268 I-3.557 J-99.884
N5635 X4.725 Y15.702 I-7.803 J-42.37
N5640 G1 X4.925 Y15.635
N5645 X5.126 Y15.568
N5650 X5.327 Y15.489
N5655 X7.103 Y14.776
N5660 G2 X7.941 Y14.324 I-5.427 J-11.062
N5665 X9.956 Y13.036 I-15.104 J-25.852
N5670 X11.764 Y11.429 I-60.558 J-69.957
N5675 G1 X11.823 Y11.359
N5680 X12.006 Y11.158
N5685 G2 X13.569 Y9.199 I-22.311 J-19.41
N5690 X14.957 Y6.736 I-27.296 J-17.004
N5695 X15.872 Y4.123 I-35.001 J-13.724
N5700 X16.347 Y1.307 I-30.4 J-6.576
N5705 X16.332 Y-1.508 I-36.598 J-1.203
N5710 X15.873 Y-4.123 I-43.855 J6.348
N5715 X14.956 Y-6.735 I-33.068 J10.143
N5720 X13.571 Y-9.201 I-30.49 J15.497
N5725 X11.825 Y-11.361 I-24.249 J17.816
N5730 X9.78 Y-13.169 I-26.864 J28.331
N5735 X7.14 Y-14.767 I-17.687 J26.232
N5740 X4.927 Y-15.639 I-24.513 J59.008
N5745 G1 X4.724 Y-15.698
N5750 X4.523 Y-15.756
N5755 G2 X2.312 Y-16.231 I-15.499 J66.742
N5760 G1 X2.111 Y-16.262
N5765 G2 X-0.101 Y-16.374 I-2.794 J33.331
N5770 X-1.708 Y-16.271 I-0.321 J7.612
N5775 G1 X-2.915 Y-16.118
N5780 G2 X-4.523 Y-15.722 I1.187 J8.287
N5785 G1 X-5.529 Y-15.416
N5790 G2 X-6.734 Y-14.925 I2.031 J6.72
N5795 G1 X-7.941 Y-14.318
N5800 G2 X-9.146 Y-13.581 I3.066 J6.371
N5805 X-10.96 Y-12.205 I16.817 J24.046
N5810 X-12.769 Y-10.297 I46.438 J45.863
N5815 X-14.353 Y-7.943 I28.532 J20.901
N5820 X-15.358 Y-5.73 I61.319 J29.203
N5825 G1 X-15.504 Y-5.327
N5830 X-15.569 Y-5.126
N5835 G2 X-16.131 Y-2.915 I35.468 J10.193
N5840 X-16.24 Y-2.111 I5.513 J1.157
N5845 X-16.399 Y0.1 I29.919 J3.253
N5850 X-16.186 Y2.64 I52.067 J-3.088
N5855 X-15.953 Y3.664 I13.947 J-2.628
N5860 G3 X-15.972 Y3.945 I-0.488 J0.109
N5865 G1 X-16.007 Y4.002 Z-1.47
N5870 X-16.042 Y4.059 Z-1.456
N5875 X-16.075 Y4.113 Z-1.434
N5880 X-16.135 Y4.157 Z-1.393
N5885 X-16.189 Y4.195 Z-1.341
N5890 X-16.236 Y4.229 Z-1.278
N5895 X-16.277 Y4.242 Z-1.209
N5900 X-16.307 Y4.252 Z-1.135
N5905 X-16.326 Y4.259 Z-1.056
N5910 X-16.332 Y4.261 Z-0.975
N5915 G0 Z5.
N5920 X-5.061 Y-0.949
N5925 Z-0.475
N5930 G1 Z-0.975 F1000.
N5935 X-5.068 Y-0.947 Z-1.062
N5940 X-5.09 Y-0.944 Z-1.146
N5945 X-5.127 Y-0.938 Z-1.225
N5950 X-5.176 Y-0.929 Z-1.296
N5955 X-5.237 Y-0.919 Z-1.358
N5960 X-5.307 Y-0.907 Z-1.408
N5965 X-5.385 Y-0.894 Z-1.445
N5970 X-5.468 Y-0.88 Z-1.467
N5975 X-5.554 Y-0.866 Z-1.475
N5980 G3 X-8.299 Y-0.707 I-2.106 J-12.59
N5985 G1 X-8.449 Y-0.72
N5990 X-8.499 Y-0.758
N5995 X-8.531 Y-0.813
N6000 X-8.538 Y-0.876
N6005 G3 X-8.151 Y-2.711 I7.757 J0.675
N6010 G1 X-8.142 Y-2.769
N6015 G3 X-7.343 Y-4.481 I10.014 J3.631
N6020 X-5.607 Y-6.535 I9.048 J5.885
N6025 X-3.519 Y-7.843 I6.451 J7.98
N6030 X2.515 Y-8.214 I3.513 J7.894
N6035 X6.938 Y-5.078 I-2.619 J8.384
N6040 G1 X7.137 Y-4.818
N6045 G3 X7.86 Y-3.518 I-22.146 J13.176
N6050 X8.392 Y-1.911 I-13.919 J5.496
N6055 G1 X8.544 Y-0.99
N6060 X8.556 Y-0.905
N6065 X8.579 Y-0.704
N6070 X8.588 Y-0.503
N6075 Y0.503
N6080 X8.579 Y0.704
N6085 G3 X8.342 Y2.111 I-12.392 J-1.37
N6090 X7.86 Y3.518 I-20.674 J-6.296
N6095 X7.137 Y4.818 I-21.569 J-11.134
N6100 X6.023 Y6.134 I-9.841 J-7.205
N6105 X4.451 Y7.343 I-6.709 J-7.097
N6110 X-5.336 Y6.733 I-4.456 J-7.337
N6115 X-6.395 Y5.727 I3.462 J-4.702
N6120 X-8.457 Y1.507 I6.235 J-5.66
N6125 G1 X-8.497 Y1.307
N6130 G3 X-8.605 Y-0.1 I14.811 J-1.839
N6135 G1 X-8.587 Y-0.302
N6140 X-8.538 Y-0.876
N6145 G3 X-8.427 Y-1.135 I0.496 J0.06
N6150 G1 X-8.374 Y-1.177 Z-1.47
N6155 X-8.323 Y-1.219 Z-1.456
N6160 X-8.273 Y-1.259 Z-1.434
N6165 X-8.202 Y-1.28 Z-1.393
N6170 X-8.138 Y-1.298 Z-1.341
N6175 X-8.084 Y-1.314 Z-1.278
N6180 X-8.042 Y-1.316 Z-1.213
N6185 X-8.009 Y-1.314 Z-1.137
N6190 X-7.988 Y-1.313 Z-1.057
N6195 X-7.982 Y-1.312 Z-0.975
N6200 G0 Z5.
N6205 X-16.506 Y-6.826
N6210 Z0.5
N6215 G1 Z0. F1000.
N6220 X-16.504 Y-6.818 Z-0.087
N6225 X-16.499 Y-6.796 Z-0.171
N6230 X-16.49 Y-6.761 Z-0.25
N6235 X-16.477 Y-6.712 Z-0.321
N6240 X-16.462 Y-6.653 Z-0.383
N6245 X-16.444 Y-6.583 Z-0.433
N6250 X-16.425 Y-6.507 Z-0.47
N6255 X-16.404 Y-6.425 Z-0.492
N6260 X-16.382 Y-6.341 Z-0.5
N6265 G3 X-15.991 Y-3.619 I-12.366 J3.167
N6270 G1 Y-3.398
N6275 X-15.949 Y-3.18
N6280 X-15.62 Y-2.357
N6285 X-15.493 Y-2.163
N6290 X-15.34 Y-1.881
N6295 X-15.132 Y-1.414
N6300 X-14.889 Y-0.719
N6305 X-14.663 Y0.138
N6310 G2 X-13.86 Y3.589 I47.144 J-9.151
N6315 X-12.044 Y7.617 I15.845 J-4.721
N6320 X-8.428 Y11.476 I12.302 J-7.904
N6325 X10.797 Y9.281 I8.426 J-11.493
N6330 X14.166 Y-1.411 I-10.801 J-9.28
N6335 G1 X14.055 Y-2.29
N6340 G2 X12.907 Y-5.638 I-19.405 J4.783
N6345 X9.244 Y-10.587 I-13.215 J5.949
N6350 X-1.434 Y-13.978 I-9.253 J10.632
N6355 X-12.596 Y-6.232 I1.434 J13.982
N6360 G1 X-12.962 Y-5.425
N6365 X-13.113 Y-4.552
N6370 X-13.086 Y-3.666
N6375 G2 X-11.826 Y2.516 I46.532 J-6.262
N6380 X-10.441 Y5.771 I15.197 J-4.545
N6385 G1 X-9.969 Y6.521
N6390 X-9.448 Y7.238
N6395 G2 X-0.263 Y11.878 I9.473 J-7.342
N6400 X11.879 Y0.312 I0.261 J-11.881
N6405 G1 X11.856 Y-0.573
N6410 G2 X8.753 Y-7.774 I-12.407 J1.078
N6415 X4.446 Y-10.817 I-8.837 J7.938
N6420 X-2.512 Y-11.42 I-4.445 J10.859
N6425 X-9.676 Y-6.568 I2.506 J11.417
N6430 G1 X-9.892 Y-6.182
N6435 X-9.98 Y-5.978
N6440 X-10.019 Y-5.874
N6445 G3 X-10.195 Y-5.655 I-0.462 J-0.191
N6450 G1 X-10.257 Y-5.628 Z-0.495
N6455 X-10.318 Y-5.602 Z-0.481
N6460 X-10.376 Y-5.576 Z-0.459
N6465 X-10.43 Y-5.57 Z-0.431
N6470 X-10.481 Y-5.565 Z-0.397
N6475 X-10.536 Y-5.576 Z-0.346
N6480 X-10.583 Y-5.585 Z-0.287
N6485 X-10.621 Y-5.593 Z-0.221
N6490 X-10.649 Y-5.598 Z-0.151
N6495 X-10.666 Y-5.602 Z-0.076
N6500 X-10.672 Y-5.603 Z-0.001
N6505 G0 Z5.
N6510 X18.795 Y18.647
N6515 Z-11.358
N6520 G1 Z-13.858 F1000.
N6525 G3 X17.682 Y17.84 I3.168 J-5.54
N6530 G1 X17.59 Y17.751
N6535 X17.431 Y17.455
N6540 X17.263 Y17.072
N6545 X17.086 Y16.562
N6550 X16.902 Y15.851
N6555 G3 X16.559 Y12.328 I19.765 J-3.701
N6560 X16.501 Y7.169 I133.735 J-4.105
N6565 G1 X16.536 Y7.014
N6570 X16.588 Y6.865
N6575 X16.9 Y6.132
N6580 G2 X17.223 Y5.126 I-6.072 J-2.506
N6585 G1 X17.621 Y3.518
N6590 G2 X17.825 Y2.312 I-7.394 J-1.865
N6595 X17.996 Y-0.1 I-38.809 J-3.965
N6600 X17.756 Y-2.916 I-50.607 J2.891
N6605 X17.114 Y-5.529 I-43.56 J9.316
N6610 G3 X16.598 Y-9.028 I14.324 J-3.898
N6615 X16.503 Y-13.678 I92.94 J-4.232
N6620 G1 X16.415 Y-14.113
N6625 X16.189 Y-14.494
N6630 X15.591 Y-15.148
N6635 X14.829 Y-15.6
N6640 X13.996 Y-15.902
N6645 X13.133 Y-16.102
N6650 G2 X9.604 Y-16.404 I-3.826 J23.902
N6655 G3 X7.314 Y-16.458 I7.544 J-372.827
N6660 G1 X7.18 Y-16.485
N6665 X7.049 Y-16.526
N6670 X5.529 Y-17.102
N6675 G2 X4.322 Y-17.437 I-2.438 J6.439
N6680 X2.312 Y-17.836 I-7.795 J34.029
N6685 G1 X2.111 Y-17.863
N6690 G2 X-0.503 Y-17.979 I-3.119 J40.821
N6695 X-1.709 Y-17.874 I0.191 J9.19
N6700 G1 X-3.116 Y-17.704
N6705 G2 X-4.121 Y-17.496 I0.92 J6.972
N6710 G1 X-5.529 Y-17.088
N6715 G3 X-9.03 Y-16.59 I-3.913 J-14.963
N6720 X-13.681 Y-16.501 I-4.164 J-95.823
N6725 G1 X-14.116 Y-16.413
N6730 X-14.497 Y-16.187
N6735 X-15.15 Y-15.588
N6740 X-15.601 Y-14.825
N6745 X-15.903 Y-13.992
N6750 X-16.103 Y-13.129
N6755 G2 X-16.405 Y-9.6 I23.938 J3.826
N6760 G3 X-16.456 Y-7.393 I-668.52 J-14.534
N6765 G1 X-16.482 Y-7.261
N6770 X-16.522 Y-7.133
N6775 G2 X-17.465 Y-4.324 I38.964 J14.655
N6780 X-17.925 Y-1.508 I36.91 J7.469
N6785 G1 X-17.946 Y-1.307
N6790 G2 X-17.934 Y1.508 I57.919 J1.155
N6795 X-17.464 Y4.323 I50.963 J-7.055
N6800 G1 X-17.41 Y4.523
N6805 X-17.39 Y4.6
N6810 X-17.214 Y5.126
N6815 G3 X-16.612 Y8.609 I-12.742 J3.996
N6820 X-16.502 Y13.703 I-86.496 J4.411
N6825 G1 X-16.456 Y13.92
N6830 X-16.29 Y14.331
N6835 X-15.748 Y15.032
N6840 X-15.009 Y15.52
N6845 X-14.186 Y15.849
N6850 X-13.327 Y16.066
N6855 G2 X-9.801 Y16.395 I3.811 J-21.825
N6860 G1 X-7.3 Y16.455
N6865 X-7.138 Y16.496
N6870 X-6.983 Y16.555
N6875 G2 X-5.729 Y17.029 I2.674 J-5.18
N6880 G1 X-4.121 Y17.496
N6885 G2 X-3.116 Y17.704 I1.877 J-6.524
N6890 X-0.704 Y17.981 I6.964 J-49.997
N6895 X1.91 Y17.886 I-1.404 J-74.626
N6900 X2.915 Y17.726 I-1.073 J-10.009
N6905 X4.926 Y17.298 I-5.611 J-31.275
N6910 G1 X5.126 Y17.243
N6915 X5.294 Y17.189
N6920 X6.101 Y16.954
N6925 X6.969 Y16.775
N6930 G3 X10.502 Y16.523 I3.722 J27.312
N6935 G1 X11.388 Y16.503
N6940 X12.052 Y16.495
N6945 X12.269 Y16.451
N6950 X12.679 Y16.282
N6955 X13.336 Y15.688
N6960 X13.769 Y14.914
N6965 X14.045 Y14.072
N6970 G2 X14.404 Y11.084 I-14.615 J-3.273
N6975 G1 X14.435 Y10.878
N6980 X14.499 Y10.679
N6985 X14.598 Y10.496
N6990 G2 X15.944 Y8.346 I-38.437 J-25.56
N6995 G1 X16.125 Y7.941
N7000 X16.215 Y7.74
N7005 X16.588 Y6.865
N7010 X16.886 Y6.165 Z-13.664
N7015 X16.895 Y6.143 Z-13.658
N7020 G2 X17.222 Y5.126 I-5.742 J-2.406
N7025 G1 X17.621 Y3.518
N7030 G2 X17.825 Y2.312 I-7.394 J-1.865
N7035 X17.997 Y-0.1 I-46.666 J-4.544
N7040 X17.784 Y-2.714 I-117.663 J8.264
N7045 X17.622 Y-3.518 I-12.679 J2.134
N7050 G1 X17.313 Y-4.77
N7055 X17.307 Y-4.793 Z-13.664
N7060 X17.225 Y-5.126 Z-13.751
N7065 X17.189 Y-5.263 Z-13.788
N7070 X17.17 Y-5.327 Z-13.804
N7075 X17.112 Y-5.529 Z-13.858
N7080 X17.052 Y-5.73
N7085 X16.984 Y-5.931
N7090 G2 X15.94 Y-8.343 I-46.866 J18.843
N7095 G1 X15.83 Y-8.544
N7100 X15.781 Y-8.625
N7105 X15.708 Y-8.745
N7110 X15.5 Y-9.118
N7115 X15.324 Y-9.502
N7120 X15.142 Y-10.004
N7125 X14.953 Y-10.693
N7130 X14.788 Y-11.564
N7135 X14.383 Y-12.352
N7140 X13.748 Y-12.97
N7145 X12.988 Y-13.427
N7150 X12.165 Y-13.753
N7155 X11.477 Y-13.937
N7160 X11.322 Y-13.991
N7165 X11.175 Y-14.066
N7170 X11.041 Y-14.16
N7175 G3 X10.994 Y-14.866 I0.33 J-0.376
N7180 G1 X11.051 Y-14.931 Z-13.85
N7185 X11.107 Y-14.995 Z-13.828
N7190 X11.159 Y-15.054 Z-13.791
N7195 X11.206 Y-15.108 Z-13.741
N7200 X11.247 Y-15.154 Z-13.679
N7205 X11.28 Y-15.192 Z-13.608
N7210 X11.304 Y-15.219 Z-13.529
N7215 X11.319 Y-15.236 Z-13.445
N7220 X11.324 Y-15.242 Z-13.358
N7225 G0 Z5.
N7230 X16.74 Y-7.995
N7235 Z-12.858
N7240 G1 Z-13.358 F1000.
N7245 X16.733 Y-7.998 Z-13.445
N7250 X16.713 Y-8.009 Z-13.529
N7255 X16.68 Y-8.025 Z-13.608
N7260 X16.636 Y-8.048 Z-13.679
N7265 X16.581 Y-8.076 Z-13.741
N7270 X16.517 Y-8.109 Z-13.791
N7275 X16.447 Y-8.145 Z-13.828
N7280 X16.372 Y-8.184 Z-13.85
N7285 X16.295 Y-8.224 Z-13.858
N7290 G3 X15.708 Y-8.745 I0.724 J-1.407
N7295 G2 X14.376 Y-10.822 I-40.814 J24.71
N7300 G1 X14.268 Y-10.956
N7305 G2 X12.668 Y-12.766 I-40.214 J33.963
N7310 X11.76 Y-13.572 I-4.761 J4.444
N7315 G1 X10.532 Y-14.575
N7320 G2 X9.75 Y-15.099 I-3.969 J5.075
N7325 X7.74 Y-16.249 I-38.246 J64.542
N7330 G1 X7.539 Y-16.333
N7335 X7.137 Y-16.492
N7340 X7.049 Y-16.526
N7345 X6.337 Y-16.795 Z-13.664
N7350 X6.315 Y-16.804 Z-13.658
N7355 G2 X4.926 Y-17.3 I-4.932 J11.615
N7360 X2.312 Y-17.836 I-8.944 J36.981
N7365 G1 X2.111 Y-17.863
N7370 G2 X-0.704 Y-17.98 I-3.035 J39.231
N7375 X-3.72 Y-17.604 I2.934 J35.903
N7380 X-4.775 Y-17.306 I8.846 J33.314
N7385 G1 X-4.797 Y-17.3 Z-13.664
N7390 X-5.529 Y-17.088 Z-13.858
N7395 G2 X-7.344 Y-16.382 I1.927 J7.638
N7400 X-9.007 Y-15.582 I15.535 J34.444
N7405 G1 X-9.161 Y-15.494
N7410 X-9.544 Y-15.319
N7415 X-10.044 Y-15.138
N7420 X-10.73 Y-14.95
N7425 X-11.601 Y-14.784
N7430 X-12.382 Y-14.366
N7435 X-12.992 Y-13.723
N7440 X-13.443 Y-12.96
N7445 X-13.765 Y-12.135
N7450 X-13.937 Y-11.479
N7455 X-13.984 Y-11.336
N7460 X-14.05 Y-11.201
N7465 X-14.132 Y-11.075
N7470 G3 X-14.836 Y-11. I-0.389 J-0.314
N7475 G1 X-14.903 Y-11.055 Z-13.85
N7480 X-14.969 Y-11.108 Z-13.828
N7485 X-15.03 Y-11.157 Z-13.791
N7490 X-15.086 Y-11.202 Z-13.741
N7495 X-15.134 Y-11.241 Z-13.679
N7500 X-15.173 Y-11.272 Z-13.608
N7505 X-15.201 Y-11.295 Z-13.529
N7510 X-15.219 Y-11.31 Z-13.445
N7515 X-15.225 Y-11.314 Z-13.358
N7520 G0 Z5.
N7525 X-8.256 Y-16.612
N7530 Z-12.858
N7535 G1 Z-13.358 F1000.
N7540 X-8.259 Y-16.605 Z-13.445
N7545 X-8.27 Y-16.585 Z-13.529
N7550 X-8.287 Y-16.552 Z-13.608
N7555 X-8.309 Y-16.508 Z-13.679
N7560 X-8.338 Y-16.453 Z-13.741
N7565 X-8.37 Y-16.39 Z-13.791
N7570 X-8.407 Y-16.32 Z-13.828
N7575 X-8.445 Y-16.245 Z-13.85
N7580 X-8.485 Y-16.168 Z-13.858
N7585 G3 X-9.006 Y-15.58 I-1.407 J-0.725
N7590 G2 X-11.065 Y-14.173 I40.197 J60.998
N7595 X-12.205 Y-13.168 I7.117 J9.226
N7600 X-13.445 Y-11.963 I27.657 J29.698
N7605 G1 X-13.57 Y-11.813
N7610 X-13.612 Y-11.761
N7615 X-13.771 Y-11.556
N7620 X-14.977 Y-9.951
N7625 G2 X-15.578 Y-8.941 I6.137 J4.334
N7630 X-16.522 Y-7.133 I66.148 J35.702
N7635 G1 X-16.586 Y-6.961 Z-13.811
N7640 X-16.669 Y-6.735 Z-13.75
N7645 X-16.743 Y-6.534 Z-13.695
N7650 X-16.782 Y-6.418 Z-13.664
N7655 X-16.787 Y-6.406 Z-13.661
N7660 X-16.79 Y-6.395 Z-13.658
N7665 X-16.811 Y-6.333
N7670 X-17.39 Y-4.6
N7675 G2 X-17.583 Y-3.719 I10.377 J2.738
N7680 X-17.925 Y-1.508 I38.088 J7.028
N7685 G1 X-17.946 Y-1.307
N7690 G2 X-17.933 Y1.508 I52.864 J1.167
N7695 X-17.45 Y4.378 I43.144 J-5.79
N7700 G1 X-17.44 Y4.4 Z-13.664
N7705 X-17.41 Y4.523 Z-13.696
N7710 X-17.39 Y4.6 Z-13.716
N7715 X-17.214 Y5.126 Z-13.858
N7720 G2 X-16.52 Y7.137 I35.703 J-11.194
N7725 X-15.58 Y8.942 I66.541 J-33.534
N7730 G1 X-15.339 Y9.46
N7735 X-15.157 Y9.947
N7740 X-14.969 Y10.609
N7745 X-14.797 Y11.478
N7750 X-14.425 Y12.282
N7755 X-13.807 Y12.918
N7760 X-13.057 Y13.389
N7765 X-12.237 Y13.727
N7770 X-11.529 Y13.923
N7775 X-11.38 Y13.975
N7780 X-11.239 Y14.048
N7785 X-11.109 Y14.138
N7790 G3 X-11.057 Y14.844 I-0.327 J0.378
N7795 G1 X-11.114 Y14.909 Z-13.85
N7800 X-11.169 Y14.973 Z-13.828
N7805 X-11.221 Y15.033 Z-13.791
N7810 X-11.268 Y15.087 Z-13.741
N7815 X-11.308 Y15.133 Z-13.679
N7820 X-11.341 Y15.171 Z-13.608
N7825 X-11.365 Y15.199 Z-13.529
N7830 X-11.38 Y15.216 Z-13.445
N7835 X-11.385 Y15.222 Z-13.358
N7840 G0 Z5.
N7845 X-16.555 Y8.119
N7850 Z-12.858
N7855 G1 Z-13.358 F1000.
N7860 X-16.549 Y8.123 Z-13.445
N7865 X-16.53 Y8.135 Z-13.529
N7870 X-16.498 Y8.154 Z-13.608
N7875 X-16.456 Y8.18 Z-13.679
N7880 X-16.403 Y8.212 Z-13.741
N7885 X-16.342 Y8.249 Z-13.791
N7890 X-16.275 Y8.29 Z-13.828
N7895 X-16.203 Y8.334 Z-13.85
N7900 X-16.129 Y8.38 Z-13.858
N7905 G3 X-15.58 Y8.942 I-0.824 J1.351
N7910 G2 X-14.979 Y9.953 I7.994 J-4.067
N7915 G1 X-13.768 Y11.56
N7920 G2 X-12.765 Y12.628 I5.475 J-4.14
N7925 G1 X-11.786 Y13.57
N7930 G2 X-10.756 Y14.39 I6.253 J-6.795
N7935 X-9.007 Y15.582 I35.466 J-50.149
N7940 X-6.983 Y16.555 I27.217 J-54.018
N7945 G1 X-6.735 Y16.672 Z-13.788
N7950 X-6.534 Y16.766 Z-13.731
N7955 X-6.479 Y16.787 Z-13.716
N7960 X-6.333 Y16.841 Z-13.677
N7965 X-6.285 Y16.858 Z-13.664
N7970 X-6.263 Y16.866 Z-13.658
N7975 X-6.132 Y16.912
N7980 G2 X-3.755 Y17.593 I16.838 J-54.294
N7985 X-2.915 Y17.73 I1.93 J-9.197
N7990 X-0.704 Y17.981 I6.485 J-47.209
N7995 X1.91 Y17.886 I-0.841 J-59.026
N8000 X2.915 Y17.726 I-1.054 J-9.898
N8005 G1 X4.322 Y17.439
N8010 X4.523 Y17.396
N8015 X4.536 Y17.393
N8020 X4.553 Y17.39 Z-13.662
N8025 X4.56 Y17.388 Z-13.664
N8030 X4.724 Y17.348 Z-13.707
N8035 X4.925 Y17.297 Z-13.76
N8040 X5.126 Y17.243 Z-13.813
N8045 X5.294 Y17.189 Z-13.858
N8050 G2 X7.865 Y16.191 I-14.892 J-42.177
N8055 G1 X7.941 Y16.14
N8060 X8.568 Y15.781
N8065 X8.917 Y15.58
N8070 X9.261 Y15.404
N8075 X10.079 Y15.064
N8080 X10.772 Y14.511
N8085 G3 X11.126 Y14.089 I1.681 J1.051
N8090 G1 X11.197 Y14.044 Z-13.836
N8095 X11.276 Y14.011 Z-13.815
N8100 X11.358 Y13.992 Z-13.793
N8105 X11.443 Y13.988 Z-13.772
N8110 X11.527 Y13.997 Z-13.75
N8115 X11.608 Y14.021 Z-13.729
N8120 X11.684 Y14.058 Z-13.707
N8125 X11.753 Y14.107 Z-13.685
N8130 X11.812 Y14.167 Z-13.664
N8135 X11.827 Y14.185 Z-13.658
N8140 G3 X11.709 Y14.903 I-0.398 J0.303
N8145 G1 X9.461 Y16.419
N8150 G3 X8.758 Y16.269 I-0.28 J-0.415
N8155 G1 X8.745 Y16.248 Z-13.664
N8160 G3 X8.917 Y15.58 Z-13.858 I0.436 J-0.244
N8165 G2 X10.355 Y14.712 I-7.157 J-13.477
N8170 X12.364 Y13.072 I-57.233 J-72.176
N8175 X12.966 Y12.434 I-5.69 J-5.974
N8180 G1 X14.173 Y11.072
N8185 G2 X14.597 Y10.496 I-3.78 J-3.225
N8190 G3 X14.818 Y10.321 I0.408 J0.289
N8195 G1 X14.882 Y10.309 Z-13.853
N8200 X14.945 Y10.297 Z-13.841
N8205 X15.006 Y10.285 Z-13.82
N8210 X15.078 Y10.299 Z-13.781
N8215 X15.143 Y10.313 Z-13.73
N8220 X15.199 Y10.324 Z-13.67
N8225 X15.24 Y10.346 Z-13.6
N8230 X15.27 Y10.363 Z-13.523
N8235 X15.288 Y10.373 Z-13.442
N8240 X15.295 Y10.377 Z-13.358
N8245 G0 Z5.
N8250 X2.285 Y1.005
N8255 Z-6.775
N8260 S7000
N8265 G3 X-1.834 Y1.692 Z-6.948 I-2.284 J-1.005 F333.33
N8270 X-0.819 Y-2.353 Z-7.121 I1.832 J-1.69
N8275 X2.479 Y0.193 Z-7.293 I0.815 J2.352
N8280 X-1.168 Y2.195 Z-7.466 I-2.479 J-0.193
N8285 X-1.545 Y-1.944 Z-7.639 I1.167 J-2.193
N8290 X2.394 Y-0.636 Z-7.812 I1.541 J1.944
N8295 X-0.376 Y2.448 Z-7.984 I-2.395 J0.635
N8300 X-2.093 Y-1.32 Z-8.157 I0.375 J-2.446
N8305 X2.042 Y-1.387 Z-8.33 I2.09 J1.32
N8310 X0.452 Y2.426 Z-8.503 I-2.043 J1.386
N8315 X-2.403 Y-0.552 Z-8.675 I-0.453 J-2.424
N8320 X1.463 Y-1.977 Z-8.848 I2.4 J0.553
N8325 X1.224 Y2.131 Z-9.021 I-1.465 J1.976
N8330 X-2.442 Y0.271 Z-9.194 I-1.224 J-2.13
N8335 X0.725 Y-2.341 Z-9.366 I2.439 J-0.27
N8340 X1.852 Y1.601 Z-9.539 I-0.727 J2.34
N8345 X-2.207 Y1.059 Z-9.712 I-1.852 J-1.6
N8350 X-0.09 Y-2.441 Z-9.885 I2.204 J-1.057
N8355 X2.269 Y0.895 Z-10.057 I0.087 J2.44
N8360 X-1.727 Y1.722 Z-10.23 I-2.268 J-0.895
N8365 X-0.888 Y-2.266 Z-10.403 I1.725 J-1.719
N8370 X2.428 Y0.094 Z-10.576 I0.885 J2.266
N8375 X-1.057 Y2.187 Z-10.748 I-2.428 J-0.094
N8380 X-1.582 Y-1.839 Z-10.921 I1.056 J-2.185
N8385 X2.313 Y-0.712 Z-11.094 I1.578 J1.839
N8390 X-0.274 Y2.404 Z-11.267 I-2.314 J0.711
N8395 X-2.093 Y-1.209 Z-11.439 I0.273 J-2.402
N8400 X1.941 Y-1.431 Z-11.612 I2.09 J1.209
N8405 X0.533 Y2.35 Z-11.785 I-1.942 J1.43
N8410 X-2.366 Y-0.448 Z-11.958 I-0.534 J-2.348
N8415 X1.353 Y-1.985 Z-12.13 I2.363 J0.449
N8420 X1.275 Y2.034 Z-12.303 I-1.355 J1.984
N8425 X-2.373 Y0.357 Z-12.476 I-1.275 J-2.032
N8430 X0.618 Y-2.313 Z-12.649 I2.37 J-0.356
N8435 X1.868 Y1.492 Z-12.821 I-0.621 J2.311
N8440 X-2.114 Y1.117 Z-12.994 I-1.868 J-1.491
N8445 X-0.18 Y-2.379 Z-13.167 I2.111 J-1.115
N8450 X2.248 Y0.787 Z-13.34 I0.177 J2.378
N8455 X-1.62 Y1.745 Z-13.512 I-2.247 J-0.787
N8460 X-0.953 Y-2.178 Z-13.685 I1.618 J-1.743
N8465 X2.372 Y0. Z-13.858 I0.95 J2.177
N8470 X-2.378 I-2.375 J0.
N8475 X2.372 I2.375 J0.
N8480 S9000
N8485 G1 X2.376 Y0.221 F1000.
N8490 X2.559 Y1.088
N8495 G3 X2.125 Y2.6 I-1.776 J0.309
N8500 X-0.427 Y3.657 I-2.262 J-1.853
N8505 X-3.752 Y0.512 I0.249 J-3.594
N8510 X3.232 Y-1.989 I3.75 J-0.531
N8515 X4.053 Y-0.079 I-5.492 J3.491
N8520 X1.351 Y4.899 I-4.084 J1.005
N8525 X-3.785 Y3.755 I-1.67 J-4.6
N8530 X-1.911 Y-5.038 I3.722 J-3.803
N8535 X2.683 Y-4.679 I1.924 J4.963
N8540 X5.072 Y-2.128 I-3.216 J5.406
N8545 X5.378 Y3.147 I-5.387 J2.959
N8550 X-0.012 Y6.843 I-5.619 J-2.416
N8555 X-5.954 Y3.761 I-0.314 J-6.662
N8560 X-1.536 Y-6.922 I5.907 J-3.812
N8565 X4.458 Y-5.527 I1.553 J6.904
N8570 X7.56 Y1.272 I-4.978 J6.379
N8575 X2.127 Y8.205 I-7.737 J-0.468
N8580 G1 X0.905 Y8.428
N8585 X0.804 Y8.442
N8590 G3 X-0.804 Y8.443 I-0.815 J-18.494
N8595 X-2.378 Y8.144 I3.233 J-21.308
N8600 G1 X-3.719 Y7.622
N8605 G3 X-5.152 Y6.734 I7.595 J-13.866
N8610 X-6.335 Y5.639 I12.547 J-14.727
N8615 G1 X-7.137 Y4.573
N8620 X-7.171 Y4.523
N8625 X-7.288 Y4.322
N8630 X-7.888 Y3.116
N8635 X-7.941 Y2.971
N8640 X-8.3 Y1.709
N8645 X-8.343 Y1.538
N8650 X-8.347 Y1.508
N8655 X-8.459 Y0.302
N8660 X-8.477 Y0.101
N8665 G3 X-8.343 Y-1.538 I21.885 J0.975
N8670 G1 X-8.3 Y-1.709
N8675 X-7.941 Y-2.971
N8680 X-7.888 Y-3.116
N8685 X-7.288 Y-4.322
N8690 X-7.171 Y-4.523
N8695 X-7.137 Y-4.573
N8700 X-6.333 Y-5.637
N8705 G3 X-5.126 Y-6.753 I11.217 J10.908
N8710 X-3.721 Y-7.625 I15.97 J24.184
N8715 G1 X-2.377 Y-8.142
N8720 X-2.312 Y-8.163
N8725 X-2.111 Y-8.202
N8730 X-0.905 Y-8.428
N8735 X-0.804 Y-8.442
N8740 G3 X0.804 Y-8.443 I0.815 J18.494
N8745 X2.378 Y-8.144 I-3.233 J21.308
N8750 G1 X3.719 Y-7.622
N8755 G3 X5.152 Y-6.734 I-7.595 J13.866
N8760 X6.335 Y-5.639 I-12.547 J14.727
N8765 G1 X7.137 Y-4.573
N8770 X7.171 Y-4.523
N8775 X7.288 Y-4.322
N8780 X7.888 Y-3.116
N8785 X7.941 Y-2.971
N8790 X8.3 Y-1.709
N8795 X8.343 Y-1.538
N8800 X8.347 Y-1.508
N8805 X8.459 Y-0.302
N8810 X8.477 Y-0.101
N8815 G3 X8.343 Y1.538 I-21.886 J-0.975
N8820 G1 X8.3 Y1.709
N8825 X7.941 Y2.971
N8830 X7.888 Y3.116
N8835 X7.288 Y4.322
N8840 X7.171 Y4.523
N8845 X7.137 Y4.573
N8850 X6.333 Y5.637
N8855 G3 X5.126 Y6.753 I-11.217 J-10.908
N8860 X3.721 Y7.625 I-15.971 J-24.184
N8865 G1 X2.377 Y8.142
N8870 X2.312 Y8.163
N8875 X2.125 Y8.2
N8880 G3 X1.552 Y7.786 I-0.08 J-0.494
N8885 G1 X1.538 Y7.7 Z-13.85
N8890 X1.525 Y7.617 Z-13.828
N8895 X1.512 Y7.539 Z-13.791
N8900 X1.501 Y7.468 Z-13.741
N8905 X1.491 Y7.407 Z-13.679
N8910 X1.483 Y7.358 Z-13.608
N8915 X1.477 Y7.322 Z-13.529
N8920 X1.474 Y7.299 Z-13.445
N8925 X1.472 Y7.292 Z-13.358
N8930 G0 Z15.
N8935 M5
N8940 G53 G0 Z0.
N8945 M30
%
