%
(103)
(T1 D=5. CR=0. - ZMIN=-20.5 - FLAT END MILL)
N10 G90 G94 G17 G91.1
N15 G21
N20 G53 G0 Z0.
(ADAPTIVE1)
N25 T1 M6
N30 S6000 M3
N35 G17 G90 G94

N40 G54
N45 G64 P0.1 Q0.1
N50 G0 X-76.519 Y-40.318
N55 G43 Z15. H1
N60 G0 Z-8.74
N65 G1 Z-9.24 F680.
N70 X-76.516 Y-40.311 Z-9.327
N75 X-76.506 Y-40.291 Z-9.411
N80 X-80 Y-45.291 Z-9.411
N85 S10000
N75 X-76.506 Y-40.291 Z-9.411
N80 X-80 Y-45.291 Z-9.411
N85 X-90 Y-30 Z-3
M5
M30
