%
(103)
(T1 D=5. CR=0. - ZMIN=-20.5 - FLAT END MILL)
N10 G90 G94 G17 G91.1
N15 G21
N20 G53 G0 Z0.
(ADAPTIVE1)
N25 T1 M6
N30 S8000 M3
N35 G17 G90 G94

N40 G54
N45 G64 P0.1 Q0.1
N50 G0 X-76.519 Y-40.318
N55 G43 Z15. H1
N60 G0 Z-8.74
N65 G1 Z-9.24 F680.
N70 X-76.516 Y-40.311 Z-9.327
N75 X-76.506 Y-40.291 Z-9.411
N80 X-76.49 Y-40.258 Z-9.49
N85 X-76.469 Y-40.213 Z-9.561
N90 X-76.442 Y-40.157 Z-9.623
N95 X-76.411 Y-40.093 Z-9.673
N100 X-76.378 Y-40.021 Z-9.71
N105 X-76.341 Y-39.945 Z-9.732
N110 X-76.304 Y-39.867 Z-9.74
N115 G3 X-75.397 Y-37.27 I-11.528 J5.482
N120 G1 X-75.369 Y-37.123
N125 G2 X-75.436 Y-27.376 I371.181 J7.449
N130 G1 X-75.442 Y-12.922
N135 X-75.466 Y-12.686
N140 X-75.538 Y-12.46
N145 X-75.653 Y-12.253
N150 G2 X-76.562 Y-10.542 I11.736 J7.325
N155 X-76.919 Y-8.931 I17.763 J4.786
N160 G1 X-76.944 Y-8.73
N165 X-76.956 Y-8.528
N170 G2 X-76.775 Y-6.516 I12.17 J-0.081
N175 X-76.286 Y-5.211 I60.688 J-21.967
N180 G1 X-76.043 Y-4.508
N185 X-75.859 Y-3.798
N190 G3 X-75.518 Y-0.274 I-19.78 J3.695
N195 X-75.451 Y8.587 I-295.12 J6.652
N200 G1 X-75.458 Y28.081
N205 X-75.459 Y32.512
N210 X-75.358 Y32.943
N215 X-75.129 Y33.323
N220 X-74.528 Y33.973
N225 X-73.764 Y34.422
N230 X-72.93 Y34.722
N235 X-72.066 Y34.92
N240 G2 X-68.537 Y35.218 I3.804 J-24.037
N245 X-64.107 Y35.274 I4.075 J-147.416
N250 G1 X-62.335 Y35.279
N255 X-58.791 Y35.281
N260 X-42.168 Y35.28
N265 X-42.048 Y35.286
N270 X-41.93 Y35.305
N275 X-41.814 Y35.335
N280 X-41.667 Y35.382
N285 G2 X-37.643 Y36.295 I40.019 J-167.15
N290 G1 X-37.239 Y36.344
N295 X-37.038 Y36.37
N300 X-33.817 Y36.76
N305 X-33.616 Y36.768
N310 X-33.214 Y36.781
N315 X-33.012 Y36.782
N320 X51.119
N325 G2 X52.328 Y36.678 I0.214 J-4.56
N330 X53.121 Y36.323 I-0.778 J-2.805
N335 G1 X53.249 Y36.246
N340 X53.615 Y36.079
N345 X54.099 Y35.903
N350 X54.767 Y35.721
N355 X55.637 Y35.556
N360 G3 X60.058 Y35.309 I4.189 J35.227
N365 X67.147 Y35.275 I5.508 J409.205
N370 G1 X72.685 Y35.273
N375 X72.903 Y35.232
N380 X73.314 Y35.067
N385 X74.012 Y34.521
N390 X74.497 Y33.779
N395 X74.824 Y32.956
N400 X75.04 Y32.096
N405 G2 X75.366 Y28.57 I-21.977 J-3.813
N410 X75.439 Y19.71 I-300.404 J-6.896
N415 G1 X75.445 Y5.532
N420 X75.449 Y-4.046
N425 X75.456 Y-4.172
N430 X75.476 Y-4.296
N435 X75.51 Y-4.417
N440 X75.539 Y-4.506
N445 X76.222 Y-6.718
N450 X76.333 Y-7.121
N455 G2 X76.858 Y-10.338 I-78.105 J-14.39
N460 G1 X76.869 Y-10.54
N465 X76.944 Y-12.953
N470 X76.946 Y-13.154
N475 X76.942 Y-13.557
N480 X76.934 Y-13.758
N485 X76.681 Y-16.196
N490 X76.661 Y-16.372
N495 X76.565 Y-16.976
N500 X75.981 Y-19.389
N505 G3 X75.52 Y-23.788 I21.497 J-4.477
N510 X75.462 Y-32.428 I317.176 J-6.416
N515 G1 X75.381 Y-32.864
N520 X75.163 Y-33.249
N525 X74.575 Y-33.912
N530 X73.816 Y-34.37
N535 X72.985 Y-34.677
N540 X72.122 Y-34.879
N545 G2 X68.594 Y-35.184 I-3.809 J23.493
N550 X61.274 Y-35.251 I-6.126 J269.255
N555 G1 X61.125 Y-35.289
N560 X60.982 Y-35.338
N565 G2 X59.774 Y-35.721 I-2.794 J6.705
N570 G1 X57.963 Y-36.202
N575 X57.761 Y-36.252
N580 X57.359 Y-36.338
N585 X57.158 Y-36.378
N590 X54.707 Y-36.686
N595 X54.541 Y-36.706
N600 X53.937 Y-36.744
N605 X53.736
N610 X51.321 Y-36.722
N615 X51.119 Y-36.709
N620 X50.717 Y-36.677
N625 X50.516 Y-36.653
N630 X48.1 Y-36.305
N635 G2 X46.49 Y-35.893 I2.755 J14.132
N640 G3 X42.992 Y-35.367 I-4.181 J-15.899
N645 X35.904 Y-35.264 I-5.598 J-141.427
N650 G1 X33.246 Y-35.256
N655 X17.296 Y-35.258
N660 X-3.971 Y-35.262
N665 X-54.48 Y-35.27
N670 X-70.652 Y-35.273
N675 X-70.87 Y-35.231
N680 X-71.281 Y-35.066
N685 X-71.986 Y-34.529
N690 X-72.478 Y-33.792
N695 X-72.81 Y-32.97
N700 X-73.03 Y-32.112
N705 G2 X-73.364 Y-28.587 I21.551 J3.822
N710 X-73.435 Y-19.727 I274.78 J6.626
N715 G1 X-73.442 Y-14.887
N720 G3 X-73.961 Y-13.917 I-1.167 J-0.001
N725 G2 X-74.629 Y-13.355 I1.982 J3.036
N730 G1 X-75.279 Y-12.708
N735 X-75.481 Y-12.487
N740 X-75.585 Y-12.35
N745 X-75.653 Y-12.253
N750 X-75.655 Y-12.25 Z-9.739
N755 G2 X-76.162 Y-11.688 Z-9.546 I3.749 J3.883
N760 G1 X-76.177 Y-11.669 Z-9.54
N765 G2 X-76.758 Y-10.734 I4.27 J3.302
N770 G1 X-76.781 Y-10.678
N775 X-76.797 Y-10.62
N780 X-76.806 Y-10.56
N785 X-77.119 Y-7.083
N790 X-77.12 Y-7.023
N795 X-77.115 Y-6.962
N800 X-77.102 Y-6.903
N805 G2 X-76.697 Y-5.879 I5.195 J-1.464
N810 G1 X-76.686 Y-5.858 Z-9.546
N815 G2 X-76.288 Y-5.214 Z-9.739 I4.779 J-2.509
N820 G1 X-76.286 Y-5.211 Z-9.74
N825 X-76.245 Y-5.109
N830 X-76.054 Y-4.707
N835 X-75.957 Y-4.506
N840 X-74.474 Y-1.54
N845 X-74.255 Y-1.041
N850 X-74.069 Y-0.504
N855 X-73.877 Y0.238
N860 G3 X-73.528 Y3.761 I-20.215 J3.785
N865 X-73.458 Y10.849 I-201.655 J5.54
N870 G1 X-73.453 Y14.394
N875 X-73.458 Y29.901
N880 X-73.376 Y30.336
N885 X-73.2 Y30.743
N890 X-72.703 Y31.476
N895 X-72.008 Y32.027
N900 X-71.215 Y32.422
N905 X-70.373 Y32.698
N910 G2 X-66.865 Y33.161 I4.016 J-16.912
N915 X-60.664 Y33.27 I5.216 J-120.35
N920 G1 X-58.892 Y33.278
N925 X-56.233 Y33.28
N930 X-47.512 Y33.281
N935 X-47.344 Y33.293
N940 X-47.18 Y33.329
N945 X-47.023 Y33.388
N950 X-45.692 Y34.001
N955 G2 X-41.813 Y35.335 I41.28 J-113.776
N960 G1 X-41.734 Y35.371
N965 X-41.662 Y35.421
N970 X-41.601 Y35.483
N975 X-41.55 Y35.554
N980 X-41.513 Y35.633
N985 X-41.49 Y35.717
N990 X-41.482 Y35.804
N995 X-41.489 Y35.891
N1000 X-41.511 Y35.975
N1005 X-41.541 Y36.057 Z-9.732
N1010 X-41.569 Y36.136 Z-9.71
N1015 X-41.596 Y36.21 Z-9.673
N1020 X-41.62 Y36.277 Z-9.623
N1025 X-41.641 Y36.335 Z-9.561
N1030 X-41.657 Y36.382 Z-9.49
N1035 X-41.67 Y36.417 Z-9.411
N1040 X-41.678 Y36.438 Z-9.327
N1045 X-41.68 Y36.446 Z-9.24
N1050 G0 Z5.
N1055 X-75.43 Y-2.386
N1060 Z-8.74
N1065 G1 Z-9.24 F680.
N1070 X-75.424 Y-2.381 Z-9.327
N1075 X-75.405 Y-2.369 Z-9.411
N1080 X-75.374 Y-2.349 Z-9.49
N1085 X-75.332 Y-2.322 Z-9.561
N1090 X-75.28 Y-2.289 Z-9.623
N1095 X-75.22 Y-2.25 Z-9.673
N1100 X-75.153 Y-2.208 Z-9.71
N1105 X-75.082 Y-2.162 Z-9.732
N1110 X-75.009 Y-2.115 Z-9.74
N1115 G3 X-74.474 Y-1.54 I-0.855 J1.332
N1120 G1 X-72.538 Y2.332
N1125 X-72.263 Y2.96
N1130 X-72.075 Y3.5
N1135 X-71.882 Y4.248
N1140 G3 X-71.531 Y7.77 I-20.305 J3.802
N1145 X-71.459 Y14.859 I-198.983 J5.563
M30